small-spring/wanderline/robot/demos/phase1/coordinate_analysis/pen_trail_analysis_20250725_063943.csv
timestamp,step_count,target_pixel_x,target_pixel_y,actual_pixel_x,actual_pixel_y,pen_tip_x,pen_tip_y,pen_tip_z,trail_display_x,trail_display_y,trail_display_z,joint_0,joint_1,joint_2,joint_3,joint_4,joint_5,progress_percent,contact_count
1753425583.2167766,0,400,300,400.03303417827993,300.0788100211623,0.60001651708914,3.940501058116719e-05,-0.09214345665211945,0.60001651708914,3.940501058116719e-05,0.053000000000000005,-0.226,-0.82,1.41,-1.57,4.713,0.0,0.0,0
1753425583.8229747,1,401.34680857714034,304.9031231151581,400.03303417827993,300.0788100211623,0.60001651708914,3.940501058116719e-05,-0.09214345665211945,0.60001651708914,3.940501058116719e-05,0.053000000000000005,-0.226,-0.82,1.41,-1.57,4.713,0.0,0.041666666666666664,1
1753425583.8365152,2,401.34680857714034,304.9031231151581,400.03303417827993,300.0788100211623,0.60001651708914,3.940501058116719e-05,-0.09214345665211945,0.60001651708914,3.940501058116719e-05,0.053000000000000005,-0.226,-0.82,1.41,-1.57,4.713,0.0,0.08333333333333333,2
1753425583.8563187,3,401.34680857714034,304.9031231151581,400.03303417827993,300.0788100211623,0.60001651708914,3.940501058116719e-05,-0.09214345665211945,0.60001651708914,3.940501058116719e-05,0.053000000000000005,-0.226,-0.82,1.41,-1.57,4.713,0.0,0.125,3
1753425583.8762703,4,401.34680857714034,304.9031231151581,400.03303417827993,300.0788100211623,0.60001651708914,3.940501058116719e-05,-0.09214345665211945,0.60001651708914,3.940501058116719e-05,0.053000000000000005,-0.226,-0.82,1.41,-1.57,4.713,0.0,0.16666666666666666,4
1753425583.896558,5,401.34680857714034,304.9031231151581,400.03303417827993,300.0788100211623,0.60001651708914,3.940501058116719e-05,-0.09214345665211945,0.60001651708914,3.940501058116719e-05,0.053000000000000005,-0.226,-0.82,1.41,-1.57,4.713,0.0,0.20833333333333334,5
1753425583.917892,6,401.34680857714034,304.9031231151581,400.03303417827993,300.0788100211623,0.60001651708914,3.940501058116719e-05,-0.09214345665211945,0.60001651708914,3.940501058116719e-05,0.053000000000000005,-0.226,-0.82,1.41,-1.57,4.713,0.0,0.25,6
1753425583.936561,7,401.34680857714034,304.9031231151581,400.03303417827993,300.0788100211623,0.60001651708914,3.940501058116719e-05,-0.09214345665211945,0.60001651708914,3.940501058116719e-05,0.053000000000000005,-0.226,-0.82,1.41,-1.57,4.713,0.0,0.25,7
1753425583.956533,8,401.34680857714034,304.9031231151581,400.03303417827993,300.0788100211623,0.60001651708914,3.940501058116719e-05,-0.09214345665211945,0.60001651708914,3.940501058116719e-05,0.053000000000000005,-0.226,-0.82,1.41,-1.57,4.713,0.0,0.25,8
1753425583.9811115,9,401.34680857714034,304.9031231151581,400.03303417827993,300.0788100211623,0.60001651708914,3.940501058116719e-05,-0.09214345665211945,0.60001651708914,3.940501058116719e-05,0.053000000000000005,-0.226,-0.82,1.41,-1.57,4.713,0.0,0.25,9
1753425583.9971993,10,401.34680857714034,304.9031231151581,400.03303417827993,300.0788100211623,0.60001651708914,3.940501058116719e-05,-0.09214345665211945,0.60001651708914,3.940501058116719e-05,0.053000000000000005,-0.226,-0.82,1.41,-1.57,4.713,0.0,0.25,10
1753425584.0167775,11,401.34680857714034,304.9031231151581,400.03303417827993,300.0788100211623,0.60001651708914,3.940501058116719e-05,-0.09214345665211945,0.60001651708914,3.940501058116719e-05,0.053000000000000005,-0.226,-0.82,1.41,-1.57,4.713,0.0,0.25,11
1753425584.0363076,12,401.34680857714034,304.9031231151581,400.03303417827993,300.0788100211623,0.60001651708914,3.940501058116719e-05,-0.09214345665211945,0.60001651708914,3.940501058116719e-05,0.053000000000000005,-0.226,-0.82,1.41,-1.57,4.713,0.0,0.25,12
1753425584.0565321,13,401.34680857714034,304.9031231151581,400.03303417827993,300.0788100211623,0.60001651708914,3.940501058116719e-05,-0.09214345665211945,0.60001651708914,3.940501058116719e-05,0.053000000000000005,-0.226,-0.82,1.41,-1.57,4.713,0.0,0.25,13
1753425584.0772803,14,401.34680857714034,304.9031231151581,400.03303417827993,300.0788100211623,0.60001651708914,3.940501058116719e-05,-0.09214345665211945,0.60001651708914,3.940501058116719e-05,0.053000000000000005,-0.226,-0.82,1.41,-1.57,4.713,0.0,0.25,14
1753425584.0964713,15,401.34680857714034,304.9031231151581,400.03303417827993,300.0788100211623,0.60001651708914,3.940501058116719e-05,-0.09214345665211945,0.60001651708914,3.940501058116719e-05,0.053000000000000005,-0.226,-0.82,1.41,-1.57,4.713,0.0,0.25,15
1753425584.116622,16,401.34680857714034,304.9031231151581,400.03303417827993,300.0788100211623,0.60001651708914,3.940501058116719e-05,-0.09214345665211945,0.60001651708914,3.940501058116719e-05,0.053000000000000005,-0.226,-0.82,1.41,-1.57,4.713,0.0,0.25,16
1753425584.1378334,17,401.34680857714034,304.9031231151581,400.03303417827993,300.0788100211623,0.60001651708914,3.940501058116719e-05,-0.09214345665211945,0.60001651708914,3.940501058116719e-05,0.053000000000000005,-0.226,-0.82,1.41,-1.57,4.713,0.0,0.25,17
1753425584.156543,18,401.34680857714034,304.9031231151581,400.03303417827993,300.0788100211623,0.60001651708914,3.940501058116719e-05,-0.09214345665211945,0.60001651708914,3.940501058116719e-05,0.053000000000000005,-0.226,-0.82,1.41,-1.57,4.713,0.0,0.25,18
1753425584.1764946,19,401.34680857714034,304.9031231151581,400.03303417827993,300.0788100211623,0.60001651708914,3.940501058116719e-05,-0.09214345665211945,0.60001651708914,3.940501058116719e-05,0.053000000000000005,-0.226,-0.82,1.41,-1.57,4.713,0.0,0.25,19
1753425584.1964834,20,401.34680857714034,304.9031231151581,400.03303417827993,300.0788100211623,0.60001651708914,3.940501058116719e-05,-0.09214345665211945,0.60001651708914,3.940501058116719e-05,0.053000000000000005,-0.226,-0.82,1.41,-1.57,4.713,0.0,0.25,20
1753425584.2164624,21,401.34680857714034,304.9031231151581,400.03303417827993,300.0788100211623,0.60001651708914,3.940501058116719e-05,-0.09214345665211945,0.60001651708914,3.940501058116719e-05,0.053000000000000005,-0.226,-0.82,1.41,-1.57,4.713,0.0,0.25,21
1753425584.236976,22,401.34680857714034,304.9031231151581,400.03303417827993,300.0788100211623,0.60001651708914,3.940501058116719e-05,-0.09214345665211945,0.60001651708914,3.940501058116719e-05,0.053000000000000005,-0.226,-0.82,1.41,-1.57,4.713,0.0,0.25,22
1753425584.257411,23,401.34680857714034,304.9031231151581,400.03303417827993,300.0788100211623,0.60001651708914,3.940501058116719e-05,-0.09214345665211945,0.60001651708914,3.940501058116719e-05,0.053000000000000005,-0.226,-0.82,1.41,-1.57,4.713,0.0,0.25,23
1753425584.2764897,24,401.34680857714034,304.9031231151581,400.03303417827993,300.0788100211623,0.60001651708914,3.940501058116719e-05,-0.09214345665211945,0.60001651708914,3.940501058116719e-05,0.053000000000000005,-0.226,-0.82,1.41,-1.57,4.713,0.0,0.25,24
1753425584.2992885,25,401.34680857714034,304.9031231151581,400.03303417827993,300.0788100211623,0.60001651708914,3.940501058116719e-05,-0.09214345665211945,0.60001651708914,3.940501058116719e-05,0.053000000000000005,-0.226,-0.82,1.41,-1.57,4.713,0.0,0.25,25
1753425584.3163853,26,401.34680857714034,304.9031231151581,400.03303417827993,300.0788100211623,0.60001651708914,3.940501058116719e-05,-0.09214345665211945,0.60001651708914,3.940501058116719e-05,0.053000000000000005,-0.226,-0.82,1.41,-1.57,4.713,0.0,0.25,26
1753425584.3364697,27,401.34680857714034,304.9031231151581,400.03303417827993,300.0788100211623,0.60001651708914,3.940501058116719e-05,-0.09214345665211945,0.60001651708914,3.940501058116719e-05,0.053000000000000005,-0.226,-0.82,1.41,-1.57,4.713,0.0,0.25,27
1753425584.3564777,28,401.34680857714034,304.9031231151581,400.03303417827993,300.0788100211623,0.60001651708914,3.940501058116719e-05,-0.09214345665211945,0.60001651708914,3.940501058116719e-05,0.053000000000000005,-0.226,-0.82,1.41,-1.57,4.713,0.0,0.25,28
1753425584.376078,29,401.34680857714034,304.9031231151581,400.03303417827993,300.0788100211623,0.60001651708914,3.940501058116719e-05,-0.09214345665211945,0.60001651708914,3.940501058116719e-05,0.053000000000000005,-0.226,-0.82,1.41,-1.57,4.713,0.0,0.25,29
1753425584.3983128,30,401.34680857714034,304.9031231151581,400.03303417827993,300.0788100211623,0.60001651708914,3.940501058116719e-05,-0.09214345665211945,0.60001651708914,3.940501058116719e-05,0.053000000000000005,-0.226,-0.82,1.41,-1.57,4.713,0.0,0.25,30
1753425584.4168167,31,401.34680857714034,304.9031231151581,400.03303417827993,300.0788100211623,0.60001651708914,3.940501058116719e-05,-0.09214345665211945,0.60001651708914,3.940501058116719e-05,0.053000000000000005,-0.226,-0.82,1.41,-1.57,4.713,0.0,0.25,31
1753425584.436558,32,401.34680857714034,304.9031231151581,400.03303417827993,300.0788100211623,0.60001651708914,3.940501058116719e-05,-0.09214345665211945,0.60001651708914,3.940501058116719e-05,0.053000000000000005,-0.226,-0.82,1.41,-1.57,4.713,0.0,0.25,32
1753425584.4582627,33,401.34680857714034,304.9031231151581,400.03303417827993,300.0788100211623,0.60001651708914,3.940501058116719e-05,-0.09214345665211945,0.60001651708914,3.940501058116719e-05,0.053000000000000005,-0.226,-0.82,1.41,-1.57,4.713,0.0,0.25,33
1753425584.4777925,34,401.34680857714034,304.9031231151581,400.03303417827993,300.0788100211623,0.60001651708914,3.940501058116719e-05,-0.09214345665211945,0.60001651708914,3.940501058116719e-05,0.053000000000000005,-0.226,-0.82,1.41,-1.57,4.713,0.0,0.25,34
1753425584.4964914,35,401.34680857714034,304.9031231151581,400.03303417827993,300.0788100211623,0.60001651708914,3.940501058116719e-05,-0.09214345665211945,0.60001651708914,3.940501058116719e-05,0.053000000000000005,-0.226,-0.82,1.41,-1.57,4.713,0.0,0.25,35
1753425584.5161996,36,401.34680857714034,304.9031231151581,400.03303417827993,300.0788100211623,0.60001651708914,3.940501058116719e-05,-0.09214345665211945,0.60001651708914,3.940501058116719e-05,0.053000000000000005,-0.226,-0.82,1.41,-1.57,4.713,0.0,0.25,36
1753425584.536526,37,401.34680857714034,304.9031231151581,400.03303417827993,300.0788100211623,0.60001651708914,3.940501058116719e-05,-0.09214345665211945,0.60001651708914,3.940501058116719e-05,0.053000000000000005,-0.226,-0.82,1.41,-1.57,4.713,0.0,0.25,37
1753425584.5563006,38,401.34680857714034,304.9031231151581,400.03303417827993,300.0788100211623,0.60001651708914,3.940501058116719e-05,-0.09214345665211945,0.60001651708914,3.940501058116719e-05,0.053000000000000005,-0.226,-0.82,1.41,-1.57,4.713,0.0,0.25,38
1753425584.576653,39,401.34680857714034,304.9031231151581,400.03303417827993,300.0788100211623,0.60001651708914,3.940501058116719e-05,-0.09214345665211945,0.60001651708914,3.940501058116719e-05,0.053000000000000005,-0.226,-0.82,1.41,-1.57,4.713,0.0,0.25,39
1753425584.5973704,40,401.34680857714034,304.9031231151581,400.03303417827993,300.0788100211623,0.60001651708914,3.940501058116719e-05,-0.09214345665211945,0.60001651708914,3.940501058116719e-05,0.053000000000000005,-0.226,-0.82,1.41,-1.57,4.713,0.0,0.25,40
1753425584.6162467,41,401.34680857714034,304.9031231151581,400.03303417827993,300.0788100211623,0.60001651708914,3.940501058116719e-05,-0.09214345665211945,0.60001651708914,3.940501058116719e-05,0.053000000000000005,-0.226,-0.82,1.41,-1.57,4.713,0.0,0.25,41
1753425584.6364212,42,401.34680857714034,304.9031231151581,400.03303417827993,300.0788100211623,0.60001651708914,3.940501058116719e-05,-0.09214345665211945,0.60001651708914,3.940501058116719e-05,0.053000000000000005,-0.226,-0.82,1.41,-1.57,4.713,0.0,0.25,42
1753425584.656474,43,401.34680857714034,304.9031231151581,400.03303417827993,300.0788100211623,0.60001651708914,3.940501058116719e-05,-0.09214345665211945,0.60001651708914,3.940501058116719e-05,0.053000000000000005,-0.226,-0.82,1.41,-1.57,4.713,0.0,0.25,43
1753425584.6763337,44,401.34680857714034,304.9031231151581,400.03303417827993,300.0788100211623,0.60001651708914,3.940501058116719e-05,-0.09214345665211945,0.60001651708914,3.940501058116719e-05,0.053000000000000005,-0.226,-0.82,1.41,-1.57,4.713,0.0,0.25,44
1753425584.695923,45,401.34680857714034,304.9031231151581,400.03303417827993,300.0788100211623,0.60001651708914,3.940501058116719e-05,-0.09214345665211945,0.60001651708914,3.940501058116719e-05,0.053000000000000005,-0.226,-0.82,1.41,-1.57,4.713,0.0,0.25,45
1753425584.7162685,46,401.34680857714034,304.9031231151581,400.03303417827993,300.0788100211623,0.60001651708914,3.940501058116719e-05,-0.09214345665211945,0.60001651708914,3.940501058116719e-05,0.053000000000000005,-0.226,-0.82,1.41,-1.57,4.713,0.0,0.25,46
1753425584.7366316,47,401.34680857714034,304.9031231151581,400.03303417827993,300.0788100211623,0.60001651708914,3.940501058116719e-05,-0.09214345665211945,0.60001651708914,3.940501058116719e-05,0.053000000000000005,-0.226,-0.82,1.41,-1.57,4.713,0.0,0.25,47
1753425584.7569733,48,401.34680857714034,304.9031231151581,400.03303417827993,300.0788100211623,0.60001651708914,3.940501058116719e-05,-0.09214345665211945,0.60001651708914,3.940501058116719e-05,0.053000000000000005,-0.226,-0.82,1.41,-1.57,4.713,0.0,0.25,48
1753425584.7785983,49,401.34680857714034,304.9031231151581,400.03303417827993,300.0788100211623,0.60001651708914,3.940501058116719e-05,-0.09214345665211945,0.60001651708914,3.940501058116719e-05,0.053000000000000005,-0.226,-0.82,1.41,-1.57,4.713,0.0,0.25,49
1753425584.7983449,50,401.34680857714034,304.9031231151581,400.03303417827993,300.0788100211623,0.60001651708914,3.940501058116719e-05,-0.09214345665211945,0.60001651708914,3.940501058116719e-05,0.053000000000000005,-0.226,-0.82,1.41,-1.57,4.713,0.0,0.25,50
1753425584.8167105,51,401.34680857714034,304.9031231151581,400.03303417827993,300.0788100211623,0.60001651708914,3.940501058116719e-05,-0.09214345665211945,0.60001651708914,3.940501058116719e-05,0.053000000000000005,-0.226,-0.82,1.41,-1.57,4.713,0.0,0.25,51
1753425584.8363333,52,401.34680857714034,304.9031231151581,400.03303417827993,300.0788100211623,0.60001651708914,3.940501058116719e-05,-0.09214345665211945,0.60001651708914,3.940501058116719e-05,0.053000000000000005,-0.226,-0.82,1.41,-1.57,4.713,0.0,0.25,52
1753425584.856396,53,401.34680857714034,304.9031231151581,400.03303417827993,300.0788100211623,0.60001651708914,3.940501058116719e-05,-0.09214345665211945,0.60001651708914,3.940501058116719e-05,0.053000000000000005,-0.226,-0.82,1.41,-1.57,4.713,0.0,0.25,53
1753425584.8765187,54,401.34680857714034,304.9031231151581,400.03303417827993,300.0788100211623,0.60001651708914,3.940501058116719e-05,-0.09214345665211945,0.60001651708914,3.940501058116719e-05,0.053000000000000005,-0.226,-0.82,1.41,-1.57,4.713,0.0,0.25,54
1753425584.8969162,55,401.34680857714034,304.9031231151581,400.03303417827993,300.0788100211623,0.60001651708914,3.940501058116719e-05,-0.09214345665211945,0.60001651708914,3.940501058116719e-05,0.053000000000000005,-0.226,-0.82,1.41,-1.57,4.713,0.0,0.25,55
1753425584.9166954,56,401.34680857714034,304.9031231151581,400.03303417827993,300.0788100211623,0.60001651708914,3.940501058116719e-05,-0.09214345665211945,0.60001651708914,3.940501058116719e-05,0.053000000000000005,-0.226,-0.82,1.41,-1.57,4.713,0.0,0.25,56
1753425584.937016,57,401.34680857714034,304.9031231151581,400.03303417827993,300.0788100211623,0.60001651708914,3.940501058116719e-05,-0.09214345665211945,0.60001651708914,3.940501058116719e-05,0.053000000000000005,-0.226,-0.82,1.41,-1.57,4.713,0.0,0.25,57
1753425584.9565387,58,401.34680857714034,304.9031231151581,400.03303417827993,300.0788100211623,0.60001651708914,3.940501058116719e-05,-0.09214345665211945,0.60001651708914,3.940501058116719e-05,0.053000000000000005,-0.226,-0.82,1.41,-1.57,4.713,0.0,0.25,58
1753425584.9766538,59,401.34680857714034,304.9031231151581,400.03303417827993,300.0788100211623,0.60001651708914,3.940501058116719e-05,-0.09214345665211945,0.60001651708914,3.940501058116719e-05,0.053000000000000005,-0.226,-0.82,1.41,-1.57,4.713,0.0,0.25,59
1753425584.9969792,60,401.34680857714034,304.9031231151581,400.03303417827993,300.0788100211623,0.60001651708914,3.940501058116719e-05,-0.09214345665211945,0.60001651708914,3.940501058116719e-05,0.053000000000000005,-0.226,-0.82,1.41,-1.57,4.713,0.0,0.25,60
1753425585.0169759,61,401.34680857714034,304.9031231151581,400.03303417827993,300.0788100211623,0.60001651708914,3.940501058116719e-05,-0.09214345665211945,0.60001651708914,3.940501058116719e-05,0.053000000000000005,-0.226,-0.82,1.41,-1.57,4.713,0.0,0.25,61
1753425585.03648,62,401.34680857714034,304.9031231151581,400.03303417827993,300.0788100211623,0.60001651708914,3.940501058116719e-05,-0.09214345665211945,0.60001651708914,3.940501058116719e-05,0.053000000000000005,-0.226,-0.82,1.41,-1.57,4.713,0.0,0.25,62
1753425585.0566328,63,401.34680857714034,304.9031231151581,400.03303417827993,300.0788100211623,0.60001651708914,3.940501058116719e-05,-0.09214345665211945,0.60001651708914,3.940501058116719e-05,0.053000000000000005,-0.226,-0.82,1.41,-1.57,4.713,0.0,0.25,63
1753425585.0771453,64,401.34680857714034,304.9031231151581,400.03303417827993,300.0788100211623,0.60001651708914,3.940501058116719e-05,-0.09214345665211945,0.60001651708914,3.940501058116719e-05,0.053000000000000005,-0.226,-0.82,1.41,-1.57,4.713,0.0,0.25,64
1753425585.0982628,65,401.34680857714034,304.9031231151581,400.03303417827993,300.0788100211623,0.60001651708914,3.940501058116719e-05,-0.09214345665211945,0.60001651708914,3.940501058116719e-05,0.053000000000000005,-0.226,-0.82,1.41,-1.57,4.713,0.0,0.25,65
1753425585.1164677,66,401.34680857714034,304.9031231151581,400.03303417827993,300.0788100211623,0.60001651708914,3.940501058116719e-05,-0.09214345665211945,0.60001651708914,3.940501058116719e-05,0.053000000000000005,-0.226,-0.82,1.41,-1.57,4.713,0.0,0.25,66
1753425585.1365156,67,401.34680857714034,304.9031231151581,400.03303417827993,300.0788100211623,0.60001651708914,3.940501058116719e-05,-0.09214345665211945,0.60001651708914,3.940501058116719e-05,0.053000000000000005,-0.226,-0.82,1.41,-1.57,4.713,0.0,0.25,67
1753425585.1562455,68,401.34680857714034,304.9031231151581,400.03303417827993,300.0788100211623,0.60001651708914,3.940501058116719e-05,-0.09214345665211945,0.60001651708914,3.940501058116719e-05,0.053000000000000005,-0.226,-0.82,1.41,-1.57,4.713,0.0,0.25,68
1753425585.17666,69,401.34680857714034,304.9031231151581,400.03303417827993,300.0788100211623,0.60001651708914,3.940501058116719e-05,-0.09214345665211945,0.60001651708914,3.940501058116719e-05,0.053000000000000005,-0.226,-0.82,1.41,-1.57,4.713,0.0,0.25,69
1753425585.196537,70,401.34680857714034,304.9031231151581,400.03303417827993,300.0788100211623,0.60001651708914,3.940501058116719e-05,-0.09214345665211945,0.60001651708914,3.940501058116719e-05,0.053000000000000005,-0.226,-0.82,1.41,-1.57,4.713,0.0,0.25,70
1753425585.2168202,71,401.34680857714034,304.9031231151581,400.03303417827993,300.0788100211623,0.60001651708914,3.940501058116719e-05,-0.09214345665211945,0.60001651708914,3.940501058116719e-05,0.053000000000000005,-0.226,-0.82,1.41,-1.57,4.713,0.0,0.25,71
1753425585.2366707,72,401.34680857714034,304.9031231151581,400.03303417827993,300.0788100211623,0.60001651708914,3.940501058116719e-05,-0.09214345665211945,0.60001651708914,3.940501058116719e-05,0.053000000000000005,-0.226,-0.82,1.41,-1.57,4.713,0.0,0.25,72
1753425585.2601337,73,401.34680857714034,304.9031231151581,400.03303417827993,300.0788100211623,0.60001651708914,3.940501058116719e-05,-0.09214345665211945,0.60001651708914,3.940501058116719e-05,0.053000000000000005,-0.226,-0.82,1.41,-1.57,4.713,0.0,0.25,73
1753425585.2762635,74,401.34680857714034,304.9031231151581,400.03303417827993,300.0788100211623,0.60001651708914,3.940501058116719e-05,-0.09214345665211945,0.60001651708914,3.940501058116719e-05,0.053000000000000005,-0.226,-0.82,1.41,-1.57,4.713,0.0,0.25,74
1753425585.2965708,75,401.34680857714034,304.9031231151581,400.03303417827993,300.0788100211623,0.60001651708914,3.940501058116719e-05,-0.09214345665211945,0.60001651708914,3.940501058116719e-05,0.053000000000000005,-0.226,-0.82,1.41,-1.57,4.713,0.0,0.25,75
1753425585.3167355,76,401.34680857714034,304.9031231151581,400.03303417827993,300.0788100211623,0.60001651708914,3.940501058116719e-05,-0.09214345665211945,0.60001651708914,3.940501058116719e-05,0.053000000000000005,-0.226,-0.82,1.41,-1.57,4.713,0.0,0.25,76
1753425585.3362772,77,401.34680857714034,304.9031231151581,400.03303417827993,300.0788100211623,0.60001651708914,3.940501058116719e-05,-0.09214345665211945,0.60001651708914,3.940501058116719e-05,0.053000000000000005,-0.226,-0.82,1.41,-1.57,4.713,0.0,0.25,77
1753425585.356365,78,401.34680857714034,304.9031231151581,400.03303417827993,300.0788100211623,0.60001651708914,3.940501058116719e-05,-0.09214345665211945,0.60001651708914,3.940501058116719e-05,0.053000000000000005,-0.226,-0.82,1.41,-1.57,4.713,0.0,0.25,78
1753425585.3773527,79,401.34680857714034,304.9031231151581,400.03303417827993,300.0788100211623,0.60001651708914,3.940501058116719e-05,-0.09214345665211945,0.60001651708914,3.940501058116719e-05,0.053000000000000005,-0.226,-0.82,1.41,-1.57,4.713,0.0,0.25,79
1753425585.3972504,80,401.34680857714034,304.9031231151581,400.03303417827993,300.0788100211623,0.60001651708914,3.940501058116719e-05,-0.09214345665211945,0.60001651708914,3.940501058116719e-05,0.053000000000000005,-0.226,-0.82,1.41,-1.57,4.713,0.0,0.25,80
1753425585.4171891,81,401.34680857714034,304.9031231151581,400.03303417827993,300.0788100211623,0.60001651708914,3.940501058116719e-05,-0.09214345665211945,0.60001651708914,3.940501058116719e-05,0.053000000000000005,-0.226,-0.82,1.41,-1.57,4.713,0.0,0.25,81
1753425585.4368312,82,401.34680857714034,304.9031231151581,400.03303417827993,300.0788100211623,0.60001651708914,3.940501058116719e-05,-0.09214345665211945,0.60001651708914,3.940501058116719e-05,0.053000000000000005,-0.226,-0.82,1.41,-1.57,4.713,0.0,0.25,82
1753425585.4564016,83,401.34680857714034,304.9031231151581,400.03303417827993,300.0788100211623,0.60001651708914,3.940501058116719e-05,-0.09214345665211945,0.60001651708914,3.940501058116719e-05,0.053000000000000005,-0.226,-0.82,1.41,-1.57,4.713,0.0,0.25,83
1753425585.4762466,84,401.34680857714034,304.9031231151581,400.03303417827993,300.0788100211623,0.60001651708914,3.940501058116719e-05,-0.09214345665211945,0.60001651708914,3.940501058116719e-05,0.053000000000000005,-0.226,-0.82,1.41,-1.57,4.713,0.0,0.25,84
1753425585.4964743,85,401.34680857714034,304.9031231151581,400.03303417827993,300.0788100211623,0.60001651708914,3.940501058116719e-05,-0.09214345665211945,0.60001651708914,3.940501058116719e-05,0.053000000000000005,-0.226,-0.82,1.41,-1.57,4.713,0.0,0.25,85
1753425585.5165346,86,401.34680857714034,304.9031231151581,400.03303417827993,300.0788100211623,0.60001651708914,3.940501058116719e-05,-0.09214345665211945,0.60001651708914,3.940501058116719e-05,0.053000000000000005,-0.226,-0.82,1.41,-1.57,4.713,0.0,0.25,86
1753425585.5364711,87,401.34680857714034,304.9031231151581,400.03303417827993,300.0788100211623,0.60001651708914,3.940501058116719e-05,-0.09214345665211945,0.60001651708914,3.940501058116719e-05,0.053000000000000005,-0.226,-0.82,1.41,-1.57,4.713,0.0,0.25,87
1753425585.5568523,88,401.34680857714034,304.9031231151581,400.03303417827993,300.0788100211623,0.60001651708914,3.940501058116719e-05,-0.09214345665211945,0.60001651708914,3.940501058116719e-05,0.053000000000000005,-0.226,-0.82,1.41,-1.57,4.713,0.0,0.25,88
1753425585.5806937,89,401.34680857714034,304.9031231151581,400.03303417827993,300.0788100211623,0.60001651708914,3.940501058116719e-05,-0.09214345665211945,0.60001651708914,3.940501058116719e-05,0.053000000000000005,-0.226,-0.82,1.41,-1.57,4.713,0.0,0.25,89
1753425585.597373,90,401.34680857714034,304.9031231151581,400.03303417827993,300.0788100211623,0.60001651708914,3.940501058116719e-05,-0.09214345665211945,0.60001651708914,3.940501058116719e-05,0.053000000000000005,-0.226,-0.82,1.41,-1.57,4.713,0.0,0.25,90
1753425585.6169515,91,401.34680857714034,304.9031231151581,400.03303417827993,300.0788100211623,0.60001651708914,3.940501058116719e-05,-0.09214345665211945,0.60001651708914,3.940501058116719e-05,0.053000000000000005,-0.226,-0.82,1.41,-1.57,4.713,0.0,0.25,91
1753425585.64307,92,401.34680857714034,304.9031231151581,400.03303417827993,300.0788100211623,0.60001651708914,3.940501058116719e-05,-0.09214345665211945,0.60001651708914,3.940501058116719e-05,0.053000000000000005,-0.226,-0.82,1.41,-1.57,4.713,0.0,0.25,92
1753425585.6560109,93,401.34680857714034,304.9031231151581,400.03303417827993,300.0788100211623,0.60001651708914,3.940501058116719e-05,-0.09214345665211945,0.60001651708914,3.940501058116719e-05,0.053000000000000005,-0.226,-0.82,1.41,-1.57,4.713,0.0,0.25,93
1753425585.6828687,94,401.34680857714034,304.9031231151581,400.03303417827993,300.0788100211623,0.60001651708914,3.940501058116719e-05,-0.09214345665211945,0.60001651708914,3.940501058116719e-05,0.053000000000000005,-0.226,-0.82,1.41,-1.57,4.713,0.0,0.25,94
1753425585.6984482,95,401.34680857714034,304.9031231151581,400.03303417827993,300.0788100211623,0.60001651708914,3.940501058116719e-05,-0.09214345665211945,0.60001651708914,3.940501058116719e-05,0.053000000000000005,-0.226,-0.82,1.41,-1.57,4.713,0.0,0.25,95
1753425585.717196,96,401.34680857714034,304.9031231151581,400.03303417827993,300.0788100211623,0.60001651708914,3.940501058116719e-05,-0.09214345665211945,0.60001651708914,3.940501058116719e-05,0.053000000000000005,-0.226,-0.82,1.41,-1.57,4.713,0.0,0.25,96
1753425585.7381954,97,401.34680857714034,304.9031231151581,400.03303417827993,300.0788100211623,0.60001651708914,3.940501058116719e-05,-0.09214345665211945,0.60001651708914,3.940501058116719e-05,0.053000000000000005,-0.226,-0.82,1.41,-1.57,4.713,0.0,0.25,97
1753425585.7571561,98,401.34680857714034,304.9031231151581,400.03303417827993,300.0788100211623,0.60001651708914,3.940501058116719e-05,-0.09214345665211945,0.60001651708914,3.940501058116719e-05,0.053000000000000005,-0.226,-0.82,1.41,-1.57,4.713,0.0,0.25,98
1753425585.7771711,99,401.34680857714034,304.9031231151581,400.03303417827993,300.0788100211623,0.60001651708914,3.940501058116719e-05,-0.09214345665211945,0.60001651708914,3.940501058116719e-05,0.053000000000000005,-0.226,-0.82,1.41,-1.57,4.713,0.0,0.25,99
1753425585.7974157,100,401.34680857714034,304.9031231151581,400.03303417827993,300.0788100211623,0.60001651708914,3.940501058116719e-05,-0.09214345665211945,0.60001651708914,3.940501058116719e-05,0.053000000000000005,-0.226,-0.82,1.41,-1.57,4.713,0.0,0.25,100
1753425585.8169343,101,401.34680857714034,304.9031231151581,400.0462703533601,300.1270220289672,0.60002313517668,6.35110144835832e-05,-0.0921470213984335,0.60001651708914,3.940501058116719e-05,0.053000000000000005,-0.22595943308249788,-0.8200026505350811,1.4099940659915806,-1.57,4.7129859000000005,0.0,0.25,101
1753425585.8363605,102,401.34680857714034,304.9031231151581,400.05950454091686,300.1752346682646,0.6000297522704584,8.761733413230333e-05,-0.09215058615863653,0.60001651708914,3.940501058116719e-05,0.053000000000000005,-0.22591886616499574,-0.8200053010701622,1.4099881319831613,-1.57,4.7129718,0.0,0.25,102
1753425585.8580465,103,401.34680857714034,304.9031231151581,400.07273674091965,300.2234479389706,0.6000363683704598,0.00011172396948529173,-0.09215415093272858,0.60001651708914,3.940501058116719e-05,0.053000000000000005,-0.2258782992474936,-0.8200079516052434,1.4099821979747418,-1.57,4.7129577000000005,0.0,0.25,103
1753425585.8767662,104,401.34680857714034,304.9031231151581,400.0859669533382,300.27166184100133,0.6000429834766691,0.00013583092050066525,-0.09215771572070897,0.60001651708914,3.940501058116719e-05,0.053000000000000005,-0.22583773232999146,-0.8200106021403245,1.4099762639663225,-1.57,4.7129436,0.0,0.25,104
1753425585.8983073,105,401.34680857714034,304.9031231151581,400.0991951781424,300.31987637427284,0.6000495975890712,0.0001599381871364297,-0.09216128052257785,0.60001651708914,3.940501058116719e-05,0.053000000000000005,-0.22579716541248934,-0.8200132526754057,1.4099703299579032,-1.57,4.7129295,0.0,0.25,105
1753425585.9173143,106,401.34680857714034,304.9031231151581,400.1124214153021,300.3680915387013,0.600056210707651,0.0001840457693506603,-0.09216484533833497,0.60001651708914,3.940501058116719e-05,0.053000000000000005,-0.2257565984949872,-0.8200159032104869,1.4099643959494839,-1.57,4.7129154,0.0,0.25,106
1753425585.9363759,107,401.34680857714034,304.9031231151581,400.1256456647873,300.41630733420266,0.6000628228323936,0.0002081536671013351,-0.09216841016797997,0.60001651708914,3.940501058116719e-05,0.053000000000000005,-0.22571603157748507,-0.820018553745568,1.4099584619410643,-1.57,4.7129013,0.0,0.25,107
1753425585.956997,108,401.34680857714034,304.9031231151581,400.1388679265677,300.4645237606931,0.6000694339632838,0.00023226188034654316,-0.09217197501151278,0.60001651708914,3.940501058116719e-05,0.053000000000000005,-0.22567546465998295,-0.8200212042806492,1.409952527932645,-1.57,4.7128872,0.0,0.25,108
1753425585.9776237,109,401.34680857714034,304.9031231151581,400.152088200613,300.5127408180887,0.6000760441003065,0.0002563704090443458,-0.09217553986893312,0.60001651708914,3.940501058116719e-05,0.053000000000000005,-0.2256348977424808,-0.8200238548157304,1.4099465939242257,-1.57,4.7128731,0.0,0.25,109
1753425585.9969227,110,401.34680857714034,304.9031231151581,400.16530648689314,300.56095850630544,0.6000826532434466,0.00028047925315272115,-0.09217910474024069,0.60001651708914,3.940501058116719e-05,0.053000000000000005,-0.22559433082497868,-0.8200265053508115,1.4099406599158064,-1.57,4.712859,0.0,0.25,110
1753425586.016238,111,401.34680857714034,304.9031231151581,400.1785227853779,300.6091768252595,0.6000892613926889,0.00030458841262974434,-0.0921826696254355,0.60001651708914,3.940501058116719e-05,0.053000000000000005,-0.22555376390747653,-0.8200291558858926,1.409934725907387,-1.57,4.7128449,0.0,0.25,111
1753425586.0370142,112,401.34680857714034,304.9031231151581,400.19173709603734,300.6573957748668,0.6000958685480187,0.00032869788743340733,-0.09218623452451721,0.60001651708914,3.940501058116719e-05,0.053000000000000005,-0.2255131969899744,-0.8200318064209737,1.4099287918989676,-1.57,4.7128308,0.0,0.25,112
1753425586.059544,113,401.34680857714034,304.9031231151581,400.2049494188412,300.7056153550436,0.6001024747094206,0.0003528076775217992,-0.09218979943748565,0.60001651708914,3.940501058116719e-05,0.053000000000000005,-0.22547263007247226,-0.8200344569560549,1.4099228578905483,-1.57,4.7128167,0.0,0.25,113
1753425586.076513,114,401.34680857714034,304.9031231151581,400.21815975375915,300.75383556570586,0.6001090798768796,0.00037691778285293964,-0.09219336436434053,0.60001651708914,3.940501058116719e-05,0.053000000000000005,-0.22543206315497014,-0.8200371074911361,1.409916923882129,-1.57,4.7128026,0.0,0.25,114
1753425586.097013,115,401.34680857714034,304.9031231151581,400.23136810076153,300.8020564067696,0.6001156840503807,0.0004010282033848206,-0.09219692930508164,0.60001651708914,3.940501058116719e-05,0.053000000000000005,-0.22539149623746801,-0.8200397580262172,1.4099109898737097,-1.57,4.7127885,0.0,0.25,115
1753425586.1165037,116,401.34680857714034,304.9031231151581,400.24457445981784,300.8502778781511,0.6001222872299089,0.000425138939075545,-0.09220049425970889,0.60001651708914,3.940501058116719e-05,0.053000000000000005,-0.22535092931996586,-0.8200424085612984,1.4099050558652901,-1.57,4.7127744,0.0,0.25,116
1753425586.1366918,117,401.34680857714034,304.9031231151581,400.25777883089773,300.8984999797662,0.6001288894154488,0.00044924998988309095,-0.09220405922822203,0.60001651708914,3.940501058116719e-05,0.053000000000000005,-0.22531036240246374,-0.8200450590963796,1.4098991218568708,-1.57,4.7127603,0.0,0.25,117
1753425586.1575713,118,401.34680857714034,304.9031231151581,400.2709812139716,300.9467227115311,0.6001354906069858,0.0004733613557655475,-0.0922076242106207,0.60001651708914,3.940501058116719e-05,0.053000000000000005,-0.2252697954849616,-0.8200477096314607,1.4098931878484515,-1.57,4.7127462,0.0,0.25,118
1753425586.1768765,119,401.34680857714034,304.9031231151581,400.2841816090089,300.99494607336175,0.6001420908045044,0.0004974730366808788,-0.09221118920690477,0.60001651708914,3.940501058116719e-05,0.053000000000000005,-0.22522922856745947,-0.8200503601665419,1.4098872538400322,-1.57,4.7127321,0.0,0.25,119
1753425586.1965387,120,401.34680857714034,304.9031231151581,400.2973800159798,301.0431700651743,0.6001486900079899,0.0005215850325871602,-0.09221475421707415,0.60001651708914,3.940501058116719e-05,0.053000000000000005,-0.22518866164995732,-0.820053010701623,1.409881319831613,-1.57,4.712718,0.0,0.25,120
1753425586.2162402,121,401.34680857714034,304.9031231151581,400.3105764348541,301.09139468688477,0.600155288217427,0.0005456973434423834,-0.09221831924112858,0.60001651708914,3.940501058116719e-05,0.053000000000000005,-0.2251480947324552,-0.8200556612367041,1.4098753858231934,-1.57,4.7127039,0.0,0.25,121
1753425586.2373354,122,401.34680857714034,304.9031231151581,400.32377086560166,301.1396199384092,0.6001618854328008,0.0005698099692046099,-0.09222188427906777,0.60001651708914,3.940501058116719e-05,0.053000000000000005,-0.22510752781495308,-0.8200583117717853,1.409869451814774,-1.57,4.7126898,0.0,0.25,122
1753425586.2564852,123,401.34680857714034,304.9031231151581,400.33696330819197,301.1878458196637,0.600168481654096,0.0005939229098318732,-0.09222544933089138,0.60001651708914,3.940501058116719e-05,0.053000000000000005,-0.22506696089745093,-0.8200609623068664,1.4098635178063548,-1.57,4.7126757,0.0,0.25,123
1753425586.2768402,124,401.34680857714034,304.9031231151581,400.3501537625958,301.23607233056435,0.6001750768812979,0.0006180361652821792,-0.09222901439659958,0.60001651708914,3.940501058116719e-05,0.053000000000000005,-0.2250263939799488,-0.8200636128419476,1.4098575837979355,-1.57,4.7126616,0.0,0.25,124
1753425586.2969167,125,401.34680857714034,304.9031231151581,400.3633422287821,301.28429947102717,0.600181671114391,0.0006421497355135891,-0.09223257947619193,0.60001651708914,3.940501058116719e-05,0.053000000000000005,-0.22498582706244666,-0.8200662633770288,1.4098516497895162,-1.57,4.7126475,0.0,0.25,125
1753425586.3165956,126,401.34680857714034,304.9031231151581,400.3765287067217,301.3325272409681,0.6001882643533608,0.0006662636204840533,-0.09223614456966811,0.60001651708914,3.940501058116719e-05,0.053000000000000005,-0.22494526014494454,-0.8200689139121099,1.4098457157810966,-1.57,4.7126334000000005,0.0,0.25,126
1753425586.3367062,127,401.34680857714034,304.9031231151581,400.3897131963837,301.38075564030333,0.6001948565981918,0.0006903778201516747,-0.09223970967702813,0.60001651708914,3.940501058116719e-05,0.053000000000000005,-0.2249046932274424,-0.8200715644471911,1.4098397817726773,-1.57,4.7126193,0.0,0.25,127
1753425586.3569214,128,401.34680857714034,304.9031231151581,400.40289569773864,301.4289846689489,0.6002014478488693,0.0007144923344744453,-0.09224327479827157,0.60001651708914,3.940501058116719e-05,0.053000000000000005,-0.22486412630994027,-0.8200742149822722,1.409833847764258,-1.57,4.7126052000000005,0.0,0.25,128
1753425586.3788414,129,401.34680857714034,304.9031231151581,400.4160762107557,301.4772143268208,0.6002080381053778,0.0007386071634103986,-0.09224683993339833,0.60001651708914,3.940501058116719e-05,0.053000000000000005,-0.22482355939243814,-0.8200768655173534,1.4098279137558387,-1.57,4.7125911,0.0,0.25,129
1753425586.3966208,130,401.34680857714034,304.9031231151581,400.42925473540544,301.5254446138351,0.6002146273677027,0.0007627223069175265,-0.0922504050824084,0.60001651708914,3.940501058116719e-05,0.053000000000000005,-0.224782992474936,-0.8200795160524346,1.4098219797474192,-1.57,4.7125770000000005,0.0,0.25,130
1753425586.4167202,131,401.34680857714034,304.9031231151581,400.44243127165754,301.57367552990786,0.6002212156358288,0.0007868377649539182,-0.0922539702453011,0.60001651708914,3.940501058116719e-05,0.053000000000000005,-0.22474242555743387,-0.8200821665875156,1.4098160457389999,-1.57,4.7125629,0.0,0.25,131
1753425586.436305,132,401.34680857714034,304.9031231151581,400.455605819482,301.6219070749551,0.600227802909741,0.0008109535374775517,-0.09225753542207665,0.60001651708914,3.940501058116719e-05,0.053000000000000005,-0.22470185863993172,-0.8200848171225968,1.4098101117305806,-1.57,4.7125488,0.0,0.25,132
1753425586.4574363,133,401.34680857714034,304.9031231151581,400.4687783788484,301.67013924889284,0.6002343891894242,0.0008350696244464328,-0.09226110061273457,0.60001651708914,3.940501058116719e-05,0.053000000000000005,-0.2246612917224296,-0.8200874676576779,1.4098041777221613,-1.57,4.7125347,0.0,0.25,133
1753425586.4794505,134,401.34680857714034,304.9031231151581,400.4819489497272,301.71837205163723,0.6002409744748636,0.0008591860258186229,-0.09226466581727474,0.60001651708914,3.940501058116719e-05,0.053000000000000005,-0.22462072480492745,-0.8200901181927591,1.409798243713742,-1.57,4.7125206,0.0,0.25,134
1753425586.4974713,135,401.34680857714034,304.9031231151581,400.495117532088,301.7666054831042,0.600247558766044,0.0008833027415520861,-0.09226823103569712,0.60001651708914,3.940501058116719e-05,0.053000000000000005,-0.22458015788742533,-0.8200927687278403,1.4097923097053224,-1.57,4.7125065,0.0,0.25,135
1753425586.516403,136,401.34680857714034,304.9031231151581,400.5082841259008,301.8148395432098,0.6002541420629504,0.0009074197716048976,-0.09227179626800111,0.60001651708914,3.940501058116719e-05,0.053000000000000005,-0.2245395909699232,-0.8200954192629214,1.4097863756969031,-1.57,4.7124924,0.0,0.25,136
1753425586.5398664,137,401.34680857714034,304.9031231151581,400.5214487311356,301.8630742318701,0.6002607243655678,0.0009315371159350494,-0.09227536151418689,0.60001651708914,3.940501058116719e-05,0.053000000000000005,-0.22449902405242106,-0.8200980697980026,1.4097804416884838,-1.57,4.7124783,0.0,0.25,137
1753425586.5564818,138,401.34680857714034,304.9031231151581,400.5346113477622,301.91130954900115,0.6002673056738811,0.000955654774500575,-0.09227892677425403,0.60001651708914,3.940501058116719e-05,0.053000000000000005,-0.22445845713491894,-0.8201007203330838,1.4097745076800645,-1.57,4.7124642,0.0,0.25,138
1753425586.5773063,139,401.34680857714034,304.9031231151581,400.5477719757507,301.959545494519,0.6002738859878753,0.0009797727472594803,-0.09228249204820238,0.60001651708914,3.940501058116719e-05,0.053000000000000005,-0.2244178902174168,-0.8201033708681649,1.409768573671645,-1.57,4.7124501,0.0,0.25,139
1753425586.5968034,140,401.34680857714034,304.9031231151581,400.56093061507113,302.0077820683395,0.6002804653075355,0.0010038910341697571,-0.09228605733603171,0.60001651708914,3.940501058116719e-05,0.053000000000000005,-0.22437732329991467,-0.8201060214032461,1.4097626396632257,-1.57,4.712436,0.0,0.25,140
1753425586.616602,141,401.34680857714034,304.9031231151581,400.574087265693,302.056019270379,0.6002870436328465,0.0010280096351894946,-0.09228962263774176,0.60001651708914,3.940501058116719e-05,0.053000000000000005,-0.22433675638241252,-0.8201086719383271,1.4097567056548064,-1.57,4.7124219,0.0,0.25,141
1753425586.636824,142,401.34680857714034,304.9031231151581,400.5872419275868,302.1042571005532,0.6002936209637934,0.0010521285502766015,-0.09229318795333244,0.60001651708914,3.940501058116719e-05,0.053000000000000005,-0.2242961894649104,-0.8201113224734083,1.409750771646387,-1.57,4.7124078,0.0,0.25,142
1753425586.657067,143,401.34680857714034,304.9031231151581,400.60039460072204,302.1524955587783,0.600300197300361,0.0010762477793891528,-0.09229675328280346,0.60001651708914,3.940501058116719e-05,0.053000000000000005,-0.22425562254740827,-0.8201139730084895,1.4097448376379678,-1.57,4.7123937,0.0,0.25,143
1753425586.6766236,144,401.34680857714034,304.9031231151581,400.6135452850693,302.20073464497034,0.6003067726425346,0.0011003673224851823,-0.09230031862615465,0.60001651708914,3.940501058116719e-05,0.053000000000000005,-0.22421505562990612,-0.8201166235435706,1.4097389036295482,-1.57,4.7123796,0.0,0.25,144
1753425586.697105,145,401.34680857714034,304.9031231151581,400.62669398059813,302.2489743590453,0.600313346990299,0.001124487179522654,-0.09230388398338568,0.60001651708914,3.940501058116719e-05,0.053000000000000005,-0.224174488712404,-0.8201192740786518,1.409732969621129,-1.57,4.7123655,0.0,0.25,145
1753425586.7160077,146,401.34680857714034,304.9031231151581,400.6398406872783,302.29721470091926,0.6003199203436391,0.0011486073504596295,-0.09230744935449658,0.60001651708914,3.940501058116719e-05,0.053000000000000005,-0.22413392179490185,-0.820121924613733,1.4097270356127096,-1.57,4.7123514,0.0,0.25,146
1753425586.7364807,147,401.34680857714034,304.9031231151581,400.6529854050796,302.34545567050816,0.6003264927025398,0.0011727278352540726,-0.0923110147394868,0.60001651708914,3.940501058116719e-05,0.053000000000000005,-0.22409335487739973,-0.8201245751488141,1.4097211016042903,-1.57,4.7123373,0.0,0.25,147
1753425586.7563212,148,401.34680857714034,304.9031231151581,400.66612813397325,302.393697267728,0.6003330640669866,0.0011968486338640033,-0.0923145801383565,0.60001651708914,3.940501058116719e-05,0.053000000000000005,-0.22405278795989758,-0.8201272256838953,1.4097151675958708,-1.57,4.7123232,0.0,0.25,148
1753425586.7768586,149,401.34680857714034,304.9031231151581,400.6792688739281,302.44193949249495,0.600339634436964,0.001220969746247469,-0.09231814555110518,0.60001651708914,3.940501058116719e-05,0.053000000000000005,-0.22401222104239546,-0.8201298762189764,1.4097092335874515,-1.57,4.7123091,0.0,0.25,149
1753425586.7968755,150,401.34680857714034,304.9031231151581,400.69240762491415,302.4901823447248,0.6003462038124571,0.0012450911723624197,-0.09232171097773276,0.60001651708914,3.940501058116719e-05,0.053000000000000005,-0.22397165412489334,-0.8201325267540576,1.4097032995790322,-1.57,4.712295,0.0,0.25,150
1753425586.81691,151,401.34680857714034,304.9031231151581,400.705544386902,302.53842582433384,0.600352772193451,0.0012692129121669171,-0.09232527641823896,0.60001651708914,3.940501058116719e-05,0.053000000000000005,-0.2239310872073912,-0.8201351772891388,1.4096973655706129,-1.57,4.7122809000000005,0.0,0.25,151
1753425586.8366566,152,401.34680857714034,304.9031231151581,400.71867915986104,302.58666993123785,0.6003593395799305,0.0012933349656189391,-0.09232884187262361,0.60001651708914,3.940501058116719e-05,0.053000000000000005,-0.22389052028988907,-0.8201378278242198,1.4096914315621936,-1.57,4.7122668,0.0,0.25,152
1753425586.8618803,153,401.34680857714034,304.9031231151581,400.73181194376184,302.634914665353,0.6003659059718809,0.0013174573326765054,-0.0923324073408866,0.60001651708914,3.940501058116719e-05,0.053000000000000005,-0.22384995337238692,-0.820140478359301,1.409685497553774,-1.57,4.7122527000000005,0.0,0.25,153
1753425586.877276,154,401.34680857714034,304.9031231151581,400.74494273857397,302.68316002659526,0.600372471369287,0.0013415800132976219,-0.09233597282302755,0.60001651708914,3.940501058116719e-05,0.053000000000000005,-0.2238093864548848,-0.8201431288943821,1.4096795635453547,-1.57,4.7122386,0.0,0.25,154
1753425586.896449,155,401.34680857714034,304.9031231151581,400.75807154426786,302.7314060148805,0.6003790357721339,0.0013657030074402665,-0.09233953831904626,0.60001651708914,3.940501058116719e-05,0.053000000000000005,-0.22376881953738265,-0.8201457794294633,1.4096736295369354,-1.57,4.7122245000000005,0.0,0.25,155
1753425586.9166262,156,401.34680857714034,304.9031231151581,400.7711983608127,302.77965263012493,0.6003855991804063,0.001389826315062473,-0.0923431038289427,0.60001651708914,3.940501058116719e-05,0.053000000000000005,-0.22372825261988052,-0.8201484299645445,1.4096676955285161,-1.57,4.7122104,0.0,0.25,156
1753425586.9367576,157,401.34680857714034,304.9031231151581,400.7843231881794,302.8278998722444,0.6003921615940897,0.001413949936122219,-0.09234666935271649,0.60001651708914,3.940501058116719e-05,0.053000000000000005,-0.2236876857023784,-0.8201510804996256,1.4096617615200966,-1.57,4.7121963000000004,0.0,0.25,157
1753425586.9563742,158,401.34680857714034,304.9031231151581,400.7974460263378,302.8761477411552,0.6003987230131689,0.0014380738705775942,-0.09235023489036742,0.60001651708914,3.940501058116719e-05,0.053000000000000005,-0.22364711878487625,-0.8201537310347068,1.4096558275116773,-1.57,4.7121822,0.0,0.25,158
1753425586.9774914,159,401.34680857714034,304.9031231151581,400.81056687525717,302.92439623677296,0.6004052834376286,0.001462198118386479,-0.09235380044189537,0.60001651708914,3.940501058116719e-05,0.053000000000000005,-0.22360655186737413,-0.820156381569788,1.409649893503258,-1.57,4.7121681,0.0,0.25,159
1753425586.997143,160,401.34680857714034,304.9031231151581,400.8236857349087,302.9726453590139,0.6004118428674543,0.001486322679506949,-0.09235736600729991,0.60001651708914,3.940501058116719e-05,0.053000000000000005,-0.22356598494987198,-0.8201590321048691,1.4096439594948387,-1.57,4.712154,0.0,0.25,160
1753425587.018463,161,401.34680857714034,304.9031231151581,400.8368026052612,303.02089510779393,0.6004184013026306,0.001510447553896968,-0.09236093158658115,0.60001651708914,3.940501058116719e-05,0.053000000000000005,-0.22352541803236986,-0.8201616826399503,1.4096380254864194,-1.57,4.7121399,0.0,0.25,161
1753425587.038305,162,401.34680857714034,304.9031231151581,400.84991748628596,303.06914548302916,0.600424958743143,0.00153457274151457,-0.09236449717973874,0.60001651708914,3.940501058116719e-05,0.053000000000000005,-0.2234848511148677,-0.8201643331750313,1.4096320914779998,-1.57,4.7121258,0.0,0.25,162
1753425587.056549,163,401.34680857714034,304.9031231151581,400.863030377952,303.11739648463544,0.600431515188976,0.0015586982423177048,-0.0923680627867724,0.60001651708914,3.940501058116719e-05,0.053000000000000005,-0.2234442841973656,-0.8201669837101125,1.4096261574695805,-1.57,4.7121117,0.0,0.25,163
1753425587.0765688,164,401.34680857714034,304.9031231151581,400.8761412802296,303.1656481125289,0.6004380706401148,0.001582824056264448,-0.09237162840768207,0.60001651708914,3.940501058116719e-05,0.053000000000000005,-0.22340371727986344,-0.8201696342451937,1.4096202234611612,-1.57,4.7120976,0.0,0.25,164
1753425587.0966544,165,401.34680857714034,304.9031231151581,400.889250193089,303.21390036662547,0.6004446250965445,0.001606950183312722,-0.0923751940424673,0.60001651708914,3.940501058116719e-05,0.053000000000000005,-0.22336315036236132,-0.8201722847802748,1.409614289452742,-1.57,4.7120835,0.0,0.25,165
1753425587.1165159,166,401.34680857714034,304.9031231151581,400.90235711650035,303.26215324684114,0.6004511785582501,0.0016310766234205604,-0.09237875969112816,0.60001651708914,3.940501058116719e-05,0.053000000000000005,-0.2233225834448592,-0.820174935315356,1.4096083554443224,-1.57,4.7120694,0.0,0.25,166
1753425587.1365821,167,401.34680857714034,304.9031231151581,400.91546205043323,303.3104067530919,0.6004577310252166,0.001655203376545969,-0.0923823253536642,0.60001651708914,3.940501058116719e-05,0.053000000000000005,-0.22328201652735705,-0.8201775858504372,1.409602421435903,-1.57,4.7120553,0.0,0.25,167
1753425587.1565247,168,401.34680857714034,304.9031231151581,400.9285649948583,303.35866088529383,0.6004642824974291,0.0016793304426469258,-0.09238589103007527,0.60001651708914,3.940501058116719e-05,0.053000000000000005,-0.22324144960985493,-0.8201802363855183,1.4095964874274838,-1.57,4.7120412,0.0,0.25,168
1753425587.1786425,169,401.34680857714034,304.9031231151581,400.9416659497452,303.4069156433629,0.6004708329748726,0.0017034578216814367,-0.09238945672036128,0.60001651708914,3.940501058116719e-05,0.053000000000000005,-0.22320088269235278,-0.8201828869205995,1.4095905534190645,-1.57,4.7120271,0.0,0.25,169
1753425587.1970544,170,401.34680857714034,304.9031231151581,400.95476491506406,303.45517102721493,0.600477382457532,0.0017275855136074658,-0.09239302242452183,0.60001651708914,3.940501058116719e-05,0.053000000000000005,-0.22316031577485065,-0.8201855374556806,1.4095846194106452,-1.57,4.712013,0.0,0.25,170
1753425587.2167833,171,401.34680857714034,304.9031231151581,400.9678618907849,303.50342703676614,0.6004839309453924,0.0017517135183830607,-0.09239658814255694,0.60001651708914,3.940501058116719e-05,0.053000000000000005,-0.2231197488573485,-0.8201881879907618,1.4095786854022256,-1.57,4.7119989,0.0,0.25,171
1753425587.2365816,172,401.34680857714034,304.9031231151581,400.98095687687794,303.5516836719323,0.600490478438439,0.0017758418359661715,-0.09240015387446629,0.60001651708914,3.940501058116719e-05,0.053000000000000005,-0.22307918193984638,-0.820190838525843,1.4095727513938063,-1.57,4.7119848,0.0,0.25,172
1753425587.2569206,173,401.34680857714034,304.9031231151581,400.9940498733132,303.5999409326296,0.6004970249366566,0.0017999704663147764,-0.09240371962024946,0.60001651708914,3.940501058116719e-05,0.053000000000000005,-0.22303861502234426,-0.820193489060924,1.409566817385387,-1.57,4.7119707,0.0,0.25,173
1753425587.2763658,174,401.34680857714034,304.9031231151581,401.0071408800605,303.6481988187739,0.6005035704400302,0.0018240994093869506,-0.09240728537990656,0.60001651708914,3.940501058116719e-05,0.053000000000000005,-0.2229980481048421,-0.8201961395960052,1.4095608833769677,-1.57,4.7119566,0.0,0.25,174
1753425587.297422,175,401.34680857714034,304.9031231151581,401.0202298970905,303.6964573302811,0.6005101149485452,0.0018482286651405472,-0.09241085115343725,0.60001651708914,3.940501058116719e-05,0.053000000000000005,-0.22295748118734,-0.8201987901310863,1.4095549493685482,-1.57,4.7119425,0.0,0.25,175
1753425587.3163958,176,401.34680857714034,304.9031231151581,401.03331692437234,303.74471646706746,0.6005166584621862,0.0018723582335337247,-0.09241441694084129,0.60001651708914,3.940501058116719e-05,0.053000000000000005,-0.22291691426983784,-0.8202014406661675,1.4095490153601289,-1.57,4.711928400000001,0.0,0.25,176
1753425587.3381684,177,401.34680857714034,304.9031231151581,401.046401961877,303.7929762290487,0.6005232009809385,0.00189648811452435,-0.09241798274211843,0.60001651708914,3.940501058116719e-05,0.053000000000000005,-0.22287634735233572,-0.8202040912012487,1.4095430813517096,-1.57,4.7119143,0.0,0.25,177
1753425587.357835,178,401.34680857714034,304.9031231151581,401.0594850095742,303.8412366161409,0.6005297425047871,0.001920618308070457,-0.09242154855726861,0.60001651708914,3.940501058116719e-05,0.053000000000000005,-0.22283578043483357,-0.8202067417363298,1.4095371473432903,-1.57,4.7119002000000005,0.0,0.25,178
1753425587.3771217,179,401.34680857714034,304.9031231151581,401.0725660674342,303.88949762826,0.6005362830337171,0.0019447488141300096,-0.09242511438629147,0.60001651708914,3.940501058116719e-05,0.053000000000000005,-0.22279521351733145,-0.820209392271411,1.409531213334871,-1.57,4.7118861,0.0,0.25,179
1753425587.3966196,180,401.34680857714034,304.9031231151581,401.0856451354269,303.93775926532203,0.6005428225677134,0.0019688796326610136,-0.09242868022918696,0.60001651708914,3.940501058116719e-05,0.053000000000000005,-0.22275464659982933,-0.8202120428064922,1.4095252793264514,-1.57,4.7118720000000005,0.0,0.25,180
1753425587.4164999,181,401.34680857714034,304.9031231151581,401.0987222135226,303.9860215272429,0.6005493611067613,0.0019930107636214334,-0.0924322460859546,0.60001651708914,3.940501058116719e-05,0.053000000000000005,-0.22271407968232718,-0.8202146933415733,1.4095193453180321,-1.57,4.7118579,0.0,0.25,181
1753425587.4368494,182,401.34680857714034,304.9031231151581,401.11179730169096,304.0342844139386,0.6005558986508455,0.0020171422069693162,-0.09243581195659445,0.60001651708914,3.940501058116719e-05,0.053000000000000005,-0.22267351276482505,-0.8202173438766545,1.4095134113096128,-1.57,4.7118438000000005,0.0,0.25,182
1753425587.457941,183,401.34680857714034,304.9031231151581,401.1248703999025,304.0825479253252,0.6005624351999512,0.0020412739626625848,-0.09243937784110615,0.60001651708914,3.940501058116719e-05,0.053000000000000005,-0.2226329458473229,-0.8202199944117355,1.4095074773011935,-1.57,4.7118297,0.0,0.25,183
1753425587.477087,184,401.34680857714034,304.9031231151581,401.1379415081272,304.13081206131847,0.6005689707540636,0.002065406030659231,-0.09244294373948958,0.60001651708914,3.940501058116719e-05,0.053000000000000005,-0.22259237892982078,-0.8202226449468167,1.4095015432927742,-1.57,4.7118156,0.0,0.25,184
1753425587.4973342,185,401.34680857714034,304.9031231151581,401.1510106263353,304.1790768218345,0.6005755053131676,0.0020895384109172466,-0.09244650965174453,0.60001651708914,3.940501058116719e-05,0.053000000000000005,-0.22255181201231863,-0.8202252954818979,1.4094956092843547,-1.57,4.7118015,0.0,0.25,185
1753425587.516684,186,401.34680857714034,304.9031231151581,401.164077754497,304.2273422067893,0.6005820388772485,0.0021136711033946237,-0.09245007557787058,0.60001651708914,3.940501058116719e-05,0.053000000000000005,-0.2225112450948165,-0.820227946016979,1.4094896752759354,-1.57,4.7117874,0.0,0.25,186
1753425587.537324,187,401.34680857714034,304.9031231151581,401.17714289258174,304.2756082160987,0.6005885714462909,0.0021378041080493543,-0.09245364151786775,0.60001651708914,3.940501058116719e-05,0.053000000000000005,-0.2224706781773144,-0.8202305965520602,1.409483741267516,-1.57,4.7117733,0.0,0.25,187
1753425587.5564609,188,401.34680857714034,304.9031231151581,401.1902060405606,304.32387484967876,0.6005951030202803,0.0021619374248393886,-0.0924572074717358,0.60001651708914,3.940501058116719e-05,0.053000000000000005,-0.22243011125981224,-0.8202332470871414,1.4094778072590968,-1.57,4.7117592,0.0,0.25,188
1753425587.5773497,189,401.34680857714034,304.9031231151581,401.203267198403,304.3721421074454,0.6006016335992015,0.0021860710537227185,-0.09246077343947448,0.60001651708914,3.940501058116719e-05,0.053000000000000005,-0.22238954434231012,-0.8202358976222225,1.4094718732506772,-1.57,4.7117451,0.0,0.25,189
1753425587.5986476,190,401.34680857714034,304.9031231151581,401.2163263660796,304.4204099893147,0.6006081631830398,0.00221020499465735,-0.09246433942108345,0.60001651708914,3.940501058116719e-05,0.053000000000000005,-0.22234897742480797,-0.8202385481573037,1.409465939242258,-1.57,4.711731,0.0,0.25,190
1753425587.6166706,191,401.34680857714034,304.9031231151581,401.2293835435602,304.4686784952024,0.6006146917717801,0.002234339247601219,-0.09246790541656275,0.60001651708914,3.940501058116719e-05,0.053000000000000005,-0.22230841050730585,-0.8202411986923848,1.4094600052338386,-1.57,4.7117169,0.0,0.25,191
1753425587.6364038,192,401.34680857714034,304.9031231151581,401.2424387308145,304.51694762502467,0.6006212193654072,0.002258473812512346,-0.09247147142591192,0.60001651708914,3.940501058116719e-05,0.053000000000000005,-0.2222678435898037,-0.820243849227466,1.4094540712254193,-1.57,4.7117028,0.0,0.25,192
1753425587.6594603,193,401.34680857714034,304.9031231151581,401.2554919278136,304.56521737869735,0.6006277459639068,0.002282608689348667,-0.09247503744913099,0.60001651708914,3.940501058116719e-05,0.053000000000000005,-0.22222727667230158,-0.8202464997625472,1.409448137217,-1.57,4.7116887,0.0,0.25,193
1753425587.6762896,194,401.34680857714034,304.9031231151581,401.2685431345272,304.61348775613635,0.6006342715672636,0.0023067438780681737,-0.09247860348621953,0.60001651708914,3.940501058116719e-05,0.053000000000000005,-0.22218670975479946,-0.8202491502976282,1.4094422032085805,-1.57,4.7116746,0.0,0.25,194
1753425587.6964333,195,401.34680857714034,304.9031231151581,401.28159235092505,304.66175875725776,0.6006407961754625,0.0023308793786288723,-0.0924821695371775,0.60001651708914,3.940501058116719e-05,0.053000000000000005,-0.2221461428372973,-0.8202518008327094,1.4094362692001612,-1.57,4.7116605,0.0,0.25,195
1753425587.7167609,196,401.34680857714034,304.9031231151581,401.29463957697794,304.71003038197745,0.600647319788489,0.002355015190988727,-0.09248573560200463,0.60001651708914,3.940501058116719e-05,0.053000000000000005,-0.22210557591979518,-0.8202544513677906,1.4094303351917419,-1.57,4.7116464,0.0,0.25,196
1753425587.7364724,197,401.34680857714034,304.9031231151581,401.30768481265585,304.75830263021135,0.6006538424063279,0.0023791513151056876,-0.09248930168070058,0.60001651708914,3.940501058116719e-05,0.053000000000000005,-0.22206500900229303,-0.8202571019028717,1.4094244011833226,-1.57,4.7116323,0.0,0.25,197
1753425587.7566106,198,401.34680857714034,304.9031231151581,401.32072805792905,304.80657550187544,0.6006603640289645,0.0024032877509377326,-0.09249286777326537,0.60001651708914,3.940501058116719e-05,0.053000000000000005,-0.2220244420847909,-0.8202597524379529,1.409418467174903,-1.57,4.7116182,0.0,0.25,198
1753425587.7775686,199,401.34680857714034,304.9031231151581,401.33376931276683,304.8548489968857,0.6006668846563834,0.002427424498442868,-0.0924964338796985,0.60001651708914,3.940501058116719e-05,0.053000000000000005,-0.22198387516728876,-0.820262402973034,1.4094125331664837,-1.57,4.7116041,0.0,0.25,199
1753425587.7975893,200,401.34680857714034,304.9031231151581,401.34680857714045,304.9031231151581,0.6006734042885702,0.0024515615575790572,-0.09250000000000003,0.6006734042885702,0.0024515615575790572,0.053000000000000005,-0.22194330824978664,-0.8202650535081152,1.4094065991580644,-1.57,4.71159,0.0,0.25,200
1753425587.818786,201,401.34680857714034,304.9031231151581,401.34680857714045,304.9031231151581,0.6006734042885702,0.0024515615575790572,-0.09250000000000003,0.6006734042885702,0.0024515615575790572,0.053000000000000005,-0.22194330824978664,-0.8202650535081152,1.4094065991580644,-1.57,4.71159,0.0,0.25,201
1753425587.836663,202,401.9866427825384,309.8620153492768,401.34680857714045,304.9031231151581,0.6006734042885702,0.0024515615575790572,-0.09250000000000003,0.6006734042885702,0.0024515615575790572,0.053000000000000005,-0.22194330824978664,-0.8202650535081152,1.4094065991580644,-1.57,4.71159,0.0,0.25,202
1753425587.8572142,203,401.9866427825384,309.8620153492768,401.34680857714045,304.9031231151581,0.6006734042885702,0.0024515615575790572,-0.09250000000000003,0.6006734042885702,0.0024515615575790572,0.053000000000000005,-0.22194330824978664,-0.8202650535081152,1.4094065991580644,-1.57,4.71159,0.0,0.25,203
1753425587.877104,204,401.9866427825384,309.8620153492768,401.34680857714045,304.9031231151581,0.6006734042885702,0.0024515615575790572,-0.09250000000000003,0.6006734042885702,0.0024515615575790572,0.053000000000000005,-0.22194330824978664,-0.8202650535081152,1.4094065991580644,-1.57,4.71159,0.0,0.25,204
1753425587.8980196,205,401.9866427825384,309.8620153492768,401.34680857714045,304.9031231151581,0.6006734042885702,0.0024515615575790572,-0.09250000000000003,0.6006734042885702,0.0024515615575790572,0.053000000000000005,-0.22194330824978664,-0.8202650535081152,1.4094065991580644,-1.57,4.71159,0.0,0.25,205
1753425587.9166484,206,401.9866427825384,309.8620153492768,401.34680857714045,304.9031231151581,0.6006734042885702,0.0024515615575790572,-0.09250000000000003,0.6006734042885702,0.0024515615575790572,0.053000000000000005,-0.22194330824978664,-0.8202650535081152,1.4094065991580644,-1.57,4.71159,0.0,0.25,206
1753425587.9369438,207,401.9866427825384,309.8620153492768,401.34680857714045,304.9031231151581,0.6006734042885702,0.0024515615575790572,-0.09250000000000003,0.6006734042885702,0.0024515615575790572,0.053000000000000005,-0.22194330824978664,-0.8202650535081152,1.4094065991580644,-1.57,4.71159,0.0,0.25,207
1753425587.957301,208,401.9866427825384,309.8620153492768,401.34680857714045,304.9031231151581,0.6006734042885702,0.0024515615575790572,-0.09250000000000003,0.6006734042885702,0.0024515615575790572,0.053000000000000005,-0.22194330824978664,-0.8202650535081152,1.4094065991580644,-1.57,4.71159,0.0,0.25,208
1753425587.9777348,209,401.9866427825384,309.8620153492768,401.34680857714045,304.9031231151581,0.6006734042885702,0.0024515615575790572,-0.09250000000000003,0.6006734042885702,0.0024515615575790572,0.053000000000000005,-0.22194330824978664,-0.8202650535081152,1.4094065991580644,-1.57,4.71159,0.0,0.25,209
1753425587.9966009,210,401.9866427825384,309.8620153492768,401.34680857714045,304.9031231151581,0.6006734042885702,0.0024515615575790572,-0.09250000000000003,0.6006734042885702,0.0024515615575790572,0.053000000000000005,-0.22194330824978664,-0.8202650535081152,1.4094065991580644,-1.57,4.71159,0.0,0.25,210
1753425588.0183566,211,401.9866427825384,309.8620153492768,401.34680857714045,304.9031231151581,0.6006734042885702,0.0024515615575790572,-0.09250000000000003,0.6006734042885702,0.0024515615575790572,0.053000000000000005,-0.22194330824978664,-0.8202650535081152,1.4094065991580644,-1.57,4.71159,0.0,0.25,211
1753425588.036755,212,401.9866427825384,309.8620153492768,401.34680857714045,304.9031231151581,0.6006734042885702,0.0024515615575790572,-0.09250000000000003,0.6006734042885702,0.0024515615575790572,0.053000000000000005,-0.22194330824978664,-0.8202650535081152,1.4094065991580644,-1.57,4.71159,0.0,0.25,212
1753425588.0578933,213,401.9866427825384,309.8620153492768,401.34680857714045,304.9031231151581,0.6006734042885702,0.0024515615575790572,-0.09250000000000003,0.6006734042885702,0.0024515615575790572,0.053000000000000005,-0.22194330824978664,-0.8202650535081152,1.4094065991580644,-1.57,4.71159,0.0,0.25,213
1753425588.0764036,214,401.9866427825384,309.8620153492768,401.34680857714045,304.9031231151581,0.6006734042885702,0.0024515615575790572,-0.09250000000000003,0.6006734042885702,0.0024515615575790572,0.053000000000000005,-0.22194330824978664,-0.8202650535081152,1.4094065991580644,-1.57,4.71159,0.0,0.25,214
1753425588.0970178,215,401.9866427825384,309.8620153492768,401.34680857714045,304.9031231151581,0.6006734042885702,0.0024515615575790572,-0.09250000000000003,0.6006734042885702,0.0024515615575790572,0.053000000000000005,-0.22194330824978664,-0.8202650535081152,1.4094065991580644,-1.57,4.71159,0.0,0.25,215
1753425588.117058,216,401.9866427825384,309.8620153492768,401.34680857714045,304.9031231151581,0.6006734042885702,0.0024515615575790572,-0.09250000000000003,0.6006734042885702,0.0024515615575790572,0.053000000000000005,-0.22194330824978664,-0.8202650535081152,1.4094065991580644,-1.57,4.71159,0.0,0.25,216
1753425588.138047,217,401.9866427825384,309.8620153492768,401.34680857714045,304.9031231151581,0.6006734042885702,0.0024515615575790572,-0.09250000000000003,0.6006734042885702,0.0024515615575790572,0.053000000000000005,-0.22194330824978664,-0.8202650535081152,1.4094065991580644,-1.57,4.71159,0.0,0.25,217
1753425588.1565294,218,401.9866427825384,309.8620153492768,401.34680857714045,304.9031231151581,0.6006734042885702,0.0024515615575790572,-0.09250000000000003,0.6006734042885702,0.0024515615575790572,0.053000000000000005,-0.22194330824978664,-0.8202650535081152,1.4094065991580644,-1.57,4.71159,0.0,0.25,218
1753425588.1767974,219,401.9866427825384,309.8620153492768,401.34680857714045,304.9031231151581,0.6006734042885702,0.0024515615575790572,-0.09250000000000003,0.6006734042885702,0.0024515615575790572,0.053000000000000005,-0.22194330824978664,-0.8202650535081152,1.4094065991580644,-1.57,4.71159,0.0,0.25,219
1753425588.196844,220,401.9866427825384,309.8620153492768,401.34680857714045,304.9031231151581,0.6006734042885702,0.0024515615575790572,-0.09250000000000003,0.6006734042885702,0.0024515615575790572,0.053000000000000005,-0.22194330824978664,-0.8202650535081152,1.4094065991580644,-1.57,4.71159,0.0,0.25,220
1753425588.216565,221,401.9866427825384,309.8620153492768,401.34680857714045,304.9031231151581,0.6006734042885702,0.0024515615575790572,-0.09250000000000003,0.6006734042885702,0.0024515615575790572,0.053000000000000005,-0.22194330824978664,-0.8202650535081152,1.4094065991580644,-1.57,4.71159,0.0,0.25,221
1753425588.2364254,222,401.9866427825384,309.8620153492768,401.34680857714045,304.9031231151581,0.6006734042885702,0.0024515615575790572,-0.09250000000000003,0.6006734042885702,0.0024515615575790572,0.053000000000000005,-0.22194330824978664,-0.8202650535081152,1.4094065991580644,-1.57,4.71159,0.0,0.25,222
1753425588.2569852,223,401.9866427825384,309.8620153492768,401.34680857714045,304.9031231151581,0.6006734042885702,0.0024515615575790572,-0.09250000000000003,0.6006734042885702,0.0024515615575790572,0.053000000000000005,-0.22194330824978664,-0.8202650535081152,1.4094065991580644,-1.57,4.71159,0.0,0.25,223
1753425588.27711,224,401.9866427825384,309.8620153492768,401.34680857714045,304.9031231151581,0.6006734042885702,0.0024515615575790572,-0.09250000000000003,0.6006734042885702,0.0024515615575790572,0.053000000000000005,-0.22194330824978664,-0.8202650535081152,1.4094065991580644,-1.57,4.71159,0.0,0.25,224
1753425588.299854,225,401.9866427825384,309.8620153492768,401.34680857714045,304.9031231151581,0.6006734042885702,0.0024515615575790572,-0.09250000000000003,0.6006734042885702,0.0024515615575790572,0.053000000000000005,-0.22194330824978664,-0.8202650535081152,1.4094065991580644,-1.57,4.71159,0.0,0.25,225
1753425588.3165832,226,401.9866427825384,309.8620153492768,401.34680857714045,304.9031231151581,0.6006734042885702,0.0024515615575790572,-0.09250000000000003,0.6006734042885702,0.0024515615575790572,0.053000000000000005,-0.22194330824978664,-0.8202650535081152,1.4094065991580644,-1.57,4.71159,0.0,0.25,226
1753425588.3364146,227,401.9866427825384,309.8620153492768,401.34680857714045,304.9031231151581,0.6006734042885702,0.0024515615575790572,-0.09250000000000003,0.6006734042885702,0.0024515615575790572,0.053000000000000005,-0.22194330824978664,-0.8202650535081152,1.4094065991580644,-1.57,4.71159,0.0,0.25,227
1753425588.3564937,228,401.9866427825384,309.8620153492768,401.34680857714045,304.9031231151581,0.6006734042885702,0.0024515615575790572,-0.09250000000000003,0.6006734042885702,0.0024515615575790572,0.053000000000000005,-0.22194330824978664,-0.8202650535081152,1.4094065991580644,-1.57,4.71159,0.0,0.25,228
1753425588.3779812,229,401.9866427825384,309.8620153492768,401.34680857714045,304.9031231151581,0.6006734042885702,0.0024515615575790572,-0.09250000000000003,0.6006734042885702,0.0024515615575790572,0.053000000000000005,-0.22194330824978664,-0.8202650535081152,1.4094065991580644,-1.57,4.71159,0.0,0.25,229
1753425588.3971448,230,401.9866427825384,309.8620153492768,401.34680857714045,304.9031231151581,0.6006734042885702,0.0024515615575790572,-0.09250000000000003,0.6006734042885702,0.0024515615575790572,0.053000000000000005,-0.22194330824978664,-0.8202650535081152,1.4094065991580644,-1.57,4.71159,0.0,0.25,230
1753425588.417026,231,401.9866427825384,309.8620153492768,401.34680857714045,304.9031231151581,0.6006734042885702,0.0024515615575790572,-0.09250000000000003,0.6006734042885702,0.0024515615575790572,0.053000000000000005,-0.22194330824978664,-0.8202650535081152,1.4094065991580644,-1.57,4.71159,0.0,0.25,231
1753425588.4368248,232,401.9866427825384,309.8620153492768,401.34680857714045,304.9031231151581,0.6006734042885702,0.0024515615575790572,-0.09250000000000003,0.6006734042885702,0.0024515615575790572,0.053000000000000005,-0.22194330824978664,-0.8202650535081152,1.4094065991580644,-1.57,4.71159,0.0,0.25,232
1753425588.4591842,233,401.9866427825384,309.8620153492768,401.34680857714045,304.9031231151581,0.6006734042885702,0.0024515615575790572,-0.09250000000000003,0.6006734042885702,0.0024515615575790572,0.053000000000000005,-0.22194330824978664,-0.8202650535081152,1.4094065991580644,-1.57,4.71159,0.0,0.25,233
1753425588.476823,234,401.9866427825384,309.8620153492768,401.34680857714045,304.9031231151581,0.6006734042885702,0.0024515615575790572,-0.09250000000000003,0.6006734042885702,0.0024515615575790572,0.053000000000000005,-0.22194330824978664,-0.8202650535081152,1.4094065991580644,-1.57,4.71159,0.0,0.25,234
1753425588.49652,235,401.9866427825384,309.8620153492768,401.34680857714045,304.9031231151581,0.6006734042885702,0.0024515615575790572,-0.09250000000000003,0.6006734042885702,0.0024515615575790572,0.053000000000000005,-0.22194330824978664,-0.8202650535081152,1.4094065991580644,-1.57,4.71159,0.0,0.25,235
1753425588.516644,236,401.9866427825384,309.8620153492768,401.34680857714045,304.9031231151581,0.6006734042885702,0.0024515615575790572,-0.09250000000000003,0.6006734042885702,0.0024515615575790572,0.053000000000000005,-0.22194330824978664,-0.8202650535081152,1.4094065991580644,-1.57,4.71159,0.0,0.25,236
1753425588.5375369,237,401.9866427825384,309.8620153492768,401.34680857714045,304.9031231151581,0.6006734042885702,0.0024515615575790572,-0.09250000000000003,0.6006734042885702,0.0024515615575790572,0.053000000000000005,-0.22194330824978664,-0.8202650535081152,1.4094065991580644,-1.57,4.71159,0.0,0.25,237
1753425588.5566714,238,401.9866427825384,309.8620153492768,401.34680857714045,304.9031231151581,0.6006734042885702,0.0024515615575790572,-0.09250000000000003,0.6006734042885702,0.0024515615575790572,0.053000000000000005,-0.22194330824978664,-0.8202650535081152,1.4094065991580644,-1.57,4.71159,0.0,0.25,238
1753425588.5774438,239,401.9866427825384,309.8620153492768,401.34680857714045,304.9031231151581,0.6006734042885702,0.0024515615575790572,-0.09250000000000003,0.6006734042885702,0.0024515615575790572,0.053000000000000005,-0.22194330824978664,-0.8202650535081152,1.4094065991580644,-1.57,4.71159,0.0,0.25,239
1753425588.596158,240,401.9866427825384,309.8620153492768,401.34680857714045,304.9031231151581,0.6006734042885702,0.0024515615575790572,-0.09250000000000003,0.6006734042885702,0.0024515615575790572,0.053000000000000005,-0.22194330824978664,-0.8202650535081152,1.4094065991580644,-1.57,4.71159,0.0,0.25,240
1753425588.6174216,241,401.9866427825384,309.8620153492768,401.34680857714045,304.9031231151581,0.6006734042885702,0.0024515615575790572,-0.09250000000000003,0.6006734042885702,0.0024515615575790572,0.053000000000000005,-0.22194330824978664,-0.8202650535081152,1.4094065991580644,-1.57,4.71159,0.0,0.25,241
1753425588.6368492,242,401.9866427825384,309.8620153492768,401.34680857714045,304.9031231151581,0.6006734042885702,0.0024515615575790572,-0.09250000000000003,0.6006734042885702,0.0024515615575790572,0.053000000000000005,-0.22194330824978664,-0.8202650535081152,1.4094065991580644,-1.57,4.71159,0.0,0.25,242
1753425588.656541,243,401.9866427825384,309.8620153492768,401.34680857714045,304.9031231151581,0.6006734042885702,0.0024515615575790572,-0.09250000000000003,0.6006734042885702,0.0024515615575790572,0.053000000000000005,-0.22194330824978664,-0.8202650535081152,1.4094065991580644,-1.57,4.71159,0.0,0.25,243
1753425588.6763396,244,401.9866427825384,309.8620153492768,401.34680857714045,304.9031231151581,0.6006734042885702,0.0024515615575790572,-0.09250000000000003,0.6006734042885702,0.0024515615575790572,0.053000000000000005,-0.22194330824978664,-0.8202650535081152,1.4094065991580644,-1.57,4.71159,0.0,0.25,244
1753425588.6973927,245,401.9866427825384,309.8620153492768,401.34680857714045,304.9031231151581,0.6006734042885702,0.0024515615575790572,-0.09250000000000003,0.6006734042885702,0.0024515615575790572,0.053000000000000005,-0.22194330824978664,-0.8202650535081152,1.4094065991580644,-1.57,4.71159,0.0,0.25,245
1753425588.7172189,246,401.9866427825384,309.8620153492768,401.34680857714045,304.9031231151581,0.6006734042885702,0.0024515615575790572,-0.09250000000000003,0.6006734042885702,0.0024515615575790572,0.053000000000000005,-0.22194330824978664,-0.8202650535081152,1.4094065991580644,-1.57,4.71159,0.0,0.25,246
1753425588.7364542,247,401.9866427825384,309.8620153492768,401.34680857714045,304.9031231151581,0.6006734042885702,0.0024515615575790572,-0.09250000000000003,0.6006734042885702,0.0024515615575790572,0.053000000000000005,-0.22194330824978664,-0.8202650535081152,1.4094065991580644,-1.57,4.71159,0.0,0.25,247
1753425588.757371,248,401.9866427825384,309.8620153492768,401.34680857714045,304.9031231151581,0.6006734042885702,0.0024515615575790572,-0.09250000000000003,0.6006734042885702,0.0024515615575790572,0.053000000000000005,-0.22194330824978664,-0.8202650535081152,1.4094065991580644,-1.57,4.71159,0.0,0.25,248
1753425588.7778687,249,401.9866427825384,309.8620153492768,401.34680857714045,304.9031231151581,0.6006734042885702,0.0024515615575790572,-0.09250000000000003,0.6006734042885702,0.0024515615575790572,0.053000000000000005,-0.22194330824978664,-0.8202650535081152,1.4094065991580644,-1.57,4.71159,0.0,0.25,249
1753425588.798055,250,401.9866427825384,309.8620153492768,401.34680857714045,304.9031231151581,0.6006734042885702,0.0024515615575790572,-0.09250000000000003,0.6006734042885702,0.0024515615575790572,0.053000000000000005,-0.22194330824978664,-0.8202650535081152,1.4094065991580644,-1.57,4.71159,0.0,0.25,250
1753425588.8179128,251,401.9866427825384,309.8620153492768,401.34680857714045,304.9031231151581,0.6006734042885702,0.0024515615575790572,-0.09250000000000003,0.6006734042885702,0.0024515615575790572,0.053000000000000005,-0.22194330824978664,-0.8202650535081152,1.4094065991580644,-1.57,4.71159,0.0,0.25,251
1753425588.836329,252,401.9866427825384,309.8620153492768,401.34680857714045,304.9031231151581,0.6006734042885702,0.0024515615575790572,-0.09250000000000003,0.6006734042885702,0.0024515615575790572,0.053000000000000005,-0.22194330824978664,-0.8202650535081152,1.4094065991580644,-1.57,4.71159,0.0,0.25,252
1753425588.8565092,253,401.9866427825384,309.8620153492768,401.34680857714045,304.9031231151581,0.6006734042885702,0.0024515615575790572,-0.09250000000000003,0.6006734042885702,0.0024515615575790572,0.053000000000000005,-0.22194330824978664,-0.8202650535081152,1.4094065991580644,-1.57,4.71159,0.0,0.25,253
1753425588.877621,254,401.9866427825384,309.8620153492768,401.34680857714045,304.9031231151581,0.6006734042885702,0.0024515615575790572,-0.09250000000000003,0.6006734042885702,0.0024515615575790572,0.053000000000000005,-0.22194330824978664,-0.8202650535081152,1.4094065991580644,-1.57,4.71159,0.0,0.25,254
1753425588.8990607,255,401.9866427825384,309.8620153492768,401.34680857714045,304.9031231151581,0.6006734042885702,0.0024515615575790572,-0.09250000000000003,0.6006734042885702,0.0024515615575790572,0.053000000000000005,-0.22194330824978664,-0.8202650535081152,1.4094065991580644,-1.57,4.71159,0.0,0.25,255
1753425588.9166543,256,401.9866427825384,309.8620153492768,401.34680857714045,304.9031231151581,0.6006734042885702,0.0024515615575790572,-0.09250000000000003,0.6006734042885702,0.0024515615575790572,0.053000000000000005,-0.22194330824978664,-0.8202650535081152,1.4094065991580644,-1.57,4.71159,0.0,0.25,256
1753425588.9396777,257,401.9866427825384,309.8620153492768,401.34680857714045,304.9031231151581,0.6006734042885702,0.0024515615575790572,-0.09250000000000003,0.6006734042885702,0.0024515615575790572,0.053000000000000005,-0.22194330824978664,-0.8202650535081152,1.4094065991580644,-1.57,4.71159,0.0,0.25,257
1753425588.9566526,258,401.9866427825384,309.8620153492768,401.34680857714045,304.9031231151581,0.6006734042885702,0.0024515615575790572,-0.09250000000000003,0.6006734042885702,0.0024515615575790572,0.053000000000000005,-0.22194330824978664,-0.8202650535081152,1.4094065991580644,-1.57,4.71159,0.0,0.25,258
1753425588.9768844,259,401.9866427825384,309.8620153492768,401.34680857714045,304.9031231151581,0.6006734042885702,0.0024515615575790572,-0.09250000000000003,0.6006734042885702,0.0024515615575790572,0.053000000000000005,-0.22194330824978664,-0.8202650535081152,1.4094065991580644,-1.57,4.71159,0.0,0.25,259
1753425588.9968483,260,401.9866427825384,309.8620153492768,401.34680857714045,304.9031231151581,0.6006734042885702,0.0024515615575790572,-0.09250000000000003,0.6006734042885702,0.0024515615575790572,0.053000000000000005,-0.22194330824978664,-0.8202650535081152,1.4094065991580644,-1.57,4.71159,0.0,0.25,260
1753425589.017023,261,401.9866427825384,309.8620153492768,401.34680857714045,304.9031231151581,0.6006734042885702,0.0024515615575790572,-0.09250000000000003,0.6006734042885702,0.0024515615575790572,0.053000000000000005,-0.22194330824978664,-0.8202650535081152,1.4094065991580644,-1.57,4.71159,0.0,0.25,261
1753425589.0366178,262,401.9866427825384,309.8620153492768,401.34680857714045,304.9031231151581,0.6006734042885702,0.0024515615575790572,-0.09250000000000003,0.6006734042885702,0.0024515615575790572,0.053000000000000005,-0.22194330824978664,-0.8202650535081152,1.4094065991580644,-1.57,4.71159,0.0,0.25,262
1753425589.0574849,263,401.9866427825384,309.8620153492768,401.34680857714045,304.9031231151581,0.6006734042885702,0.0024515615575790572,-0.09250000000000003,0.6006734042885702,0.0024515615575790572,0.053000000000000005,-0.22194330824978664,-0.8202650535081152,1.4094065991580644,-1.57,4.71159,0.0,0.25,263
1753425589.0765402,264,401.9866427825384,309.8620153492768,401.34680857714045,304.9031231151581,0.6006734042885702,0.0024515615575790572,-0.09250000000000003,0.6006734042885702,0.0024515615575790572,0.053000000000000005,-0.22194330824978664,-0.8202650535081152,1.4094065991580644,-1.57,4.71159,0.0,0.25,264
1753425589.0985212,265,401.9866427825384,309.8620153492768,401.34680857714045,304.9031231151581,0.6006734042885702,0.0024515615575790572,-0.09250000000000003,0.6006734042885702,0.0024515615575790572,0.053000000000000005,-0.22194330824978664,-0.8202650535081152,1.4094065991580644,-1.57,4.71159,0.0,0.25,265
1753425589.1190677,266,401.9866427825384,309.8620153492768,401.34680857714045,304.9031231151581,0.6006734042885702,0.0024515615575790572,-0.09250000000000003,0.6006734042885702,0.0024515615575790572,0.053000000000000005,-0.22194330824978664,-0.8202650535081152,1.4094065991580644,-1.57,4.71159,0.0,0.25,266
1753425589.1367915,267,401.9866427825384,309.8620153492768,401.34680857714045,304.9031231151581,0.6006734042885702,0.0024515615575790572,-0.09250000000000003,0.6006734042885702,0.0024515615575790572,0.053000000000000005,-0.22194330824978664,-0.8202650535081152,1.4094065991580644,-1.57,4.71159,0.0,0.25,267
1753425589.1564825,268,401.9866427825384,309.8620153492768,401.34680857714045,304.9031231151581,0.6006734042885702,0.0024515615575790572,-0.09250000000000003,0.6006734042885702,0.0024515615575790572,0.053000000000000005,-0.22194330824978664,-0.8202650535081152,1.4094065991580644,-1.57,4.71159,0.0,0.25,268
1753425589.1777267,269,401.9866427825384,309.8620153492768,401.34680857714045,304.9031231151581,0.6006734042885702,0.0024515615575790572,-0.09250000000000003,0.6006734042885702,0.0024515615575790572,0.053000000000000005,-0.22194330824978664,-0.8202650535081152,1.4094065991580644,-1.57,4.71159,0.0,0.25,269
1753425589.1965613,270,401.9866427825384,309.8620153492768,401.34680857714045,304.9031231151581,0.6006734042885702,0.0024515615575790572,-0.09250000000000003,0.6006734042885702,0.0024515615575790572,0.053000000000000005,-0.22194330824978664,-0.8202650535081152,1.4094065991580644,-1.57,4.71159,0.0,0.25,270
1753425589.2163239,271,401.9866427825384,309.8620153492768,401.34680857714045,304.9031231151581,0.6006734042885702,0.0024515615575790572,-0.09250000000000003,0.6006734042885702,0.0024515615575790572,0.053000000000000005,-0.22194330824978664,-0.8202650535081152,1.4094065991580644,-1.57,4.71159,0.0,0.25,271
1753425589.2367616,272,401.9866427825384,309.8620153492768,401.34680857714045,304.9031231151581,0.6006734042885702,0.0024515615575790572,-0.09250000000000003,0.6006734042885702,0.0024515615575790572,0.053000000000000005,-0.22194330824978664,-0.8202650535081152,1.4094065991580644,-1.57,4.71159,0.0,0.25,272
1753425589.2574165,273,401.9866427825384,309.8620153492768,401.34680857714045,304.9031231151581,0.6006734042885702,0.0024515615575790572,-0.09250000000000003,0.6006734042885702,0.0024515615575790572,0.053000000000000005,-0.22194330824978664,-0.8202650535081152,1.4094065991580644,-1.57,4.71159,0.0,0.25,273
1753425589.2781105,274,401.9866427825384,309.8620153492768,401.34680857714045,304.9031231151581,0.6006734042885702,0.0024515615575790572,-0.09250000000000003,0.6006734042885702,0.0024515615575790572,0.053000000000000005,-0.22194330824978664,-0.8202650535081152,1.4094065991580644,-1.57,4.71159,0.0,0.25,274
1753425589.296959,275,401.9866427825384,309.8620153492768,401.34680857714045,304.9031231151581,0.6006734042885702,0.0024515615575790572,-0.09250000000000003,0.6006734042885702,0.0024515615575790572,0.053000000000000005,-0.22194330824978664,-0.8202650535081152,1.4094065991580644,-1.57,4.71159,0.0,0.25,275
1753425589.317527,276,401.9866427825384,309.8620153492768,401.34680857714045,304.9031231151581,0.6006734042885702,0.0024515615575790572,-0.09250000000000003,0.6006734042885702,0.0024515615575790572,0.053000000000000005,-0.22194330824978664,-0.8202650535081152,1.4094065991580644,-1.57,4.71159,0.0,0.25,276
1753425589.336671,277,401.9866427825384,309.8620153492768,401.34680857714045,304.9031231151581,0.6006734042885702,0.0024515615575790572,-0.09250000000000003,0.6006734042885702,0.0024515615575790572,0.053000000000000005,-0.22194330824978664,-0.8202650535081152,1.4094065991580644,-1.57,4.71159,0.0,0.25,277
1753425589.35645,278,401.9866427825384,309.8620153492768,401.34680857714045,304.9031231151581,0.6006734042885702,0.0024515615575790572,-0.09250000000000003,0.6006734042885702,0.0024515615575790572,0.053000000000000005,-0.22194330824978664,-0.8202650535081152,1.4094065991580644,-1.57,4.71159,0.0,0.25,278
1753425589.3775704,279,401.9866427825384,309.8620153492768,401.34680857714045,304.9031231151581,0.6006734042885702,0.0024515615575790572,-0.09250000000000003,0.6006734042885702,0.0024515615575790572,0.053000000000000005,-0.22194330824978664,-0.8202650535081152,1.4094065991580644,-1.57,4.71159,0.0,0.25,279
1753425589.3967714,280,401.9866427825384,309.8620153492768,401.34680857714045,304.9031231151581,0.6006734042885702,0.0024515615575790572,-0.09250000000000003,0.6006734042885702,0.0024515615575790572,0.053000000000000005,-0.22194330824978664,-0.8202650535081152,1.4094065991580644,-1.57,4.71159,0.0,0.25,280
1753425589.419351,281,401.9866427825384,309.8620153492768,401.34680857714045,304.9031231151581,0.6006734042885702,0.0024515615575790572,-0.09250000000000003,0.6006734042885702,0.0024515615575790572,0.053000000000000005,-0.22194330824978664,-0.8202650535081152,1.4094065991580644,-1.57,4.71159,0.0,0.25,281
1753425589.4368224,282,401.9866427825384,309.8620153492768,401.34680857714045,304.9031231151581,0.6006734042885702,0.0024515615575790572,-0.09250000000000003,0.6006734042885702,0.0024515615575790572,0.053000000000000005,-0.22194330824978664,-0.8202650535081152,1.4094065991580644,-1.57,4.71159,0.0,0.25,282
1753425589.4565241,283,401.9866427825384,309.8620153492768,401.34680857714045,304.9031231151581,0.6006734042885702,0.0024515615575790572,-0.09250000000000003,0.6006734042885702,0.0024515615575790572,0.053000000000000005,-0.22194330824978664,-0.8202650535081152,1.4094065991580644,-1.57,4.71159,0.0,0.25,283
1753425589.4762833,284,401.9866427825384,309.8620153492768,401.34680857714045,304.9031231151581,0.6006734042885702,0.0024515615575790572,-0.09250000000000003,0.6006734042885702,0.0024515615575790572,0.053000000000000005,-0.22194330824978664,-0.8202650535081152,1.4094065991580644,-1.57,4.71159,0.0,0.25,284
1753425589.4968402,285,401.9866427825384,309.8620153492768,401.34680857714045,304.9031231151581,0.6006734042885702,0.0024515615575790572,-0.09250000000000003,0.6006734042885702,0.0024515615575790572,0.053000000000000005,-0.22194330824978664,-0.8202650535081152,1.4094065991580644,-1.57,4.71159,0.0,0.25,285
1753425589.5178146,286,401.9866427825384,309.8620153492768,401.34680857714045,304.9031231151581,0.6006734042885702,0.0024515615575790572,-0.09250000000000003,0.6006734042885702,0.0024515615575790572,0.053000000000000005,-0.22194330824978664,-0.8202650535081152,1.4094065991580644,-1.57,4.71159,0.0,0.25,286
1753425589.5362322,287,401.9866427825384,309.8620153492768,401.34680857714045,304.9031231151581,0.6006734042885702,0.0024515615575790572,-0.09250000000000003,0.6006734042885702,0.0024515615575790572,0.053000000000000005,-0.22194330824978664,-0.8202650535081152,1.4094065991580644,-1.57,4.71159,0.0,0.25,287
1753425589.5565388,288,401.9866427825384,309.8620153492768,401.34680857714045,304.9031231151581,0.6006734042885702,0.0024515615575790572,-0.09250000000000003,0.6006734042885702,0.0024515615575790572,0.053000000000000005,-0.22194330824978664,-0.8202650535081152,1.4094065991580644,-1.57,4.71159,0.0,0.25,288
1753425589.5814939,289,401.9866427825384,309.8620153492768,401.34680857714045,304.9031231151581,0.6006734042885702,0.0024515615575790572,-0.09250000000000003,0.6006734042885702,0.0024515615575790572,0.053000000000000005,-0.22194330824978664,-0.8202650535081152,1.4094065991580644,-1.57,4.71159,0.0,0.25,289
1753425589.59686,290,401.9866427825384,309.8620153492768,401.34680857714045,304.9031231151581,0.6006734042885702,0.0024515615575790572,-0.09250000000000003,0.6006734042885702,0.0024515615575790572,0.053000000000000005,-0.22194330824978664,-0.8202650535081152,1.4094065991580644,-1.57,4.71159,0.0,0.25,290
1753425589.6179593,291,401.9866427825384,309.8620153492768,401.34680857714045,304.9031231151581,0.6006734042885702,0.0024515615575790572,-0.09250000000000003,0.6006734042885702,0.0024515615575790572,0.053000000000000005,-0.22194330824978664,-0.8202650535081152,1.4094065991580644,-1.57,4.71159,0.0,0.25,291
1753425589.6364648,292,401.9866427825384,309.8620153492768,401.34680857714045,304.9031231151581,0.6006734042885702,0.0024515615575790572,-0.09250000000000003,0.6006734042885702,0.0024515615575790572,0.053000000000000005,-0.22194330824978664,-0.8202650535081152,1.4094065991580644,-1.57,4.71159,0.0,0.25,292
1753425589.6573572,293,401.9866427825384,309.8620153492768,401.34680857714045,304.9031231151581,0.6006734042885702,0.0024515615575790572,-0.09250000000000003,0.6006734042885702,0.0024515615575790572,0.053000000000000005,-0.22194330824978664,-0.8202650535081152,1.4094065991580644,-1.57,4.71159,0.0,0.25,293
1753425589.6763742,294,401.9866427825384,309.8620153492768,401.34680857714045,304.9031231151581,0.6006734042885702,0.0024515615575790572,-0.09250000000000003,0.6006734042885702,0.0024515615575790572,0.053000000000000005,-0.22194330824978664,-0.8202650535081152,1.4094065991580644,-1.57,4.71159,0.0,0.25,294
1753425589.6964145,295,401.9866427825384,309.8620153492768,401.34680857714045,304.9031231151581,0.6006734042885702,0.0024515615575790572,-0.09250000000000003,0.6006734042885702,0.0024515615575790572,0.053000000000000005,-0.22194330824978664,-0.8202650535081152,1.4094065991580644,-1.57,4.71159,0.0,0.25,295
1753425589.7172232,296,401.9866427825384,309.8620153492768,401.34680857714045,304.9031231151581,0.6006734042885702,0.0024515615575790572,-0.09250000000000003,0.6006734042885702,0.0024515615575790572,0.053000000000000005,-0.22194330824978664,-0.8202650535081152,1.4094065991580644,-1.57,4.71159,0.0,0.25,296
1753425589.7389877,297,401.9866427825384,309.8620153492768,401.34680857714045,304.9031231151581,0.6006734042885702,0.0024515615575790572,-0.09250000000000003,0.6006734042885702,0.0024515615575790572,0.053000000000000005,-0.22194330824978664,-0.8202650535081152,1.4094065991580644,-1.57,4.71159,0.0,0.25,297
1753425589.756587,298,401.9866427825384,309.8620153492768,401.34680857714045,304.9031231151581,0.6006734042885702,0.0024515615575790572,-0.09250000000000003,0.6006734042885702,0.0024515615575790572,0.053000000000000005,-0.22194330824978664,-0.8202650535081152,1.4094065991580644,-1.57,4.71159,0.0,0.25,298
1753425589.7772334,299,401.9866427825384,309.8620153492768,401.34680857714045,304.9031231151581,0.6006734042885702,0.0024515615575790572,-0.09250000000000003,0.6006734042885702,0.0024515615575790572,0.053000000000000005,-0.22194330824978664,-0.8202650535081152,1.4094065991580644,-1.57,4.71159,0.0,0.25,299
1753425589.7971985,300,401.9866427825384,309.8620153492768,401.34680857714045,304.9031231151581,0.6006734042885702,0.0024515615575790572,-0.09250000000000003,0.6006734042885702,0.0024515615575790572,0.053000000000000005,-0.22194330824978664,-0.8202650535081152,1.4094065991580644,-1.57,4.71159,0.0,0.25,300
1753425589.817113,301,401.9866427825384,309.8620153492768,401.3533092628717,304.95270785168805,0.6006766546314358,0.002476353925844027,-0.0925000001408672,0.6006734042885702,0.0024515615575790572,0.053000000000000005,-0.22190287184878782,-0.8202695852433449,1.4094151608719598,-1.57,4.71159,0.0,0.25,301
1753425589.8364353,302,401.9866427825384,309.8620153492768,401.35980788093826,305.0022926756232,0.6006799039404691,0.0025011463378116078,-0.09250000027888883,0.6006734042885702,0.0024515615575790572,0.053000000000000005,-0.22186243544778897,-0.8202741169785747,1.409423722585855,-1.57,4.71159,0.0,0.25,302
1753425589.8563955,303,401.9866427825384,309.8620153492768,401.3663044313439,305.0518775868763,0.6006831522156719,0.00252593879343814,-0.09250000041406478,0.6006734042885702,0.0024515615575790572,0.053000000000000005,-0.22182199904679015,-0.8202786487138045,1.4094322842997504,-1.57,4.71159,0.0,0.25,303
1753425589.8769653,304,401.9866427825384,309.8620153492768,401.3727989140919,305.10146258536037,0.6006863994570459,0.002550731292680186,-0.09250000054639507,0.6006734042885702,0.0024515615575790572,0.053000000000000005,-0.22178156264579132,-0.8202831804490343,1.4094408460136458,-1.57,4.71159,0.0,0.25,304
1753425589.9000735,305,401.9866427825384,309.8620153492768,401.37929132918543,305.15104767098836,0.6006896456645927,0.00257552383549417,-0.09250000067587974,0.6006734042885702,0.0024515615575790572,0.053000000000000005,-0.22174112624479247,-0.820287712184264,1.409449407727541,-1.57,4.71159,0.0,0.25,305
1753425589.9165826,306,401.9866427825384,309.8620153492768,401.3857816766287,305.20063284367325,0.6006928908383143,0.0026003164218366126,-0.09250000080251874,0.6006734042885702,0.0024515615575790572,0.053000000000000005,-0.22170068984379365,-0.8202922439194937,1.4094579694414364,-1.57,4.71159,0.0,0.25,306
1753425589.9364672,307,401.9866427825384,309.8620153492768,401.3922699564246,305.2502181033279,0.6006961349782123,0.0026251090516639375,-0.09250000092631222,0.6006734042885702,0.0024515615575790572,0.053000000000000005,-0.22166025344279483,-0.8202967756547236,1.4094665311553318,-1.57,4.71159,0.0,0.25,307
1753425589.956504,308,401.9866427825384,309.8620153492768,401.3987561685769,305.29980344986535,0.6006993780842884,0.0026499017249326795,-0.09250000104725986,0.6006734042885702,0.0024515615575790572,0.053000000000000005,-0.221619817041796,-0.8203013073899533,1.4094750928692272,-1.57,4.71159,0.0,0.25,308
1753425589.978122,309,401.9866427825384,309.8620153492768,401.4052403130884,305.3493888831986,0.6007026201565442,0.002674694441599304,-0.09250000116536197,0.6006734042885702,0.0024515615575790572,0.053000000000000005,-0.22157938064079716,-0.8203058391251831,1.4094836545831224,-1.57,4.71159,0.0,0.25,309
1753425589.9965653,310,401.9866427825384,309.8620153492768,401.4117223899635,305.3989744032405,0.6007058611949817,0.0026994872016202487,-0.09250000128061842,0.6006734042885702,0.0024515615575790572,0.053000000000000005,-0.22153894423979834,-0.8203103708604128,1.4094922162970178,-1.57,4.71159,0.0,0.25,310
1753425590.0162792,311,401.9866427825384,309.8620153492768,401.41820239920486,305.44856000990404,0.6007091011996024,0.0027242800049520344,-0.09250000139302911,0.6006734042885702,0.0024515615575790572,0.053000000000000005,-0.2214985078387995,-0.8203149025956425,1.4095007780109132,-1.57,4.71159,0.0,0.25,311
1753425590.0369396,312,401.9866427825384,309.8620153492768,401.4246803408169,305.49814570310224,0.6007123401704084,0.0027490728515511265,-0.0925000015025943,0.6006734042885702,0.0024515615575790572,0.053000000000000005,-0.22145807143780066,-0.8203194343308724,1.4095093397248084,-1.57,4.71159,0.0,0.25,312
1753425590.0592914,313,401.9866427825384,309.8620153492768,401.4311562148022,305.5477314827479,0.6007155781074011,0.0027738657413739626,-0.0925000016093136,0.6006734042885702,0.0024515615575790572,0.053000000000000005,-0.22141763503680184,-0.8203239660661021,1.4095179014387038,-1.57,4.71159,0.0,0.25,313
1753425590.0768764,314,401.9866427825384,309.8620153492768,401.4376300211647,305.59731734875413,0.6007188150105823,0.0027986586743770775,-0.09250000171318731,0.6006734042885702,0.0024515615575790572,0.053000000000000005,-0.22137719863580302,-0.8203284978013319,1.4095264631525992,-1.57,4.71159,0.0,0.25,314
1753425590.0964518,315,401.9866427825384,309.8620153492768,401.4441017599076,305.6469033010339,0.6007220508799538,0.0028234516505169505,-0.09250000181421536,0.6006734042885702,0.0024515615575790572,0.053000000000000005,-0.2213367622348042,-0.8203330295365616,1.4095350248664946,-1.57,4.71159,0.0,0.25,315
1753425590.1173623,316,401.9866427825384,309.8620153492768,401.45057143103486,305.6964893395,0.6007252857155174,0.0028482446697499914,-0.09250000191239777,0.6006734042885702,0.0024515615575790572,0.053000000000000005,-0.22129632583380535,-0.8203375612717915,1.4095435865803898,-1.57,4.71159,0.0,0.25,316
1753425590.1376996,317,401.9866427825384,309.8620153492768,401.45703903454944,305.7460754640656,0.6007285195172747,0.0028730377320327904,-0.09250000200773431,0.6006734042885702,0.0024515615575790572,0.053000000000000005,-0.22125588943280652,-0.8203420930070212,1.4095521482942852,-1.57,4.71159,0.0,0.25,317
1753425590.156686,318,401.9866427825384,309.8620153492768,401.4635045704552,305.79566167464344,0.6007317522852276,0.002897830837321716,-0.09250000210022521,0.6006734042885702,0.0024515615575790572,0.053000000000000005,-0.2212154530318077,-0.820346624742251,1.4095607100081806,-1.57,4.71159,0.0,0.25,318
1753425590.1775572,319,401.9866427825384,309.8620153492768,401.4699680387553,305.8452479711466,0.6007349840193776,0.0029226239855733027,-0.09250000218987048,0.6006734042885702,0.0024515615575790572,0.053000000000000005,-0.22117501663080885,-0.8203511564774807,1.4095692717220758,-1.57,4.71159,0.0,0.25,319
1753425590.1971643,320,401.9866427825384,309.8620153492768,401.4764294394538,305.8948343534881,0.6007382147197269,0.002947417176744044,-0.09250000227666988,0.6006734042885702,0.0024515615575790572,0.053000000000000005,-0.22113458022981003,-0.8203556882127104,1.4095778334359712,-1.57,4.71159,0.0,0.25,320
1753425590.220781,321,401.9866427825384,309.8620153492768,401.48288877255374,305.94442082158076,0.6007414443862769,0.0029722104107903907,-0.09250000236062367,0.6006734042885702,0.0024515615575790572,0.053000000000000005,-0.2210941438288112,-0.8203602199479403,1.4095863951498666,-1.57,4.71159,0.0,0.25,321
1753425590.2369165,322,401.9866427825384,309.8620153492768,401.48934603805895,305.9940073753377,0.6007446730190295,0.0029970036876688227,-0.09250000244173182,0.6006734042885702,0.0024515615575790572,0.053000000000000005,-0.22105370742781236,-0.82036475168317,1.4095949568637618,-1.57,4.71159,0.0,0.25,322
1753425590.2569911,323,401.9866427825384,309.8620153492768,401.4958012359727,306.04359401467167,0.6007479006179863,0.003021797007335833,-0.09250000251999402,0.6006734042885702,0.0024515615575790572,0.053000000000000005,-0.22101327102681353,-0.8203692834183998,1.4096035185776572,-1.57,4.71159,0.0,0.25,323
1753425590.2766767,324,401.9866427825384,309.8620153492768,401.50225436629836,306.09318073949584,0.6007511271831492,0.0030465903697479285,-0.09250000259541061,0.6006734042885702,0.0024515615575790572,0.053000000000000005,-0.2209728346258147,-0.8203738151536295,1.4096120802915526,-1.57,4.71159,0.0,0.25,324
1753425590.2968266,325,401.9866427825384,309.8620153492768,401.50870542904016,306.14276754972303,0.60075435271452,0.0030713837748615053,-0.09250000266798142,0.6006734042885702,0.0024515615575790572,0.053000000000000005,-0.22093239822481586,-0.8203783468888592,1.4096206420054478,-1.57,4.71159,0.0,0.25,325
1753425590.3166885,326,401.9866427825384,309.8620153492768,401.5151544242007,306.1923544452663,0.6007575772121003,0.0030961772226331397,-0.09250000273770645,0.6006734042885702,0.0024515615575790572,0.053000000000000005,-0.22089196182381704,-0.8203828786240891,1.4096292037193432,-1.57,4.71159,0.0,0.25,326
1753425590.3364084,327,401.9866427825384,309.8620153492768,401.5216013517842,306.2419414260386,0.6007608006758921,0.003120970713019283,-0.09250000280458576,0.6006734042885702,0.0024515615575790572,0.053000000000000005,-0.22085152542281822,-0.8203874103593188,1.4096377654332386,-1.57,4.71159,0.0,0.25,327
1753425590.356502,328,401.9866427825384,309.8620153492768,401.52804621179394,306.29152849195276,0.6007640231058969,0.0031457642459763735,-0.09250000286861923,0.6006734042885702,0.0024515615575790572,0.053000000000000005,-0.2208110890218194,-0.8203919420945486,1.409646327147134,-1.57,4.71159,0.0,0.25,328
1753425590.37789,329,401.9866427825384,309.8620153492768,401.5344890042337,306.34111564292186,0.6007672445021168,0.0031705578214609453,-0.09250000292980706,0.6006734042885702,0.0024515615575790572,0.053000000000000005,-0.22077065262082055,-0.8203964738297783,1.4096548888610292,-1.57,4.71159,0.0,0.25,329
1753425590.3982713,330,401.9866427825384,309.8620153492768,401.54092972910667,306.3907028788589,0.6007704648645533,0.00319535143942945,-0.09250000298814909,0.6006734042885702,0.0024515615575790572,0.053000000000000005,-0.22073021621982172,-0.8204010055650082,1.4096634505749246,-1.57,4.71159,0.0,0.25,330
1753425590.4167924,331,401.9866427825384,309.8620153492768,401.5473683864162,306.4402901996768,0.6007736841932081,0.003220145099838395,-0.0925000030436452,0.6006734042885702,0.0024515615575790572,0.053000000000000005,-0.2206897798188229,-0.8204055373002379,1.40967201228882,-1.57,4.71159,0.0,0.25,331
1753425590.4367855,332,401.9866427825384,309.8620153492768,401.55380497616676,306.4898776052885,0.6007769024880834,0.0032449388026442316,-0.09250000309629566,0.6006734042885702,0.0024515615575790572,0.053000000000000005,-0.22064934341782405,-0.8204100690354676,1.4096805740027152,-1.57,4.71159,0.0,0.25,332
1753425590.4567766,333,401.9866427825384,309.8620153492768,401.56023949836117,306.53946509560694,0.6007801197491806,0.0032697325478034667,-0.09250000314610032,0.6006734042885702,0.0024515615575790572,0.053000000000000005,-0.22060890701682523,-0.8204146007706974,1.4096891357166106,-1.57,4.71159,0.0,0.25,333
1753425590.4765778,334,401.9866427825384,309.8620153492768,401.56667195300275,306.5890526705452,0.6007833359765014,0.0032945263352725795,-0.09250000319305904,0.6006734042885702,0.0024515615575790572,0.053000000000000005,-0.2205684706158264,-0.8204191325059271,1.409697697430506,-1.57,4.71159,0.0,0.25,334
1753425590.4965675,335,401.9866427825384,309.8620153492768,401.5731023400958,306.6386403300161,0.6007865511700479,0.0033193201650080356,-0.09250000323717217,0.6006734042885702,0.0024515615575790572,0.053000000000000005,-0.22052803421482758,-0.820423664241157,1.4097062591444014,-1.57,4.71159,0.0,0.25,335
1753425590.5168247,336,401.9866427825384,309.8620153492768,401.5795306596436,306.6882280739327,0.6007897653298218,0.003344114036966356,-0.09250000327843941,0.6006734042885702,0.0024515615575790572,0.053000000000000005,-0.22048759781382873,-0.8204281959763867,1.4097148208582966,-1.57,4.71159,0.0,0.25,336
1753425590.5393474,337,401.9866427825384,309.8620153492768,401.58595691164965,306.73781590220796,0.6007929784558248,0.0033689079511039777,-0.0925000033168607,0.6006734042885702,0.0024515615575790572,0.053000000000000005,-0.2204471614128299,-0.8204327277116165,1.409723382572192,-1.57,4.71159,0.0,0.25,337
1753425590.5566378,338,401.9866427825384,309.8620153492768,401.5923810961176,306.78740381475484,0.6007961905480588,0.003393701907377422,-0.09250000335243627,0.6006734042885702,0.0024515615575790572,0.053000000000000005,-0.2204067250118311,-0.8204372594468462,1.4097319442860874,-1.57,4.71159,0.0,0.25,338
1753425590.5769696,339,401.9866427825384,309.8620153492768,401.5988032130507,306.8369918114863,0.6007994016065253,0.0034184959057431547,-0.09250000338516615,0.6006734042885702,0.0024515615575790572,0.053000000000000005,-0.22036628861083224,-0.820441791182076,1.4097405059999826,-1.57,4.71159,0.0,0.25,339
