small-spring/wanderline/robot/demos/phase1/coordinate_analysis/pen_trail_analysis_20250725_025747.csv
timestamp,step_count,target_pixel_x,target_pixel_y,actual_pixel_x,actual_pixel_y,pen_body_x,pen_body_y,pen_body_z,trail_contact_x,trail_contact_y,trail_contact_z,joint_0,joint_1,joint_2,joint_3,joint_4,joint_5,progress_percent,contact_count
1753412267.2318578,0,400,300,400.03303417827993,300.0788100211623,0.60001651708914,3.940501058116719e-05,0.07035654334788055,0.60001651708914,3.940501058116719e-05,0.053000000000000005,-0.226,-0.82,1.41,-1.57,4.713,0.0,0.0,0
1753412267.8710384,1,401.34680857714034,304.9031231151581,400.03303417827993,300.0788100211623,0.60001651708914,3.940501058116719e-05,0.07035654334788055,0.60001651708914,3.940501058116719e-05,0.053000000000000005,-0.226,-0.82,1.41,-1.57,4.713,0.0,0.041666666666666664,1
1753412267.8973463,2,401.34680857714034,304.9031231151581,400.03303417827993,300.0788100211623,0.60001651708914,3.940501058116719e-05,0.07035654334788055,0.60001651708914,3.940501058116719e-05,0.053000000000000005,-0.226,-0.82,1.41,-1.57,4.713,0.0,0.08333333333333333,2
1753412267.9112897,3,401.34680857714034,304.9031231151581,400.03303417827993,300.0788100211623,0.60001651708914,3.940501058116719e-05,0.07035654334788055,0.60001651708914,3.940501058116719e-05,0.053000000000000005,-0.226,-0.82,1.41,-1.57,4.713,0.0,0.125,3
1753412267.9315965,4,401.34680857714034,304.9031231151581,400.03303417827993,300.0788100211623,0.60001651708914,3.940501058116719e-05,0.07035654334788055,0.60001651708914,3.940501058116719e-05,0.053000000000000005,-0.226,-0.82,1.41,-1.57,4.713,0.0,0.16666666666666666,4
1753412267.9512813,5,401.34680857714034,304.9031231151581,400.03303417827993,300.0788100211623,0.60001651708914,3.940501058116719e-05,0.07035654334788055,0.60001651708914,3.940501058116719e-05,0.053000000000000005,-0.226,-0.82,1.41,-1.57,4.713,0.0,0.20833333333333334,5
1753412267.9714763,6,401.34680857714034,304.9031231151581,400.03303417827993,300.0788100211623,0.60001651708914,3.940501058116719e-05,0.07035654334788055,0.60001651708914,3.940501058116719e-05,0.053000000000000005,-0.226,-0.82,1.41,-1.57,4.713,0.0,0.25,6
1753412267.9918654,7,401.34680857714034,304.9031231151581,400.03303417827993,300.0788100211623,0.60001651708914,3.940501058116719e-05,0.07035654334788055,0.60001651708914,3.940501058116719e-05,0.053000000000000005,-0.226,-0.82,1.41,-1.57,4.713,0.0,0.25,7
1753412268.0127637,8,401.34680857714034,304.9031231151581,400.03303417827993,300.0788100211623,0.60001651708914,3.940501058116719e-05,0.07035654334788055,0.60001651708914,3.940501058116719e-05,0.053000000000000005,-0.226,-0.82,1.41,-1.57,4.713,0.0,0.25,8
1753412268.0316792,9,401.34680857714034,304.9031231151581,400.03303417827993,300.0788100211623,0.60001651708914,3.940501058116719e-05,0.07035654334788055,0.60001651708914,3.940501058116719e-05,0.053000000000000005,-0.226,-0.82,1.41,-1.57,4.713,0.0,0.25,9
1753412268.051699,10,401.34680857714034,304.9031231151581,400.03303417827993,300.0788100211623,0.60001651708914,3.940501058116719e-05,0.07035654334788055,0.60001651708914,3.940501058116719e-05,0.053000000000000005,-0.226,-0.82,1.41,-1.57,4.713,0.0,0.25,10
1753412268.0724022,11,401.34680857714034,304.9031231151581,400.03303417827993,300.0788100211623,0.60001651708914,3.940501058116719e-05,0.07035654334788055,0.60001651708914,3.940501058116719e-05,0.053000000000000005,-0.226,-0.82,1.41,-1.57,4.713,0.0,0.25,11
1753412268.0928466,12,401.34680857714034,304.9031231151581,400.03303417827993,300.0788100211623,0.60001651708914,3.940501058116719e-05,0.07035654334788055,0.60001651708914,3.940501058116719e-05,0.053000000000000005,-0.226,-0.82,1.41,-1.57,4.713,0.0,0.25,12
1753412268.1116745,13,401.34680857714034,304.9031231151581,400.03303417827993,300.0788100211623,0.60001651708914,3.940501058116719e-05,0.07035654334788055,0.60001651708914,3.940501058116719e-05,0.053000000000000005,-0.226,-0.82,1.41,-1.57,4.713,0.0,0.25,13
1753412268.1324642,14,401.34680857714034,304.9031231151581,400.03303417827993,300.0788100211623,0.60001651708914,3.940501058116719e-05,0.07035654334788055,0.60001651708914,3.940501058116719e-05,0.053000000000000005,-0.226,-0.82,1.41,-1.57,4.713,0.0,0.25,14
1753412268.151517,15,401.34680857714034,304.9031231151581,400.03303417827993,300.0788100211623,0.60001651708914,3.940501058116719e-05,0.07035654334788055,0.60001651708914,3.940501058116719e-05,0.053000000000000005,-0.226,-0.82,1.41,-1.57,4.713,0.0,0.25,15
1753412268.171484,16,401.34680857714034,304.9031231151581,400.03303417827993,300.0788100211623,0.60001651708914,3.940501058116719e-05,0.07035654334788055,0.60001651708914,3.940501058116719e-05,0.053000000000000005,-0.226,-0.82,1.41,-1.57,4.713,0.0,0.25,16
1753412268.1914773,17,401.34680857714034,304.9031231151581,400.03303417827993,300.0788100211623,0.60001651708914,3.940501058116719e-05,0.07035654334788055,0.60001651708914,3.940501058116719e-05,0.053000000000000005,-0.226,-0.82,1.41,-1.57,4.713,0.0,0.25,17
1753412268.2139912,18,401.34680857714034,304.9031231151581,400.03303417827993,300.0788100211623,0.60001651708914,3.940501058116719e-05,0.07035654334788055,0.60001651708914,3.940501058116719e-05,0.053000000000000005,-0.226,-0.82,1.41,-1.57,4.713,0.0,0.25,18
1753412268.23438,19,401.34680857714034,304.9031231151581,400.03303417827993,300.0788100211623,0.60001651708914,3.940501058116719e-05,0.07035654334788055,0.60001651708914,3.940501058116719e-05,0.053000000000000005,-0.226,-0.82,1.41,-1.57,4.713,0.0,0.25,19
1753412268.25229,20,401.34680857714034,304.9031231151581,400.03303417827993,300.0788100211623,0.60001651708914,3.940501058116719e-05,0.07035654334788055,0.60001651708914,3.940501058116719e-05,0.053000000000000005,-0.226,-0.82,1.41,-1.57,4.713,0.0,0.25,20
1753412268.282409,21,401.34680857714034,304.9031231151581,400.03303417827993,300.0788100211623,0.60001651708914,3.940501058116719e-05,0.07035654334788055,0.60001651708914,3.940501058116719e-05,0.053000000000000005,-0.226,-0.82,1.41,-1.57,4.713,0.0,0.25,21
1753412268.2914827,22,401.34680857714034,304.9031231151581,400.03303417827993,300.0788100211623,0.60001651708914,3.940501058116719e-05,0.07035654334788055,0.60001651708914,3.940501058116719e-05,0.053000000000000005,-0.226,-0.82,1.41,-1.57,4.713,0.0,0.25,22
1753412268.312092,23,401.34680857714034,304.9031231151581,400.03303417827993,300.0788100211623,0.60001651708914,3.940501058116719e-05,0.07035654334788055,0.60001651708914,3.940501058116719e-05,0.053000000000000005,-0.226,-0.82,1.41,-1.57,4.713,0.0,0.25,23
1753412268.331872,24,401.34680857714034,304.9031231151581,400.03303417827993,300.0788100211623,0.60001651708914,3.940501058116719e-05,0.07035654334788055,0.60001651708914,3.940501058116719e-05,0.053000000000000005,-0.226,-0.82,1.41,-1.57,4.713,0.0,0.25,24
1753412268.3512895,25,401.34680857714034,304.9031231151581,400.03303417827993,300.0788100211623,0.60001651708914,3.940501058116719e-05,0.07035654334788055,0.60001651708914,3.940501058116719e-05,0.053000000000000005,-0.226,-0.82,1.41,-1.57,4.713,0.0,0.25,25
1753412268.3715973,26,401.34680857714034,304.9031231151581,400.0859669533382,300.27166184100133,0.6000429834766691,0.00013583092050066525,0.07034228427929104,0.6000429834766691,0.00013583092050066525,0.053000000000000005,-0.22583773232999146,-0.8200106021403245,1.4099762639663225,-1.57,4.7129436,0.0,0.25,26
1753412268.3919032,27,401.34680857714034,304.9031231151581,400.1388679265677,300.4645237606931,0.6000694339632838,0.00023226188034654316,0.07032802498848723,0.6000694339632838,0.00023226188034654316,0.053000000000000005,-0.22567546465998295,-0.8200212042806492,1.409952527932645,-1.57,4.7128872,0.0,0.25,27
1753412268.4124916,28,401.34680857714034,304.9031231151581,400.19173709603734,300.6573957748668,0.6000958685480187,0.00032869788743340733,0.07031376547548279,0.6000958685480187,0.00032869788743340733,0.053000000000000005,-0.2255131969899744,-0.8200318064209737,1.4099287918989676,-1.57,4.7128308,0.0,0.25,28
1753412268.4343479,29,401.34680857714034,304.9031231151581,400.24457445981784,300.8502778781511,0.6001222872299089,0.000425138939075545,0.07029950574029112,0.6001222872299089,0.000425138939075545,0.053000000000000005,-0.22535092931996586,-0.8200424085612984,1.4099050558652901,-1.57,4.7127744,0.0,0.25,29
1753412268.4517257,30,401.34680857714034,304.9031231151581,400.2973800159798,301.0431700651743,0.6001486900079899,0.0005215850325871602,0.07028524578292586,0.6001486900079899,0.0005215850325871602,0.053000000000000005,-0.22518866164995732,-0.820053010701623,1.409881319831613,-1.57,4.712718,0.0,0.25,30
1753412268.4719248,31,401.34680857714034,304.9031231151581,400.3501537625958,301.23607233056435,0.6001750768812979,0.0006180361652821792,0.07027098560340042,0.6001750768812979,0.0006180361652821792,0.053000000000000005,-0.2250263939799488,-0.8200636128419476,1.4098575837979355,-1.57,4.7126616,0.0,0.25,31
1753412268.491369,32,401.34680857714034,304.9031231151581,400.40289569773864,301.4289846689489,0.6002014478488693,0.0007144923344744453,0.07025672520172843,0.6002014478488693,0.0007144923344744453,0.053000000000000005,-0.22486412630994027,-0.8200742149822722,1.409833847764258,-1.57,4.7126052000000005,0.0,0.25,32
1753412268.5115333,33,401.34680857714034,304.9031231151581,400.455605819482,301.6219070749551,0.600227802909741,0.0008109535374775517,0.07024246457792335,0.600227802909741,0.0008109535374775517,0.053000000000000005,-0.22470185863993172,-0.8200848171225968,1.4098101117305806,-1.57,4.7125488,0.0,0.25,33
1753412268.5315385,34,401.34680857714034,304.9031231151581,400.5082841259008,301.8148395432098,0.6002541420629504,0.0009074197716048976,0.0702282037319989,0.6002541420629504,0.0009074197716048976,0.053000000000000005,-0.2245395909699232,-0.8200954192629214,1.4097863756969031,-1.57,4.7124924,0.0,0.25,34
1753412268.5517623,35,401.34680857714034,304.9031231151581,400.56093061507113,302.0077820683395,0.6002804653075355,0.0010038910341697571,0.0702139426639683,0.6002804653075355,0.0010038910341697571,0.053000000000000005,-0.22437732329991467,-0.8201060214032461,1.4097626396632257,-1.57,4.712436,0.0,0.25,35
1753412268.5715907,36,401.34680857714034,304.9031231151581,400.6135452850693,302.20073464497034,0.6003067726425346,0.0011003673224851823,0.07019968137384536,0.6003067726425346,0.0011003673224851823,0.053000000000000005,-0.22421505562990612,-0.8201166235435706,1.4097389036295482,-1.57,4.7123796,0.0,0.25,36
1753412268.5913417,37,401.34680857714034,304.9031231151581,400.66612813397325,302.393697267728,0.6003330640669866,0.0011968486338640033,0.0701854198616435,0.6003330640669866,0.0011968486338640033,0.053000000000000005,-0.22405278795989758,-0.8201272256838953,1.4097151675958708,-1.57,4.7123232,0.0,0.25,37
1753412268.6127102,38,401.34680857714034,304.9031231151581,400.71867915986104,302.58666993123785,0.6003593395799305,0.0012933349656189391,0.0701711581273764,0.6003593395799305,0.0012933349656189391,0.053000000000000005,-0.22389052028988907,-0.8201378278242198,1.4096914315621936,-1.57,4.7122668,0.0,0.25,38
1753412268.6313944,39,401.34680857714034,304.9031231151581,400.7711983608127,302.77965263012493,0.6003855991804063,0.001389826315062473,0.0701568961710573,0.6003855991804063,0.001389826315062473,0.053000000000000005,-0.22372825261988052,-0.8201484299645445,1.4096676955285161,-1.57,4.7122104,0.0,0.25,39
1753412268.6515431,40,401.34680857714034,304.9031231151581,400.8236857349087,302.9726453590139,0.6004118428674543,0.001486322679506949,0.0701426339927001,0.6004118428674543,0.001486322679506949,0.053000000000000005,-0.22356598494987198,-0.8201590321048691,1.4096439594948387,-1.57,4.712154,0.0,0.25,40
1753412268.671563,41,401.34680857714034,304.9031231151581,400.8761412802296,303.1656481125289,0.6004380706401148,0.001582824056264448,0.07012837159231794,0.6004380706401148,0.001582824056264448,0.053000000000000005,-0.22340371727986344,-0.8201696342451937,1.4096202234611612,-1.57,4.7120976,0.0,0.25,41
1753412268.6944292,42,401.34680857714034,304.9031231151581,400.9285649948583,303.35866088529383,0.6004642824974291,0.0016793304426469258,0.07011410896992473,0.6004642824974291,0.0016793304426469258,0.053000000000000005,-0.22324144960985493,-0.8201802363855183,1.4095964874274838,-1.57,4.7120412,0.0,0.25,42
1753412268.7113342,43,401.34680857714034,304.9031231151581,400.98095687687794,303.5516836719323,0.600490478438439,0.0017758418359661715,0.07009984612553372,0.600490478438439,0.0017758418359661715,0.053000000000000005,-0.22307918193984638,-0.820190838525843,1.4095727513938063,-1.57,4.7119848,0.0,0.25,43
1753412268.732164,44,401.34680857714034,304.9031231151581,401.03331692437234,303.74471646706746,0.6005166584621862,0.0018723582335337247,0.07008558305915871,0.6005166584621862,0.0018723582335337247,0.053000000000000005,-0.22291691426983784,-0.8202014406661675,1.4095490153601289,-1.57,4.711928400000001,0.0,0.25,44
1753412268.7542012,45,401.34680857714034,304.9031231151581,401.0856451354269,303.93775926532203,0.6005428225677134,0.0019688796326610136,0.07007131977081305,0.6005428225677134,0.0019688796326610136,0.053000000000000005,-0.22275464659982933,-0.8202120428064922,1.4095252793264514,-1.57,4.7118720000000005,0.0,0.25,45
1753412268.771822,46,401.34680857714034,304.9031231151581,401.1379415081272,304.13081206131847,0.6005689707540636,0.002065406030659231,0.07005705626051043,0.6005689707540636,0.002065406030659231,0.053000000000000005,-0.22259237892982078,-0.8202226449468167,1.4095015432927742,-1.57,4.7118156,0.0,0.25,46
1753412268.7917445,47,401.34680857714034,304.9031231151581,401.1902060405606,304.32387484967876,0.6005951030202803,0.0021619374248393886,0.0700427925282642,0.6005951030202803,0.0021619374248393886,0.053000000000000005,-0.22243011125981224,-0.8202332470871414,1.4094778072590968,-1.57,4.7117592,0.0,0.25,47
1753412268.811263,48,401.34680857714034,304.9031231151581,401.2424387308145,304.51694762502467,0.6006212193654072,0.002258473812512346,0.07002852857408809,0.6006212193654072,0.002258473812512346,0.053000000000000005,-0.2222678435898037,-0.820243849227466,1.4094540712254193,-1.57,4.7117028,0.0,0.25,48
1753412268.8316386,49,401.34680857714034,304.9031231151581,401.29463957697794,304.71003038197745,0.600647319788489,0.002355015190988727,0.07001426439799538,0.600647319788489,0.002355015190988727,0.053000000000000005,-0.22210557591979518,-0.8202544513677906,1.4094303351917419,-1.57,4.7116464,0.0,0.25,49
1753412268.8526745,50,401.34680857714034,304.9031231151581,401.34680857714045,304.9031231151581,0.6006734042885702,0.0024515615575790572,0.06999999999999998,0.6006734042885702,0.0024515615575790572,0.053000000000000005,-0.22194330824978664,-0.8202650535081152,1.4094065991580644,-1.57,4.71159,0.0,0.25,50
1753412268.8718188,51,401.34680857714034,304.9031231151581,401.34680857714045,304.9031231151581,0.6006734042885702,0.0024515615575790572,0.06999999999999998,0.6006734042885702,0.0024515615575790572,0.053000000000000005,-0.22194330824978664,-0.8202650535081152,1.4094065991580644,-1.57,4.71159,0.0,0.25,51
1753412268.8921769,52,401.9866427825384,309.8620153492768,401.34680857714045,304.9031231151581,0.6006734042885702,0.0024515615575790572,0.06999999999999998,0.6006734042885702,0.0024515615575790572,0.053000000000000005,-0.22194330824978664,-0.8202650535081152,1.4094065991580644,-1.57,4.71159,0.0,0.25,52
1753412268.9114394,53,401.9866427825384,309.8620153492768,401.34680857714045,304.9031231151581,0.6006734042885702,0.0024515615575790572,0.06999999999999998,0.6006734042885702,0.0024515615575790572,0.053000000000000005,-0.22194330824978664,-0.8202650535081152,1.4094065991580644,-1.57,4.71159,0.0,0.25,53
1753412268.9315798,54,401.9866427825384,309.8620153492768,401.34680857714045,304.9031231151581,0.6006734042885702,0.0024515615575790572,0.06999999999999998,0.6006734042885702,0.0024515615575790572,0.053000000000000005,-0.22194330824978664,-0.8202650535081152,1.4094065991580644,-1.57,4.71159,0.0,0.25,54
1753412268.9515676,55,401.9866427825384,309.8620153492768,401.34680857714045,304.9031231151581,0.6006734042885702,0.0024515615575790572,0.06999999999999998,0.6006734042885702,0.0024515615575790572,0.053000000000000005,-0.22194330824978664,-0.8202650535081152,1.4094065991580644,-1.57,4.71159,0.0,0.25,55
1753412268.9716992,56,401.9866427825384,309.8620153492768,401.34680857714045,304.9031231151581,0.6006734042885702,0.0024515615575790572,0.06999999999999998,0.6006734042885702,0.0024515615575790572,0.053000000000000005,-0.22194330824978664,-0.8202650535081152,1.4094065991580644,-1.57,4.71159,0.0,0.25,56
1753412268.991408,57,401.9866427825384,309.8620153492768,401.34680857714045,304.9031231151581,0.6006734042885702,0.0024515615575790572,0.06999999999999998,0.6006734042885702,0.0024515615575790572,0.053000000000000005,-0.22194330824978664,-0.8202650535081152,1.4094065991580644,-1.57,4.71159,0.0,0.25,57
1753412269.0149198,58,401.9866427825384,309.8620153492768,401.34680857714045,304.9031231151581,0.6006734042885702,0.0024515615575790572,0.06999999999999998,0.6006734042885702,0.0024515615575790572,0.053000000000000005,-0.22194330824978664,-0.8202650535081152,1.4094065991580644,-1.57,4.71159,0.0,0.25,58
1753412269.032863,59,401.9866427825384,309.8620153492768,401.34680857714045,304.9031231151581,0.6006734042885702,0.0024515615575790572,0.06999999999999998,0.6006734042885702,0.0024515615575790572,0.053000000000000005,-0.22194330824978664,-0.8202650535081152,1.4094065991580644,-1.57,4.71159,0.0,0.25,59
1753412269.051507,60,401.9866427825384,309.8620153492768,401.34680857714045,304.9031231151581,0.6006734042885702,0.0024515615575790572,0.06999999999999998,0.6006734042885702,0.0024515615575790572,0.053000000000000005,-0.22194330824978664,-0.8202650535081152,1.4094065991580644,-1.57,4.71159,0.0,0.25,60
1753412269.0749652,61,401.9866427825384,309.8620153492768,401.34680857714045,304.9031231151581,0.6006734042885702,0.0024515615575790572,0.06999999999999998,0.6006734042885702,0.0024515615575790572,0.053000000000000005,-0.22194330824978664,-0.8202650535081152,1.4094065991580644,-1.57,4.71159,0.0,0.25,61
1753412269.0920794,62,401.9866427825384,309.8620153492768,401.34680857714045,304.9031231151581,0.6006734042885702,0.0024515615575790572,0.06999999999999998,0.6006734042885702,0.0024515615575790572,0.053000000000000005,-0.22194330824978664,-0.8202650535081152,1.4094065991580644,-1.57,4.71159,0.0,0.25,62
1753412269.1123755,63,401.9866427825384,309.8620153492768,401.34680857714045,304.9031231151581,0.6006734042885702,0.0024515615575790572,0.06999999999999998,0.6006734042885702,0.0024515615575790572,0.053000000000000005,-0.22194330824978664,-0.8202650535081152,1.4094065991580644,-1.57,4.71159,0.0,0.25,63
1753412269.1316583,64,401.9866427825384,309.8620153492768,401.34680857714045,304.9031231151581,0.6006734042885702,0.0024515615575790572,0.06999999999999998,0.6006734042885702,0.0024515615575790572,0.053000000000000005,-0.22194330824978664,-0.8202650535081152,1.4094065991580644,-1.57,4.71159,0.0,0.25,64
1753412269.15141,65,401.9866427825384,309.8620153492768,401.34680857714045,304.9031231151581,0.6006734042885702,0.0024515615575790572,0.06999999999999998,0.6006734042885702,0.0024515615575790572,0.053000000000000005,-0.22194330824978664,-0.8202650535081152,1.4094065991580644,-1.57,4.71159,0.0,0.25,65
1753412269.1732981,66,401.9866427825384,309.8620153492768,401.34680857714045,304.9031231151581,0.6006734042885702,0.0024515615575790572,0.06999999999999998,0.6006734042885702,0.0024515615575790572,0.053000000000000005,-0.22194330824978664,-0.8202650535081152,1.4094065991580644,-1.57,4.71159,0.0,0.25,66
1753412269.1921973,67,401.9866427825384,309.8620153492768,401.34680857714045,304.9031231151581,0.6006734042885702,0.0024515615575790572,0.06999999999999998,0.6006734042885702,0.0024515615575790572,0.053000000000000005,-0.22194330824978664,-0.8202650535081152,1.4094065991580644,-1.57,4.71159,0.0,0.25,67
1753412269.211611,68,401.9866427825384,309.8620153492768,401.34680857714045,304.9031231151581,0.6006734042885702,0.0024515615575790572,0.06999999999999998,0.6006734042885702,0.0024515615575790572,0.053000000000000005,-0.22194330824978664,-0.8202650535081152,1.4094065991580644,-1.57,4.71159,0.0,0.25,68
1753412269.2342186,69,401.9866427825384,309.8620153492768,401.34680857714045,304.9031231151581,0.6006734042885702,0.0024515615575790572,0.06999999999999998,0.6006734042885702,0.0024515615575790572,0.053000000000000005,-0.22194330824978664,-0.8202650535081152,1.4094065991580644,-1.57,4.71159,0.0,0.25,69
1753412269.2517352,70,401.9866427825384,309.8620153492768,401.34680857714045,304.9031231151581,0.6006734042885702,0.0024515615575790572,0.06999999999999998,0.6006734042885702,0.0024515615575790572,0.053000000000000005,-0.22194330824978664,-0.8202650535081152,1.4094065991580644,-1.57,4.71159,0.0,0.25,70
1753412269.271563,71,401.9866427825384,309.8620153492768,401.34680857714045,304.9031231151581,0.6006734042885702,0.0024515615575790572,0.06999999999999998,0.6006734042885702,0.0024515615575790572,0.053000000000000005,-0.22194330824978664,-0.8202650535081152,1.4094065991580644,-1.57,4.71159,0.0,0.25,71
1753412269.2912633,72,401.9866427825384,309.8620153492768,401.34680857714045,304.9031231151581,0.6006734042885702,0.0024515615575790572,0.06999999999999998,0.6006734042885702,0.0024515615575790572,0.053000000000000005,-0.22194330824978664,-0.8202650535081152,1.4094065991580644,-1.57,4.71159,0.0,0.25,72
1753412269.3112423,73,401.9866427825384,309.8620153492768,401.34680857714045,304.9031231151581,0.6006734042885702,0.0024515615575790572,0.06999999999999998,0.6006734042885702,0.0024515615575790572,0.053000000000000005,-0.22194330824978664,-0.8202650535081152,1.4094065991580644,-1.57,4.71159,0.0,0.25,73
1753412269.3350713,74,401.9866427825384,309.8620153492768,401.34680857714045,304.9031231151581,0.6006734042885702,0.0024515615575790572,0.06999999999999998,0.6006734042885702,0.0024515615575790572,0.053000000000000005,-0.22194330824978664,-0.8202650535081152,1.4094065991580644,-1.57,4.71159,0.0,0.25,74
1753412269.351326,75,401.9866427825384,309.8620153492768,401.34680857714045,304.9031231151581,0.6006734042885702,0.0024515615575790572,0.06999999999999998,0.6006734042885702,0.0024515615575790572,0.053000000000000005,-0.22194330824978664,-0.8202650535081152,1.4094065991580644,-1.57,4.71159,0.0,0.25,75
1753412269.3721726,76,401.9866427825384,309.8620153492768,401.3727989140919,305.10146258536037,0.6006863994570459,0.002550731292680186,0.06999999945360494,0.6006863994570459,0.002550731292680186,0.053000000000000005,-0.22178156264579132,-0.8202831804490343,1.4094408460136458,-1.57,4.71159,0.0,0.25,76
1753412269.3928902,77,401.9866427825384,309.8620153492768,401.3987561685769,305.29980344986535,0.6006993780842884,0.0026499017249326795,0.06999999895274014,0.6006993780842884,0.0026499017249326795,0.053000000000000005,-0.221619817041796,-0.8203013073899533,1.4094750928692272,-1.57,4.71159,0.0,0.25,77
1753412269.4115942,78,401.9866427825384,309.8620153492768,401.4246803408169,305.49814570310224,0.6007123401704084,0.0027490728515511265,0.06999999849740571,0.6007123401704084,0.0027490728515511265,0.053000000000000005,-0.22145807143780066,-0.8203194343308724,1.4095093397248084,-1.57,4.71159,0.0,0.25,78
1753412269.433477,79,401.9866427825384,309.8620153492768,401.45057143103486,305.6964893395,0.6007252857155174,0.0028482446697499914,0.06999999808760224,0.6007252857155174,0.0028482446697499914,0.053000000000000005,-0.22129632583380535,-0.8203375612717915,1.4095435865803898,-1.57,4.71159,0.0,0.25,79
1753412269.4520218,80,401.9866427825384,309.8620153492768,401.4764294394538,305.8948343534881,0.6007382147197269,0.002947417176744044,0.06999999772333013,0.6007382147197269,0.002947417176744044,0.053000000000000005,-0.22113458022981003,-0.8203556882127104,1.4095778334359712,-1.57,4.71159,0.0,0.25,80
1753412269.4713306,81,401.9866427825384,309.8620153492768,401.50225436629836,306.09318073949584,0.6007511271831492,0.0030465903697479285,0.0699999974045894,0.6007511271831492,0.0030465903697479285,0.053000000000000005,-0.2209728346258147,-0.8203738151536295,1.4096120802915526,-1.57,4.71159,0.0,0.25,81
1753412269.4940705,82,401.9866427825384,309.8620153492768,401.52804621179394,306.29152849195276,0.6007640231058969,0.0031457642459763735,0.06999999713138078,0.6007640231058969,0.0031457642459763735,0.053000000000000005,-0.2208110890218194,-0.8203919420945486,1.409646327147134,-1.57,4.71159,0.0,0.25,82
1753412269.5113494,83,401.9866427825384,309.8620153492768,401.55380497616676,306.4898776052885,0.6007769024880834,0.0032449388026442316,0.06999999690370434,0.6007769024880834,0.0032449388026442316,0.053000000000000005,-0.22064934341782405,-0.8204100690354676,1.4096805740027152,-1.57,4.71159,0.0,0.25,83
1753412269.5322022,84,401.9866427825384,309.8620153492768,401.5795306596436,306.6882280739327,0.6007897653298218,0.003344114036966356,0.0699999967215606,0.6007897653298218,0.003344114036966356,0.053000000000000005,-0.22048759781382873,-0.8204281959763867,1.4097148208582966,-1.57,4.71159,0.0,0.25,84
1753412269.5542154,85,401.9866427825384,309.8620153492768,401.60522326245325,306.88657989231524,0.6008026116312266,0.0034432899461576266,0.06999999658494993,0.6008026116312266,0.0034432899461576266,0.053000000000000005,-0.22032585220983342,-0.8204463229173058,1.409749067713878,-1.57,4.71159,0.0,0.25,85
1753412269.5713024,86,401.9866427825384,309.8620153492768,401.63088278482417,307.08493305486616,0.600815441392412,0.0035424665274330636,0.0699999964938727,0.600815441392412,0.0035424665274330636,0.053000000000000005,-0.2201641066058381,-0.8204644498582249,1.4097833145694594,-1.57,4.71159,0.0,0.25,86
1753412269.5912838,87,401.9866427825384,309.8620153492768,401.6565092269871,307.28328755601535,0.6008282546134935,0.003641643778007686,0.06999999644832922,0.6008282546134935,0.003641643778007686,0.053000000000000005,-0.22000236100184278,-0.8204825767991439,1.4098175614250408,-1.57,4.71159,0.0,0.25,87
1753412269.6114578,88,401.9866427825384,309.8620153492768,401.6821025891727,307.481643390193,0.6008410512945863,0.0037408216950965273,0.0699999964483198,0.6008410512945863,0.0037408216950965273,0.053000000000000005,-0.21984061539784744,-0.8205007037400629,1.409851808280622,-1.57,4.71159,0.0,0.25,88
1753412269.6315336,89,401.9866427825384,309.8620153492768,401.7076628716126,307.68000055182955,0.6008538314358063,0.003840000275914787,0.06999999649384492,0.6008538314358063,0.003840000275914787,0.053000000000000005,-0.21967886979385212,-0.820518830680982,1.4098860551362034,-1.57,4.71159,0.0,0.25,89
1753412269.6522872,90,401.9866427825384,309.8620153492768,401.7331900745401,307.87835903535523,0.60086659503727,0.00393917951767761,0.06999999658490486,0.60086659503727,0.00393917951767761,0.053000000000000005,-0.2195171241898568,-0.820536957621901,1.4099203019917848,-1.57,4.71159,0.0,0.25,90
1753412269.672146,91,401.9866427825384,309.8620153492768,401.7586841981887,308.0767188352005,0.6008793420990943,0.004038359417600237,0.06999999672150001,0.6008793420990943,0.004038359417600237,0.053000000000000005,-0.2193553785858615,-0.8205550845628201,1.4099545488473662,-1.57,4.71159,0.0,0.25,91
1753412269.69145,92,401.9866427825384,309.8620153492768,401.7841452427938,308.275079945796,0.6008920726213969,0.004137539972898008,0.06999999690363068,0.6008920726213969,0.004137539972898008,0.053000000000000005,-0.21919363298186617,-0.8205732115037392,1.4099887957029476,-1.57,4.71159,0.0,0.25,92
1753412269.7120447,93,401.9866427825384,309.8620153492768,401.80957320859056,308.47344236157244,0.6009047866042952,0.004236721180786232,0.06999999713129723,0.6009047866042952,0.004236721180786232,0.053000000000000005,-0.21903188737787083,-0.8205913384446583,1.4100230425585287,-1.57,4.71159,0.0,0.25,93
1753412269.7315717,94,401.9866427825384,309.8620153492768,401.83496809581584,308.6718060769606,0.6009174840479079,0.004335903038480304,0.06999999740450014,0.6009174840479079,0.004335903038480304,0.053000000000000005,-0.2188701417738755,-0.8206094653855773,1.4100572894141101,-1.57,4.71159,0.0,0.25,94
1753412269.7512999,95,401.9866427825384,309.8620153492768,401.8603299047071,308.87017108639157,0.6009301649523535,0.004435085543195785,0.06999999772323975,0.6009301649523535,0.004435085543195785,0.053000000000000005,-0.2187083961698802,-0.8206275923264964,1.4100915362696915,-1.57,4.71159,0.0,0.25,95
1753412269.772245,96,401.9866427825384,309.8620153492768,401.88565863550315,309.06853738429623,0.6009428293177516,0.004534268692148111,0.06999999808751639,0.6009428293177516,0.004534268692148111,0.053000000000000005,-0.21854665056588488,-0.8206457192674154,1.410125783125273,-1.57,4.71159,0.0,0.25,96
1753412269.791307,97,401.9866427825384,309.8620153492768,401.91095428844346,309.2669049651057,0.6009554771442217,0.004633452482552869,0.0699999984973303,0.6009554771442217,0.004633452482552869,0.053000000000000005,-0.21838490496188956,-0.8206638462083344,1.4101600299808543,-1.57,4.71159,0.0,0.25,97
1753412269.811914,98,401.9866427825384,309.8620153492768,401.9362168637682,309.46527382325144,0.6009681084318841,0.004732636911625704,0.06999999895268191,0.6009681084318841,0.004732636911625704,0.053000000000000005,-0.21822315935789421,-0.8206819731492535,1.4101942768364355,-1.57,4.71159,0.0,0.25,98
1753412269.8316314,99,401.9866427825384,309.8620153492768,401.9614463617195,309.6636439531646,0.6009807231808597,0.004831821976582301,0.06999999945357163,0.6009807231808597,0.004831821976582301,0.053000000000000005,-0.2180614137538989,-0.8207001000901726,1.410228523692017,-1.57,4.71159,0.0,0.25,99
1753412269.8519216,100,401.9866427825384,309.8620153492768,401.9866427825386,309.86201534927676,0.6009933213912693,0.004931007674638388,0.0699999999999999,0.6009933213912693,0.004931007674638388,0.053000000000000005,-0.21789966814990358,-0.8207182270310917,1.4102627705475983,-1.57,4.71159,0.0,0.25,100
1753412269.8723083,101,401.9866427825384,309.8620153492768,401.9866427825386,309.86201534927676,0.6009933213912693,0.004931007674638388,0.0699999999999999,0.6009933213912693,0.004931007674638388,0.053000000000000005,-0.21789966814990358,-0.8207182270310917,1.4102627705475983,-1.57,4.71159,0.0,0.25,101
1753412269.8920739,102,402.2322153301887,314.8559811204691,401.9866427825386,309.86201534927676,0.6009933213912693,0.004931007674638388,0.0699999999999999,0.6009933213912693,0.004931007674638388,0.053000000000000005,-0.21789966814990358,-0.8207182270310917,1.4102627705475983,-1.57,4.71159,0.0,0.25,102
1753412269.911295,103,402.2322153301887,314.8559811204691,401.9866427825386,309.86201534927676,0.6009933213912693,0.004931007674638388,0.0699999999999999,0.6009933213912693,0.004931007674638388,0.053000000000000005,-0.21789966814990358,-0.8207182270310917,1.4102627705475983,-1.57,4.71159,0.0,0.25,103
1753412269.9313903,104,402.2322153301887,314.8559811204691,401.9866427825386,309.86201534927676,0.6009933213912693,0.004931007674638388,0.0699999999999999,0.6009933213912693,0.004931007674638388,0.053000000000000005,-0.21789966814990358,-0.8207182270310917,1.4102627705475983,-1.57,4.71159,0.0,0.25,104
1753412269.951763,105,402.2322153301887,314.8559811204691,401.9866427825386,309.86201534927676,0.6009933213912693,0.004931007674638388,0.0699999999999999,0.6009933213912693,0.004931007674638388,0.053000000000000005,-0.21789966814990358,-0.8207182270310917,1.4102627705475983,-1.57,4.71159,0.0,0.25,105
1753412269.9739046,106,402.2322153301887,314.8559811204691,401.9866427825386,309.86201534927676,0.6009933213912693,0.004931007674638388,0.0699999999999999,0.6009933213912693,0.004931007674638388,0.053000000000000005,-0.21789966814990358,-0.8207182270310917,1.4102627705475983,-1.57,4.71159,0.0,0.25,106
1753412269.9934502,107,402.2322153301887,314.8559811204691,401.9866427825386,309.86201534927676,0.6009933213912693,0.004931007674638388,0.0699999999999999,0.6009933213912693,0.004931007674638388,0.053000000000000005,-0.21789966814990358,-0.8207182270310917,1.4102627705475983,-1.57,4.71159,0.0,0.25,107
1753412270.011449,108,402.2322153301887,314.8559811204691,401.9866427825386,309.86201534927676,0.6009933213912693,0.004931007674638388,0.0699999999999999,0.6009933213912693,0.004931007674638388,0.053000000000000005,-0.21789966814990358,-0.8207182270310917,1.4102627705475983,-1.57,4.71159,0.0,0.25,108
1753412270.0321498,109,402.2322153301887,314.8559811204691,401.9866427825386,309.86201534927676,0.6009933213912693,0.004931007674638388,0.0699999999999999,0.6009933213912693,0.004931007674638388,0.053000000000000005,-0.21789966814990358,-0.8207182270310917,1.4102627705475983,-1.57,4.71159,0.0,0.25,109
1753412270.0520003,110,402.2322153301887,314.8559811204691,401.9866427825386,309.86201534927676,0.6009933213912693,0.004931007674638388,0.0699999999999999,0.6009933213912693,0.004931007674638388,0.053000000000000005,-0.21789966814990358,-0.8207182270310917,1.4102627705475983,-1.57,4.71159,0.0,0.25,110
1753412270.0713565,111,402.2322153301887,314.8559811204691,401.9866427825386,309.86201534927676,0.6009933213912693,0.004931007674638388,0.0699999999999999,0.6009933213912693,0.004931007674638388,0.053000000000000005,-0.21789966814990358,-0.8207182270310917,1.4102627705475983,-1.57,4.71159,0.0,0.25,111
1753412270.0913117,112,402.2322153301887,314.8559811204691,401.9866427825386,309.86201534927676,0.6009933213912693,0.004931007674638388,0.0699999999999999,0.6009933213912693,0.004931007674638388,0.053000000000000005,-0.21789966814990358,-0.8207182270310917,1.4102627705475983,-1.57,4.71159,0.0,0.25,112
1753412270.1112635,113,402.2322153301887,314.8559811204691,401.9866427825386,309.86201534927676,0.6009933213912693,0.004931007674638388,0.0699999999999999,0.6009933213912693,0.004931007674638388,0.053000000000000005,-0.21789966814990358,-0.8207182270310917,1.4102627705475983,-1.57,4.71159,0.0,0.25,113
1753412270.1318007,114,402.2322153301887,314.8559811204691,401.9866427825386,309.86201534927676,0.6009933213912693,0.004931007674638388,0.0699999999999999,0.6009933213912693,0.004931007674638388,0.053000000000000005,-0.21789966814990358,-0.8207182270310917,1.4102627705475983,-1.57,4.71159,0.0,0.25,114
1753412270.1514928,115,402.2322153301887,314.8559811204691,401.9866427825386,309.86201534927676,0.6009933213912693,0.004931007674638388,0.0699999999999999,0.6009933213912693,0.004931007674638388,0.053000000000000005,-0.21789966814990358,-0.8207182270310917,1.4102627705475983,-1.57,4.71159,0.0,0.25,115
1753412270.171431,116,402.2322153301887,314.8559811204691,401.9866427825386,309.86201534927676,0.6009933213912693,0.004931007674638388,0.0699999999999999,0.6009933213912693,0.004931007674638388,0.053000000000000005,-0.21789966814990358,-0.8207182270310917,1.4102627705475983,-1.57,4.71159,0.0,0.25,116
1753412270.1942694,117,402.2322153301887,314.8559811204691,401.9866427825386,309.86201534927676,0.6009933213912693,0.004931007674638388,0.0699999999999999,0.6009933213912693,0.004931007674638388,0.053000000000000005,-0.21789966814990358,-0.8207182270310917,1.4102627705475983,-1.57,4.71159,0.0,0.25,117
1753412270.2112947,118,402.2322153301887,314.8559811204691,401.9866427825386,309.86201534927676,0.6009933213912693,0.004931007674638388,0.0699999999999999,0.6009933213912693,0.004931007674638388,0.053000000000000005,-0.21789966814990358,-0.8207182270310917,1.4102627705475983,-1.57,4.71159,0.0,0.25,118
1753412270.2316992,119,402.2322153301887,314.8559811204691,401.9866427825386,309.86201534927676,0.6009933213912693,0.004931007674638388,0.0699999999999999,0.6009933213912693,0.004931007674638388,0.053000000000000005,-0.21789966814990358,-0.8207182270310917,1.4102627705475983,-1.57,4.71159,0.0,0.25,119
1753412270.2519915,120,402.2322153301887,314.8559811204691,401.9866427825386,309.86201534927676,0.6009933213912693,0.004931007674638388,0.0699999999999999,0.6009933213912693,0.004931007674638388,0.053000000000000005,-0.21789966814990358,-0.8207182270310917,1.4102627705475983,-1.57,4.71159,0.0,0.25,120
1753412270.2712889,121,402.2322153301887,314.8559811204691,401.9866427825386,309.86201534927676,0.6009933213912693,0.004931007674638388,0.0699999999999999,0.6009933213912693,0.004931007674638388,0.053000000000000005,-0.21789966814990358,-0.8207182270310917,1.4102627705475983,-1.57,4.71159,0.0,0.25,121
1753412270.292802,122,402.2322153301887,314.8559811204691,401.9866427825386,309.86201534927676,0.6009933213912693,0.004931007674638388,0.0699999999999999,0.6009933213912693,0.004931007674638388,0.053000000000000005,-0.21789966814990358,-0.8207182270310917,1.4102627705475983,-1.57,4.71159,0.0,0.25,122
1753412270.3112109,123,402.2322153301887,314.8559811204691,401.9866427825386,309.86201534927676,0.6009933213912693,0.004931007674638388,0.0699999999999999,0.6009933213912693,0.004931007674638388,0.053000000000000005,-0.21789966814990358,-0.8207182270310917,1.4102627705475983,-1.57,4.71159,0.0,0.25,123
1753412270.331374,124,402.2322153301887,314.8559811204691,401.9866427825386,309.86201534927676,0.6009933213912693,0.004931007674638388,0.0699999999999999,0.6009933213912693,0.004931007674638388,0.053000000000000005,-0.21789966814990358,-0.8207182270310917,1.4102627705475983,-1.57,4.71159,0.0,0.25,124
1753412270.351299,125,402.2322153301887,314.8559811204691,401.9866427825386,309.86201534927676,0.6009933213912693,0.004931007674638388,0.0699999999999999,0.6009933213912693,0.004931007674638388,0.053000000000000005,-0.21789966814990358,-0.8207182270310917,1.4102627705475983,-1.57,4.71159,0.0,0.25,125
1753412270.3715131,126,402.2322153301887,314.8559811204691,401.9968774341994,310.06181413227813,0.6009984387170997,0.005030907066139054,0.06999999820108302,0.6009984387170997,0.005030907066139054,0.053000000000000005,-0.21773941106689948,-0.8207511013525414,1.4103248704057914,-1.57,4.71159,0.0,0.25,126
1753412270.3917038,127,402.2322153301887,314.8559811204691,402.0070777632781,310.2616096157248,0.601003538881639,0.005130804807862405,0.06999999655205946,0.601003538881639,0.005130804807862405,0.053000000000000005,-0.2175791539838954,-0.8207839756739911,1.4103869702639844,-1.57,4.71159,0.0,0.25,127
1753412270.4112415,128,402.2322153301887,314.8559811204691,402.0172437710857,310.46140179355535,0.6010086218855428,0.005230700896777685,0.06999999505293117,0.6010086218855428,0.005230700896777685,0.053000000000000005,-0.2174188969008913,-0.8208168499954407,1.4104490701221775,-1.57,4.71159,0.0,0.25,128
1753412270.4320836,129,402.2322153301887,314.8559811204691,402.0273754589357,310.66119065970855,0.6010136877294678,0.005330595329854276,0.06999999370370041,0.6010136877294678,0.005330595329854276,0.053000000000000005,-0.2172586398178872,-0.8208497243168904,1.4105111699803705,-1.57,4.71159,0.0,0.25,129
1753412270.4535427,130,402.2322153301887,314.8559811204691,402.03747282814135,310.8609762081232,0.6010187364140707,0.00543048810406159,0.06999999250436925,0.6010187364140707,0.00543048810406159,0.053000000000000005,-0.21709838273488313,-0.8208825986383401,1.4105732698385636,-1.57,4.71159,0.0,0.25,130
1753412270.4713268,131,402.2322153301887,314.8559811204691,402.0475358800181,311.0607584327388,0.601023767940009,0.0055303792163693966,0.06999999145493996,0.601023767940009,0.0055303792163693966,0.053000000000000005,-0.21693812565187903,-0.8209154729597898,1.4106353696967566,-1.57,4.71159,0.0,0.25,131
1753412270.4914098,132,402.2322153301887,314.8559811204691,402.05756461588226,311.260537327495,0.6010287823079411,0.005630268663747495,0.0699999905554147,0.6010287823079411,0.005630268663747495,0.053000000000000005,-0.21677786856887493,-0.8209483472812394,1.4106974695549495,-1.57,4.71159,0.0,0.25,132
1753412270.5142043,133,402.2322153301887,314.8559811204691,402.06755903705067,311.4603128863319,0.6010337795185253,0.005730156443165962,0.06999998980579547,0.6010337795185253,0.005730156443165962,0.053000000000000005,-0.21661761148587086,-0.8209812216026892,1.4107595694131425,-1.57,4.71159,0.0,0.25,133
1753412270.5318162,134,402.2322153301887,314.8559811204691,402.0775191448419,311.66008510319,0.6010387595724209,0.0058300425515949855,0.0699999892060846,0.6010387595724209,0.0058300425515949855,0.053000000000000005,-0.21645735440286676,-0.8210140959241389,1.4108216692713356,-1.57,4.71159,0.0,0.25,134
1753412270.5513833,135,402.2322153301887,314.8559811204691,402.0874449405752,311.85985397200983,0.6010437224702876,0.005929926986004905,0.06999998875628421,0.6010437224702876,0.005929926986004905,0.053000000000000005,-0.21629709731986266,-0.8210469702455886,1.4108837691295286,-1.57,4.71159,0.0,0.25,135
1753412270.5712433,136,402.2322153301887,314.8559811204691,402.0973364255714,312.0596194867325,0.6010486682127857,0.0060298097433662545,0.06999998845639649,0.6010486682127857,0.0060298097433662545,0.053000000000000005,-0.21613684023685859,-0.8210798445670382,1.4109458689877217,-1.57,4.71159,0.0,0.25,136
1753412270.5922487,137,402.2322153301887,314.8559811204691,402.1071936011516,312.25938164129957,0.6010535968005758,0.006129690820649791,0.06999998830642346,0.6010535968005758,0.006129690820649791,0.053000000000000005,-0.21597658315385448,-0.8211127188884879,1.4110079688459147,-1.57,4.71159,0.0,0.25,137
1753412270.6118183,138,402.2322153301887,314.8559811204691,402.11701646863906,312.45914042965273,0.6010585082343195,0.006229570214826355,0.0699999883063673,0.6010585082343195,0.006229570214826355,0.053000000000000005,-0.21581632607085038,-0.8211455932099376,1.4110700687041078,-1.57,4.71159,0.0,0.25,138
1753412270.632544,139,402.2322153301887,314.8559811204691,402.126805029357,312.65889584573404,0.6010634025146785,0.006329447922867007,0.06999998845623032,0.6010634025146785,0.006329447922867007,0.053000000000000005,-0.21565606898784628,-0.8211784675313873,1.4111321685623008,-1.57,4.71159,0.0,0.25,139
1753412270.6516645,140,402.2322153301887,314.8559811204691,402.13655928463095,312.8586478834859,0.6010682796423155,0.006429323941742948,0.06999998875601463,0.6010682796423155,0.006429323941742948,0.053000000000000005,-0.2154958119048422,-0.821211341852837,1.411194268420494,-1.57,4.71159,0.0,0.25,140
1753412270.6762242,141,402.2322153301887,314.8559811204691,402.14627923578627,313.0583965368512,0.6010731396178931,0.006529198268425615,0.06999998920572226,0.6010731396178931,0.006529198268425615,0.053000000000000005,-0.2153355548218381,-0.8212442161742867,1.411256368278687,-1.57,4.71159,0.0,0.25,141
1753412270.6916938,142,402.2322153301887,314.8559811204691,402.1559648841507,313.25814179977294,0.6010779824420753,0.006629070899886472,0.06999998980535552,0.6010779824420753,0.006629070899886472,0.053000000000000005,-0.215175297738834,-0.8212770904957364,1.41131846813688,-1.57,4.71159,0.0,0.25,142
1753412270.7116213,143,402.2322153301887,314.8559811204691,402.16561623105173,313.45788366619473,0.6010828081155258,0.006728941833097357,0.06999999055491643,0.6010828081155258,0.006728941833097357,0.053000000000000005,-0.21501504065582994,-0.8213099648171861,1.411380567995073,-1.57,4.71159,0.0,0.25,143
1753412270.731424,144,402.2322153301887,314.8559811204691,402.1752332778193,313.6576221300602,0.6010876166389096,0.006828811065030083,0.06999999145440719,0.6010876166389096,0.006828811065030083,0.053000000000000005,-0.21485478357282584,-0.8213428391386357,1.4114426678532659,-1.57,4.71159,0.0,0.25,144
1753412270.7513325,145,402.2322153301887,314.8559811204691,402.1848160257831,313.8573571853137,0.6010924080128915,0.006928678592656834,0.06999999250382999,0.6010924080128915,0.006928678592656834,0.053000000000000005,-0.21469452648982174,-0.8213757134600854,1.411504767711459,-1.57,4.71159,0.0,0.25,145
1753412270.7733192,146,402.2322153301887,314.8559811204691,402.194364476275,314.05708882589954,0.6010971822381375,0.007028544412949769,0.06999999370318702,0.6010971822381375,0.007028544412949769,0.053000000000000005,-0.21453426940681766,-0.8214085877815351,1.411566867569652,-1.57,4.71159,0.0,0.25,146
1753412270.7920983,147,402.2322153301887,314.8559811204691,402.2038786306271,314.25681704576266,0.6011019393153135,0.007128408522881324,0.06999999505248033,0.6011019393153135,0.007128408522881324,0.053000000000000005,-0.21437401232381356,-0.8214414621029849,1.411628967427845,-1.57,4.71159,0.0,0.25,147
1753412270.8120627,148,402.2322153301887,314.8559811204691,402.2133584901738,314.45654183884824,0.6011066792450869,0.007228270919424115,0.06999999655171221,0.6011066792450869,0.007228270919424115,0.053000000000000005,-0.21421375524080946,-0.8214743364244345,1.411691067286038,-1.57,4.71159,0.0,0.25,148
1753412270.8345227,149,402.2322153301887,314.8559811204691,402.22280405624906,314.65626319910166,0.6011114020281245,0.007328131599550841,0.0699999982008847,0.6011114020281245,0.007328131599550841,0.053000000000000005,-0.2140534981578054,-0.8215072107458842,1.4117531671442312,-1.57,4.71159,0.0,0.25,149
1753412270.8518348,150,402.2322153301887,314.8559811204691,402.23221533018926,314.8559811204691,0.6011161076650946,0.007427990560234535,0.06999999999999998,0.6011161076650946,0.007427990560234535,0.053000000000000005,-0.2138932410748013,-0.8215400850673339,1.4118152670024242,-1.57,4.71159,0.0,0.25,150
1753412270.8720312,151,402.2322153301887,314.8559811204691,402.23221533018926,314.8559811204691,0.6011161076650946,0.007427990560234535,0.06999999999999998,0.6011161076650946,0.007427990560234535,0.053000000000000005,-0.2138932410748013,-0.8215400850673339,1.4118152670024242,-1.57,4.71159,0.0,0.25,151
1753412270.8922648,152,402.17287974142636,319.85562903686343,402.23221533018926,314.8559811204691,0.6011161076650946,0.007427990560234535,0.06999999999999998,0.6011161076650946,0.007427990560234535,0.053000000000000005,-0.2138932410748013,-0.8215400850673339,1.4118152670024242,-1.57,4.71159,0.0,0.25,152
1753412270.9113705,153,402.17287974142636,319.85562903686343,402.23221533018926,314.8559811204691,0.6011161076650946,0.007427990560234535,0.06999999999999998,0.6011161076650946,0.007427990560234535,0.053000000000000005,-0.2138932410748013,-0.8215400850673339,1.4118152670024242,-1.57,4.71159,0.0,0.25,153
1753412270.9327075,154,402.17287974142636,319.85562903686343,402.23221533018926,314.8559811204691,0.6011161076650946,0.007427990560234535,0.06999999999999998,0.6011161076650946,0.007427990560234535,0.053000000000000005,-0.2138932410748013,-0.8215400850673339,1.4118152670024242,-1.57,4.71159,0.0,0.25,154
1753412270.9515321,155,402.17287974142636,319.85562903686343,402.23221533018926,314.8559811204691,0.6011161076650946,0.007427990560234535,0.06999999999999998,0.6011161076650946,0.007427990560234535,0.053000000000000005,-0.2138932410748013,-0.8215400850673339,1.4118152670024242,-1.57,4.71159,0.0,0.25,155
1753412270.9729044,156,402.17287974142636,319.85562903686343,402.23221533018926,314.8559811204691,0.6011161076650946,0.007427990560234535,0.06999999999999998,0.6011161076650946,0.007427990560234535,0.053000000000000005,-0.2138932410748013,-0.8215400850673339,1.4118152670024242,-1.57,4.71159,0.0,0.25,156
1753412270.9944491,157,402.17287974142636,319.85562903686343,402.23221533018926,314.8559811204691,0.6011161076650946,0.007427990560234535,0.06999999999999998,0.6011161076650946,0.007427990560234535,0.053000000000000005,-0.2138932410748013,-0.8215400850673339,1.4118152670024242,-1.57,4.71159,0.0,0.25,157
1753412271.0117872,158,402.17287974142636,319.85562903686343,402.23221533018926,314.8559811204691,0.6011161076650946,0.007427990560234535,0.06999999999999998,0.6011161076650946,0.007427990560234535,0.053000000000000005,-0.2138932410748013,-0.8215400850673339,1.4118152670024242,-1.57,4.71159,0.0,0.25,158
1753412271.0317729,159,402.17287974142636,319.85562903686343,402.23221533018926,314.8559811204691,0.6011161076650946,0.007427990560234535,0.06999999999999998,0.6011161076650946,0.007427990560234535,0.053000000000000005,-0.2138932410748013,-0.8215400850673339,1.4118152670024242,-1.57,4.71159,0.0,0.25,159
1753412271.0514603,160,402.17287974142636,319.85562903686343,402.23221533018926,314.8559811204691,0.6011161076650946,0.007427990560234535,0.06999999999999998,0.6011161076650946,0.007427990560234535,0.053000000000000005,-0.2138932410748013,-0.8215400850673339,1.4118152670024242,-1.57,4.71159,0.0,0.25,160
1753412271.0718029,161,402.17287974142636,319.85562903686343,402.23221533018926,314.8559811204691,0.6011161076650946,0.007427990560234535,0.06999999999999998,0.6011161076650946,0.007427990560234535,0.053000000000000005,-0.2138932410748013,-0.8215400850673339,1.4118152670024242,-1.57,4.71159,0.0,0.25,161
1753412271.0932322,162,402.17287974142636,319.85562903686343,402.23221533018926,314.8559811204691,0.6011161076650946,0.007427990560234535,0.06999999999999998,0.6011161076650946,0.007427990560234535,0.053000000000000005,-0.2138932410748013,-0.8215400850673339,1.4118152670024242,-1.57,4.71159,0.0,0.25,162
1753412271.1120734,163,402.17287974142636,319.85562903686343,402.23221533018926,314.8559811204691,0.6011161076650946,0.007427990560234535,0.06999999999999998,0.6011161076650946,0.007427990560234535,0.053000000000000005,-0.2138932410748013,-0.8215400850673339,1.4118152670024242,-1.57,4.71159,0.0,0.25,163
1753412271.1322744,164,402.17287974142636,319.85562903686343,402.23221533018926,314.8559811204691,0.6011161076650946,0.007427990560234535,0.06999999999999998,0.6011161076650946,0.007427990560234535,0.053000000000000005,-0.2138932410748013,-0.8215400850673339,1.4118152670024242,-1.57,4.71159,0.0,0.25,164
1753412271.1513262,165,402.17287974142636,319.85562903686343,402.23221533018926,314.8559811204691,0.6011161076650946,0.007427990560234535,0.06999999999999998,0.6011161076650946,0.007427990560234535,0.053000000000000005,-0.2138932410748013,-0.8215400850673339,1.4118152670024242,-1.57,4.71159,0.0,0.25,165
1753412271.171931,166,402.17287974142636,319.85562903686343,402.23221533018926,314.8559811204691,0.6011161076650946,0.007427990560234535,0.06999999999999998,0.6011161076650946,0.007427990560234535,0.053000000000000005,-0.2138932410748013,-0.8215400850673339,1.4118152670024242,-1.57,4.71159,0.0,0.25,166
1753412271.191566,167,402.17287974142636,319.85562903686343,402.23221533018926,314.8559811204691,0.6011161076650946,0.007427990560234535,0.06999999999999998,0.6011161076650946,0.007427990560234535,0.053000000000000005,-0.2138932410748013,-0.8215400850673339,1.4118152670024242,-1.57,4.71159,0.0,0.25,167
1753412271.2117646,168,402.17287974142636,319.85562903686343,402.23221533018926,314.8559811204691,0.6011161076650946,0.007427990560234535,0.06999999999999998,0.6011161076650946,0.007427990560234535,0.053000000000000005,-0.2138932410748013,-0.8215400850673339,1.4118152670024242,-1.57,4.71159,0.0,0.25,168
1753412271.2316728,169,402.17287974142636,319.85562903686343,402.23221533018926,314.8559811204691,0.6011161076650946,0.007427990560234535,0.06999999999999998,0.6011161076650946,0.007427990560234535,0.053000000000000005,-0.2138932410748013,-0.8215400850673339,1.4118152670024242,-1.57,4.71159,0.0,0.25,169
1753412271.253605,170,402.17287974142636,319.85562903686343,402.23221533018926,314.8559811204691,0.6011161076650946,0.007427990560234535,0.06999999999999998,0.6011161076650946,0.007427990560234535,0.053000000000000005,-0.2138932410748013,-0.8215400850673339,1.4118152670024242,-1.57,4.71159,0.0,0.25,170
1753412271.2720482,171,402.17287974142636,319.85562903686343,402.23221533018926,314.8559811204691,0.6011161076650946,0.007427990560234535,0.06999999999999998,0.6011161076650946,0.007427990560234535,0.053000000000000005,-0.2138932410748013,-0.8215400850673339,1.4118152670024242,-1.57,4.71159,0.0,0.25,171
1753412271.2923143,172,402.17287974142636,319.85562903686343,402.23221533018926,314.8559811204691,0.6011161076650946,0.007427990560234535,0.06999999999999998,0.6011161076650946,0.007427990560234535,0.053000000000000005,-0.2138932410748013,-0.8215400850673339,1.4118152670024242,-1.57,4.71159,0.0,0.25,172
1753412271.3176637,173,402.17287974142636,319.85562903686343,402.23221533018926,314.8559811204691,0.6011161076650946,0.007427990560234535,0.06999999999999998,0.6011161076650946,0.007427990560234535,0.053000000000000005,-0.2138932410748013,-0.8215400850673339,1.4118152670024242,-1.57,4.71159,0.0,0.25,173
1753412271.3317733,174,402.17287974142636,319.85562903686343,402.23221533018926,314.8559811204691,0.6011161076650946,0.007427990560234535,0.06999999999999998,0.6011161076650946,0.007427990560234535,0.053000000000000005,-0.2138932410748013,-0.8215400850673339,1.4118152670024242,-1.57,4.71159,0.0,0.25,174
1753412271.35202,175,402.17287974142636,319.85562903686343,402.23221533018926,314.8559811204691,0.6011161076650946,0.007427990560234535,0.06999999999999998,0.6011161076650946,0.007427990560234535,0.053000000000000005,-0.2138932410748013,-0.8215400850673339,1.4118152670024242,-1.57,4.71159,0.0,0.25,175
1753412271.3712957,176,402.17287974142636,319.85562903686343,402.23026506361435,315.0560485091493,0.6011151325318072,0.007528024254574647,0.06999999678528573,0.6011151325318072,0.007528024254574647,0.053000000000000005,-0.21373465664279595,-0.8215839974439031,1.411898199866588,-1.57,4.71159,0.0,0.25,176
1753412271.391509,177,402.17287974142636,319.85562903686343,402.2282795178477,315.2561091583151,0.6011141397589238,0.007628054579157537,0.06999999383842492,0.6011141397589238,0.007628054579157537,0.053000000000000005,-0.21357607221079059,-0.8216279098204723,1.411981132730752,-1.57,4.71159,0.0,0.25,177
1753412271.4118338,178,402.17287974142636,319.85562903686343,402.2262586949833,315.456163061465,0.6011131293474916,0.007728081530732511,0.06999999115942246,0.6011131293474916,0.007728081530732511,0.053000000000000005,-0.21341748777878525,-0.8216718221970415,1.412064065594916,-1.57,4.71159,0.0,0.25,178
1753412271.4317317,179,402.17287974142636,319.85562903686343,402.2242025971171,315.65621021209864,0.6011121012985585,0.007828105106049324,0.06999998874828359,0.6011121012985585,0.007828105106049324,0.053000000000000005,-0.2132589033467799,-0.8217157345736107,1.4121469984590798,-1.57,4.71159,0.0,0.25,179
1753412271.451746,180,402.17287974142636,319.85562903686343,402.2221112263465,315.8562506037157,0.6011110556131732,0.007928125301857838,0.06999998660501358,0.6011110556131732,0.007928125301857838,0.053000000000000005,-0.21310031891477454,-0.82175964695018,1.4122299313232438,-1.57,4.71159,0.0,0.25,180
1753412271.472056,181,402.17287974142636,319.85562903686343,402.2199845847697,316.0562842298165,0.6011099922923848,0.008028142114908265,0.06999998472961752,0.6011099922923848,0.008028142114908265,0.053000000000000005,-0.2129417344827692,-0.8218035593267492,1.4123128641874076,-1.57,4.71159,0.0,0.25,181
1753412271.4918163,182,402.17287974142636,319.85562903686343,402.217822674486,316.25631108390206,0.601108911337243,0.008128155541951038,0.06999998312210057,0.601108911337243,0.008128155541951038,0.053000000000000005,-0.21278315005076384,-0.8218474717033184,1.4123957970515715,-1.57,4.71159,0.0,0.25,182
1753412271.5116196,183,402.17287974142636,319.85562903686343,402.2156254975965,316.4563311594737,0.6011078127487982,0.008228165579736851,0.06999998178246794,0.6011078127487982,0.008228165579736851,0.053000000000000005,-0.2126245656187585,-0.8218913840798876,1.4124787299157355,-1.57,4.71159,0.0,0.25,183
1753412271.5316179,184,402.17287974142636,319.85562903686343,402.2133930562032,316.6563444500333,0.6011066965281016,0.008328172225016653,0.06999998071072469,0.6011066965281016,0.008328172225016653,0.053000000000000005,-0.21246598118675317,-0.8219352964564568,1.4125616627798994,-1.57,4.71159,0.0,0.25,184
1753412271.5512252,185,402.17287974142636,319.85562903686343,402.21112535240906,316.85635094908326,0.6011055626762045,0.008428175474541624,0.06999997990687593,0.6011055626762045,0.008428175474541624,0.053000000000000005,-0.2123073967547478,-0.821979208833026,1.4126445956440632,-1.57,4.71159,0.0,0.25,185
1753412271.5763953,186,402.17287974142636,319.85562903686343,402.208822388319,317.0563506501265,0.6011044111941595,0.00852817532506324,0.06999997937092706,0.6011044111941595,0.00852817532506324,0.053000000000000005,-0.21214881232274246,-0.8220231212095952,1.4127275285082272,-1.57,4.71159,0.0,0.25,186
1753412271.5914087,187,402.17287974142636,319.85562903686343,402.20648416603854,317.2563435466663,0.6011032420830192,0.008628171773333151,0.069999979102883,0.6011032420830192,0.008628171773333151,0.053000000000000005,-0.21199022789073713,-0.8220670335861644,1.412810461372391,-1.57,4.71159,0.0,0.25,187
1753412271.6118183,188,402.17287974142636,319.85562903686343,402.2041106876747,317.45632963220686,0.6011020553438373,0.008728164816103418,0.06999997910274894,0.6011020553438373,0.008728164816103418,0.053000000000000005,-0.21183164345873176,-0.8221109459627337,1.412893394236555,-1.57,4.71159,0.0,0.25,188
1753412271.6347225,189,402.17287974142636,319.85562903686343,402.20170195533575,317.65630890025227,0.6011008509776679,0.00882815445012615,0.06999997937053012,0.6011008509776679,0.00882815445012615,0.053000000000000005,-0.21167305902672642,-0.8221548583393029,1.4129763271007187,-1.57,4.71159,0.0,0.25,189
1753412271.6515503,190,402.17287974142636,319.85562903686343,402.199257971131,317.8562813443078,0.6010996289855655,0.00892814067215389,0.06999997990623175,0.6010996289855655,0.00892814067215389,0.053000000000000005,-0.21151447459472109,-0.8221987707158721,1.4130592599648828,-1.57,4.71159,0.0,0.25,190
1753412271.6718736,191,402.17287974142636,319.85562903686343,402.19677873717126,318.05624695787867,0.6010983893685856,0.009028123478939346,0.06999998070985877,0.6010983893685856,0.009028123478939346,0.053000000000000005,-0.21135589016271572,-0.8222426830924413,1.4131421928290466,-1.57,4.71159,0.0,0.25,191
1753412271.6929545,192,402.17287974142636,319.85562903686343,402.1942642555681,318.25620573447094,0.601097132127784,0.009128102867235463,0.06999998178141648,0.601097132127784,0.009128102867235463,0.053000000000000005,-0.21119730573071038,-0.8222865954690105,1.4132251256932105,-1.57,4.71159,0.0,0.25,192
1753412271.7122345,193,402.17287974142636,319.85562903686343,402.1917145284351,318.45615766759107,0.6010958572642175,0.009228078833795547,0.06999998312091002,0.6010958572642175,0.009228078833795547,0.053000000000000005,-0.21103872129870505,-0.8223305078455797,1.4133080585573745,-1.57,4.71159,0.0,0.25,193
1753412271.7319174,194,402.17287974142636,319.85562903686343,402.1891295578864,318.65610275074613,0.6010945647789432,0.009328051375373056,0.06999998472834448,0.6010945647789432,0.009328051375373056,0.053000000000000005,-0.21088013686669968,-0.8223744202221489,1.4133909914215383,-1.57,4.71159,0.0,0.25,194
1753412271.7514906,195,402.17287974142636,319.85562903686343,402.18650934603784,318.8560409774434,0.6010932546730189,0.009428020488721711,0.06999998660372506,0.6010932546730189,0.009428020488721711,0.053000000000000005,-0.21072155243469434,-0.8224183325987181,1.4134739242857022,-1.57,4.71159,0.0,0.25,195
1753412271.7716122,196,402.17287974142636,319.85562903686343,402.1838538950061,319.05597234119114,0.601091926947503,0.009527986170595554,0.06999998874705696,0.601091926947503,0.009527986170595554,0.053000000000000005,-0.21056296800268898,-0.8224622449752874,1.4135568571498662,-1.57,4.71159,0.0,0.25,196
1753412271.797074,197,402.17287974142636,319.85562903686343,402.1811632069091,319.25589683549765,0.6010905816034545,0.009627948417748819,0.06999999115834515,0.6010905816034545,0.009627948417748819,0.053000000000000005,-0.21040438357068364,-0.8225061573518566,1.41363979001403,-1.57,4.71159,0.0,0.25,197
1753412271.8116605,198,402.17287974142636,319.85562903686343,402.17843728386646,319.45581445387205,0.6010892186419332,0.009727907226936033,0.06999999383759495,0.6010892186419332,0.009727907226936033,0.053000000000000005,-0.2102457991386783,-0.8225500697284258,1.413722722878194,-1.57,4.71159,0.0,0.25,198
1753412271.8322005,199,402.17287974142636,319.85562903686343,402.1756761279981,319.655725189824,0.601087838063999,0.009827862594912001,0.06999999678481156,0.601087838063999,0.009827862594912001,0.053000000000000005,-0.21008721470667294,-0.822593982104995,1.413805655742358,-1.57,4.71159,0.0,0.25,199
1753412271.8517678,200,402.17287974142636,319.85562903686343,402.1728797414264,319.85562903686343,0.6010864398707132,0.009927814518431707,0.06999999999999992,0.6010864398707132,0.009927814518431707,0.053000000000000005,-0.2099286302746676,-0.8226378944815642,1.4138885886065218,-1.57,4.71159,0.0,0.25,200
1753412271.8714507,201,402.17287974142636,319.85562903686343,402.1728797414264,319.85562903686343,0.6010864398707132,0.009927814518431707,0.06999999999999992,0.6010864398707132,0.009927814518431707,0.053000000000000005,-0.2099286302746676,-0.8226378944815642,1.4138885886065218,-1.57,4.71159,0.0,0.25,201
1753412271.89246,202,401.84719557076926,324.84501074414777,402.1728797414264,319.85562903686343,0.6010864398707132,0.009927814518431707,0.06999999999999992,0.6010864398707132,0.009927814518431707,0.053000000000000005,-0.2099286302746676,-0.8226378944815642,1.4138885886065218,-1.57,4.71159,0.0,0.25,202
1753412271.912387,203,401.84719557076926,324.84501074414777,402.1728797414264,319.85562903686343,0.6010864398707132,0.009927814518431707,0.06999999999999992,0.6010864398707132,0.009927814518431707,0.053000000000000005,-0.2099286302746676,-0.8226378944815642,1.4138885886065218,-1.57,4.71159,0.0,0.25,203
1753412271.9322197,204,401.84719557076926,324.84501074414777,402.1728797414264,319.85562903686343,0.6010864398707132,0.009927814518431707,0.06999999999999992,0.6010864398707132,0.009927814518431707,0.053000000000000005,-0.2099286302746676,-0.8226378944815642,1.4138885886065218,-1.57,4.71159,0.0,0.25,204
1753412271.954312,205,401.84719557076926,324.84501074414777,402.1728797414264,319.85562903686343,0.6010864398707132,0.009927814518431707,0.06999999999999992,0.6010864398707132,0.009927814518431707,0.053000000000000005,-0.2099286302746676,-0.8226378944815642,1.4138885886065218,-1.57,4.71159,0.0,0.25,205
1753412271.9715037,206,401.84719557076926,324.84501074414777,402.1728797414264,319.85562903686343,0.6010864398707132,0.009927814518431707,0.06999999999999992,0.6010864398707132,0.009927814518431707,0.053000000000000005,-0.2099286302746676,-0.8226378944815642,1.4138885886065218,-1.57,4.71159,0.0,0.25,206
1753412271.9919913,207,401.84719557076926,324.84501074414777,402.1728797414264,319.85562903686343,0.6010864398707132,0.009927814518431707,0.06999999999999992,0.6010864398707132,0.009927814518431707,0.053000000000000005,-0.2099286302746676,-0.8226378944815642,1.4138885886065218,-1.57,4.71159,0.0,0.25,207
1753412272.0127254,208,401.84719557076926,324.84501074414777,402.1728797414264,319.85562903686343,0.6010864398707132,0.009927814518431707,0.06999999999999992,0.6010864398707132,0.009927814518431707,0.053000000000000005,-0.2099286302746676,-0.8226378944815642,1.4138885886065218,-1.57,4.71159,0.0,0.25,208
1753412272.0319562,209,401.84719557076926,324.84501074414777,402.1728797414264,319.85562903686343,0.6010864398707132,0.009927814518431707,0.06999999999999992,0.6010864398707132,0.009927814518431707,0.053000000000000005,-0.2099286302746676,-0.8226378944815642,1.4138885886065218,-1.57,4.71159,0.0,0.25,209
1753412272.0535243,210,401.84719557076926,324.84501074414777,402.1728797414264,319.85562903686343,0.6010864398707132,0.009927814518431707,0.06999999999999992,0.6010864398707132,0.009927814518431707,0.053000000000000005,-0.2099286302746676,-0.8226378944815642,1.4138885886065218,-1.57,4.71159,0.0,0.25,210
1753412272.071508,211,401.84719557076926,324.84501074414777,402.1728797414264,319.85562903686343,0.6010864398707132,0.009927814518431707,0.06999999999999992,0.6010864398707132,0.009927814518431707,0.053000000000000005,-0.2099286302746676,-0.8226378944815642,1.4138885886065218,-1.57,4.71159,0.0,0.25,211
1753412272.092159,212,401.84719557076926,324.84501074414777,402.1728797414264,319.85562903686343,0.6010864398707132,0.009927814518431707,0.06999999999999992,0.6010864398707132,0.009927814518431707,0.053000000000000005,-0.2099286302746676,-0.8226378944815642,1.4138885886065218,-1.57,4.71159,0.0,0.25,212
1753412272.111805,213,401.84719557076926,324.84501074414777,402.1728797414264,319.85562903686343,0.6010864398707132,0.009927814518431707,0.06999999999999992,0.6010864398707132,0.009927814518431707,0.053000000000000005,-0.2099286302746676,-0.8226378944815642,1.4138885886065218,-1.57,4.71159,0.0,0.25,213
1753412272.132311,214,401.84719557076926,324.84501074414777,402.1728797414264,319.85562903686343,0.6010864398707132,0.009927814518431707,0.06999999999999992,0.6010864398707132,0.009927814518431707,0.053000000000000005,-0.2099286302746676,-0.8226378944815642,1.4138885886065218,-1.57,4.71159,0.0,0.25,214
1753412272.1521568,215,401.84719557076926,324.84501074414777,402.1728797414264,319.85562903686343,0.6010864398707132,0.009927814518431707,0.06999999999999992,0.6010864398707132,0.009927814518431707,0.053000000000000005,-0.2099286302746676,-0.8226378944815642,1.4138885886065218,-1.57,4.71159,0.0,0.25,215
1753412272.171588,216,401.84719557076926,324.84501074414777,402.1728797414264,319.85562903686343,0.6010864398707132,0.009927814518431707,0.06999999999999992,0.6010864398707132,0.009927814518431707,0.053000000000000005,-0.2099286302746676,-0.8226378944815642,1.4138885886065218,-1.57,4.71159,0.0,0.25,216
1753412272.1913228,217,401.84719557076926,324.84501074414777,402.1728797414264,319.85562903686343,0.6010864398707132,0.009927814518431707,0.06999999999999992,0.6010864398707132,0.009927814518431707,0.053000000000000005,-0.2099286302746676,-0.8226378944815642,1.4138885886065218,-1.57,4.71159,0.0,0.25,217
1753412272.214624,218,401.84719557076926,324.84501074414777,402.1728797414264,319.85562903686343,0.6010864398707132,0.009927814518431707,0.06999999999999992,0.6010864398707132,0.009927814518431707,0.053000000000000005,-0.2099286302746676,-0.8226378944815642,1.4138885886065218,-1.57,4.71159,0.0,0.25,218
1753412272.2318885,219,401.84719557076926,324.84501074414777,402.1728797414264,319.85562903686343,0.6010864398707132,0.009927814518431707,0.06999999999999992,0.6010864398707132,0.009927814518431707,0.053000000000000005,-0.2099286302746676,-0.8226378944815642,1.4138885886065218,-1.57,4.71159,0.0,0.25,219
1753412272.251533,220,401.84719557076926,324.84501074414777,402.1728797414264,319.85562903686343,0.6010864398707132,0.009927814518431707,0.06999999999999992,0.6010864398707132,0.009927814518431707,0.053000000000000005,-0.2099286302746676,-0.8226378944815642,1.4138885886065218,-1.57,4.71159,0.0,0.25,220
1753412272.2743313,221,401.84719557076926,324.84501074414777,402.1728797414264,319.85562903686343,0.6010864398707132,0.009927814518431707,0.06999999999999992,0.6010864398707132,0.009927814518431707,0.053000000000000005,-0.2099286302746676,-0.8226378944815642,1.4138885886065218,-1.57,4.71159,0.0,0.25,221
1753412272.2914412,222,401.84719557076926,324.84501074414777,402.1728797414264,319.85562903686343,0.6010864398707132,0.009927814518431707,0.06999999999999992,0.6010864398707132,0.009927814518431707,0.053000000000000005,-0.2099286302746676,-0.8226378944815642,1.4138885886065218,-1.57,4.71159,0.0,0.25,222
1753412272.3113503,223,401.84719557076926,324.84501074414777,402.1728797414264,319.85562903686343,0.6010864398707132,0.009927814518431707,0.06999999999999992,0.6010864398707132,0.009927814518431707,0.053000000000000005,-0.2099286302746676,-0.8226378944815642,1.4138885886065218,-1.57,4.71159,0.0,0.25,223
1753412272.3354657,224,401.84719557076926,324.84501074414777,402.1728797414264,319.85562903686343,0.6010864398707132,0.009927814518431707,0.06999999999999992,0.6010864398707132,0.009927814518431707,0.053000000000000005,-0.2099286302746676,-0.8226378944815642,1.4138885886065218,-1.57,4.71159,0.0,0.25,224
1753412272.35148,225,401.84719557076926,324.84501074414777,402.1728797414264,319.85562903686343,0.6010864398707132,0.009927814518431707,0.06999999999999992,0.6010864398707132,0.009927814518431707,0.053000000000000005,-0.2099286302746676,-0.8226378944815642,1.4138885886065218,-1.57,4.71159,0.0,0.25,225
1753412272.3738365,226,401.84719557076926,324.84501074414777,402.16028532160294,320.05532011895156,0.6010801426608015,0.01002766005947578,0.06999999525039144,0.6010801426608015,0.01002766005947578,0.053000000000000005,-0.20977186368225378,-0.8226912178475397,1.4139892673566827,-1.57,4.71159,0.0,0.25,226
1753412272.3930268,227,401.84719557076926,324.84501074414777,402.14765480182444,320.2550016028852,0.6010738274009122,0.010127500801442618,0.06999999089651274,0.6010738274009122,0.010127500801442618,0.053000000000000005,-0.20961509708983997,-0.8227445412135151,1.4140899461068437,-1.57,4.71159,0.0,0.25,227
1753412272.4118884,228,401.84719557076926,324.84501074414777,402.1349881848278,320.45467348174844,0.6010674940924139,0.010227336740874227,0.06999998693837287,0.6010674940924139,0.010227336740874227,0.053000000000000005,-0.20945833049742618,-0.8227978645794907,1.4141906248570046,-1.57,4.71159,0.0,0.25,228
1753412272.434643,229,401.84719557076926,324.84501074414777,402.1222854733505,320.6543357486259,0.6010611427366752,0.01032716787431294,0.06999998337598118,0.6010611427366752,0.01032716787431294,0.053000000000000005,-0.20930156390501237,-0.8228511879454662,1.4142913036071656,-1.57,4.71159,0.0,0.25,229
1753412272.4521458,230,401.84719557076926,324.84501074414777,402.10954667013243,320.8539883966028,0.6010547733350662,0.010426994198301398,0.06999998020934714,0.6010547733350662,0.010426994198301398,0.053000000000000005,-0.20914479731259855,-0.8229045113114416,1.4143919823573265,-1.57,4.71159,0.0,0.25,230
1753412272.471275,231,401.84719557076926,324.84501074414777,402.09677177791366,321.0536314187652,0.6010483858889568,0.01052681570938259,0.06999997743847974,0.6010483858889568,0.01052681570938259,0.053000000000000005,-0.20898803072018474,-0.8229578346774171,1.4144926611074875,-1.57,4.71159,0.0,0.25,231
1753412272.4922178,232,401.84719557076926,324.84501074414777,402.0839607994365,321.2532648081995,0.6010419803997182,0.010626632404099765,0.06999997506338843,0.6010419803997182,0.010626632404099765,0.053000000000000005,-0.20883126412777095,-0.8230111580433925,1.4145933398576485,-1.57,4.71159,0.0,0.25,232
1753412272.511711,233,401.84719557076926,324.84501074414777,402.07111373744453,321.4528885579932,0.6010355568687222,0.010726444278996619,0.06999997308408235,0.6010355568687222,0.010726444278996619,0.053000000000000005,-0.20867449753535713,-0.823064481409368,1.4146940186078094,-1.57,4.71159,0.0,0.25,233
1753412272.5339715,234,401.84719557076926,324.84501074414777,402.0582305946819,321.65250266123417,0.6010291152973409,0.010826251330617084,0.06999997150057083,0.6010291152973409,0.010826251330617084,0.053000000000000005,-0.20851773094294332,-0.8231178047753436,1.4147946973579704,-1.57,4.71159,0.0,0.25,234
1753412272.5531006,235,401.84719557076926,324.84501074414777,402.0453113738952,321.85210711101075,0.6010226556869476,0.010926053555505369,0.06999997031286317,0.6010226556869476,0.010926053555505369,0.053000000000000005,-0.2083609643505295,-0.823171128141319,1.4148953761081313,-1.57,4.71159,0.0,0.25,235
1753412272.5719903,236,401.84719557076926,324.84501074414777,402.03235607783216,322.0517019004123,0.601016178038916,0.01102585095020614,0.06999996952096857,0.601016178038916,0.01102585095020614,0.053000000000000005,-0.20820419775811572,-0.8232244515072945,1.4149960548582923,-1.57,4.71159,0.0,0.25,236
1753412272.5991106,237,401.84719557076926,324.84501074414777,402.019364709241,322.2512870225286,0.6010096823546205,0.011125643511264285,0.06999996912489628,0.6010096823546205,0.011125643511264285,0.053000000000000005,-0.2080474311657019,-0.82327777487327,1.4150967336084532,-1.57,4.71159,0.0,0.25,237
1753412272.61217,238,401.84719557076926,324.84501074414777,402.00633727087273,322.45086247045003,0.6010031686354363,0.011225431235225028,0.06999996912465561,0.6010031686354363,0.011225431235225028,0.053000000000000005,-0.2078906645732881,-0.8233310982392454,1.415197412358614,-1.57,4.71159,0.0,0.25,238
1753412272.6318493,239,401.84719557076926,324.84501074414777,401.9932737654782,322.65042823726804,0.6009966368827391,0.011325214118634033,0.06999996952025575,0.6009966368827391,0.011325214118634033,0.053000000000000005,-0.20773389798087427,-0.823384421605221,1.415298091108775,-1.57,4.71159,0.0,0.25,239
1753412272.6515577,240,401.84719557076926,324.84501074414777,401.980174195811,322.84998431607414,0.6009900870979055,0.011424992158037078,0.06999997031170602,0.6009900870979055,0.011424992158037078,0.053000000000000005,-0.20757713138846048,-0.8234377449711965,1.4153987698589359,-1.57,4.71159,0.0,0.25,240
1753412272.6714861,241,401.84719557076926,324.84501074414777,401.9670385646251,323.049530699961,0.6009835192823125,0.011524765349980495,0.06999997149901574,0.6009835192823125,0.011524765349980495,0.053000000000000005,-0.20742036479604667,-0.8234910683371719,1.4154994486090968,-1.57,4.71159,0.0,0.25,241
1753412272.6959193,242,401.84719557076926,324.84501074414777,401.9538668746768,323.2490673820215,0.6009769334373384,0.011624533691010769,0.06999997308219394,0.6009769334373384,0.011624533691010769,0.053000000000000005,-0.20726359820363285,-0.8235443917031474,1.4156001273592578,-1.57,4.71159,0.0,0.25,242
1753412272.711412,243,401.84719557076926,324.84501074414777,401.94065912872276,323.44859435534954,0.6009703295643614,0.011724297177674772,0.06999997506125005,0.6009703295643614,0.011724297177674772,0.053000000000000005,-0.20710683161121904,-0.8235977150691229,1.4157008061094187,-1.57,4.71159,0.0,0.25,243
1753412272.7325044,244,401.84719557076926,324.84501074414777,401.92741532952124,323.64811161303953,0.6009637076647606,0.011824055806519768,0.06999997743619338,0.6009637076647606,0.011824055806519768,0.053000000000000005,-0.20695006501880525,-0.8236510384350983,1.4158014848595797,-1.57,4.71159,0.0,0.25,244
1753412272.752168,245,401.84719557076926,324.84501074414777,401.9141354798322,323.84761914818637,0.6009570677399161,0.011923809574093197,0.06999998020703296,0.6009570677399161,0.011923809574093197,0.053000000000000005,-0.20679329842639144,-0.8237043618010739,1.4159021636097406,-1.57,4.71159,0.0,0.25,245
1753412272.771998,246,401.84719557076926,324.84501074414777,401.9008195824173,324.04711695388596,0.6009504097912086,0.012023558476942975,0.06999998337377825,0.6009504097912086,0.012023558476942975,0.053000000000000005,-0.20663653183397762,-0.8237576851670493,1.4160028423599016,-1.57,4.71159,0.0,0.25,246
1753412272.7916107,247,401.84719557076926,324.84501074414777,401.88746764003935,324.2466050232345,0.6009437338200196,0.012123302511617251,0.06999998693643827,0.6009437338200196,0.012123302511617251,0.053000000000000005,-0.2064797652415638,-0.8238110085330248,1.4161035211100625,-1.57,4.71159,0.0,0.25,247
1753412272.811576,248,401.84719557076926,324.84501074414777,401.8740796554613,324.4460833493291,0.6009370398277306,0.012223041674664564,0.06999999089502235,0.6009370398277306,0.012223041674664564,0.053000000000000005,-0.20632299864915002,-0.8238643318990003,1.4162041998602235,-1.57,4.71159,0.0,0.25,248
1753412272.8322456,249,401.84719557076926,324.84501074414777,401.8606556314491,324.64555192526745,0.6009303278157245,0.012322775962633717,0.06999999524953993,0.6009303278157245,0.012322775962633717,0.053000000000000005,-0.2061662320567362,-0.8239176552649757,1.4163048786103845,-1.57,4.71159,0.0,0.25,249
1753412272.8536737,250,401.84719557076926,324.84501074414777,401.8471955707693,324.84501074414777,0.6009235977853846,0.012422505372073886,0.06999999999999995,0.6009235977853846,0.012422505372073886,0.053000000000000005,-0.2060094654643224,-0.8239709786309513,1.4164055573605454,-1.57,4.71159,0.0,0.25,250
1753412272.8717492,251,401.84719557076926,324.84501074414777,401.8471955707693,324.84501074414777,0.6009235977853846,0.012422505372073886,0.06999999999999995,0.6009235977853846,0.012422505372073886,0.053000000000000005,-0.2060094654643224,-0.8239709786309513,1.4164055573605454,-1.57,4.71159,0.0,0.25,251
1753412272.8914783,252,401.27135336007,329.8117406289288,401.8471955707693,324.84501074414777,0.6009235977853846,0.012422505372073886,0.06999999999999995,0.6009235977853846,0.012422505372073886,0.053000000000000005,-0.2060094654643224,-0.8239709786309513,1.4164055573605454,-1.57,4.71159,0.0,0.25,252
1753412272.9119427,253,401.27135336007,329.8117406289288,401.8471955707693,324.84501074414777,0.6009235977853846,0.012422505372073886,0.06999999999999995,0.6009235977853846,0.012422505372073886,0.053000000000000005,-0.2060094654643224,-0.8239709786309513,1.4164055573605454,-1.57,4.71159,0.0,0.25,253
1753412272.9326415,254,401.27135336007,329.8117406289288,401.8471955707693,324.84501074414777,0.6009235977853846,0.012422505372073886,0.06999999999999995,0.6009235977853846,0.012422505372073886,0.053000000000000005,-0.2060094654643224,-0.8239709786309513,1.4164055573605454,-1.57,4.71159,0.0,0.25,254
1753412272.9514837,255,401.27135336007,329.8117406289288,401.8471955707693,324.84501074414777,0.6009235977853846,0.012422505372073886,0.06999999999999995,0.6009235977853846,0.012422505372073886,0.053000000000000005,-0.2060094654643224,-0.8239709786309513,1.4164055573605454,-1.57,4.71159,0.0,0.25,255
1753412272.9712832,256,401.27135336007,329.8117406289288,401.8471955707693,324.84501074414777,0.6009235977853846,0.012422505372073886,0.06999999999999995,0.6009235977853846,0.012422505372073886,0.053000000000000005,-0.2060094654643224,-0.8239709786309513,1.4164055573605454,-1.57,4.71159,0.0,0.25,256
1753412272.9913893,257,401.27135336007,329.8117406289288,401.8471955707693,324.84501074414777,0.6009235977853846,0.012422505372073886,0.06999999999999995,0.6009235977853846,0.012422505372073886,0.053000000000000005,-0.2060094654643224,-0.8239709786309513,1.4164055573605454,-1.57,4.71159,0.0,0.25,257
1753412273.0153213,258,401.27135336007,329.8117406289288,401.8471955707693,324.84501074414777,0.6009235977853846,0.012422505372073886,0.06999999999999995,0.6009235977853846,0.012422505372073886,0.053000000000000005,-0.2060094654643224,-0.8239709786309513,1.4164055573605454,-1.57,4.71159,0.0,0.25,258
1753412273.033275,259,401.27135336007,329.8117406289288,401.8471955707693,324.84501074414777,0.6009235977853846,0.012422505372073886,0.06999999999999995,0.6009235977853846,0.012422505372073886,0.053000000000000005,-0.2060094654643224,-0.8239709786309513,1.4164055573605454,-1.57,4.71159,0.0,0.25,259
1753412273.0518382,260,401.27135336007,329.8117406289288,401.8471955707693,324.84501074414777,0.6009235977853846,0.012422505372073886,0.06999999999999995,0.6009235977853846,0.012422505372073886,0.053000000000000005,-0.2060094654643224,-0.8239709786309513,1.4164055573605454,-1.57,4.71159,0.0,0.25,260
1753412273.0733135,261,401.27135336007,329.8117406289288,401.8471955707693,324.84501074414777,0.6009235977853846,0.012422505372073886,0.06999999999999995,0.6009235977853846,0.012422505372073886,0.053000000000000005,-0.2060094654643224,-0.8239709786309513,1.4164055573605454,-1.57,4.71159,0.0,0.25,261
1753412273.0917878,262,401.27135336007,329.8117406289288,401.8471955707693,324.84501074414777,0.6009235977853846,0.012422505372073886,0.06999999999999995,0.6009235977853846,0.012422505372073886,0.053000000000000005,-0.2060094654643224,-0.8239709786309513,1.4164055573605454,-1.57,4.71159,0.0,0.25,262
1753412273.1114228,263,401.27135336007,329.8117406289288,401.8471955707693,324.84501074414777,0.6009235977853846,0.012422505372073886,0.06999999999999995,0.6009235977853846,0.012422505372073886,0.053000000000000005,-0.2060094654643224,-0.8239709786309513,1.4164055573605454,-1.57,4.71159,0.0,0.25,263
1753412273.1340454,264,401.27135336007,329.8117406289288,401.8471955707693,324.84501074414777,0.6009235977853846,0.012422505372073886,0.06999999999999995,0.6009235977853846,0.012422505372073886,0.053000000000000005,-0.2060094654643224,-0.8239709786309513,1.4164055573605454,-1.57,4.71159,0.0,0.25,264
1753412273.1526084,265,401.27135336007,329.8117406289288,401.8471955707693,324.84501074414777,0.6009235977853846,0.012422505372073886,0.06999999999999995,0.6009235977853846,0.012422505372073886,0.053000000000000005,-0.2060094654643224,-0.8239709786309513,1.4164055573605454,-1.57,4.71159,0.0,0.25,265
1753412273.1722102,266,401.27135336007,329.8117406289288,401.8471955707693,324.84501074414777,0.6009235977853846,0.012422505372073886,0.06999999999999995,0.6009235977853846,0.012422505372073886,0.053000000000000005,-0.2060094654643224,-0.8239709786309513,1.4164055573605454,-1.57,4.71159,0.0,0.25,266
1753412273.1920936,267,401.27135336007,329.8117406289288,401.8471955707693,324.84501074414777,0.6009235977853846,0.012422505372073886,0.06999999999999995,0.6009235977853846,0.012422505372073886,0.053000000000000005,-0.2060094654643224,-0.8239709786309513,1.4164055573605454,-1.57,4.71159,0.0,0.25,267
1753412273.2115116,268,401.27135336007,329.8117406289288,401.8471955707693,324.84501074414777,0.6009235977853846,0.012422505372073886,0.06999999999999995,0.6009235977853846,0.012422505372073886,0.053000000000000005,-0.2060094654643224,-0.8239709786309513,1.4164055573605454,-1.57,4.71159,0.0,0.25,268
1753412273.2348242,269,401.27135336007,329.8117406289288,401.8471955707693,324.84501074414777,0.6009235977853846,0.012422505372073886,0.06999999999999995,0.6009235977853846,0.012422505372073886,0.053000000000000005,-0.2060094654643224,-0.8239709786309513,1.4164055573605454,-1.57,4.71159,0.0,0.25,269
1753412273.251789,270,401.27135336007,329.8117406289288,401.8471955707693,324.84501074414777,0.6009235977853846,0.012422505372073886,0.06999999999999995,0.6009235977853846,0.012422505372073886,0.053000000000000005,-0.2060094654643224,-0.8239709786309513,1.4164055573605454,-1.57,4.71159,0.0,0.25,270
1753412273.2713456,271,401.27135336007,329.8117406289288,401.8471955707693,324.84501074414777,0.6009235977853846,0.012422505372073886,0.06999999999999995,0.6009235977853846,0.012422505372073886,0.053000000000000005,-0.2060094654643224,-0.8239709786309513,1.4164055573605454,-1.57,4.71159,0.0,0.25,271
1753412273.2913392,272,401.27135336007,329.8117406289288,401.8471955707693,324.84501074414777,0.6009235977853846,0.012422505372073886,0.06999999999999995,0.6009235977853846,0.012422505372073886,0.053000000000000005,-0.2060094654643224,-0.8239709786309513,1.4164055573605454,-1.57,4.71159,0.0,0.25,272
1753412273.3113666,273,401.27135336007,329.8117406289288,401.8471955707693,324.84501074414777,0.6009235977853846,0.012422505372073886,0.06999999999999995,0.6009235977853846,0.012422505372073886,0.053000000000000005,-0.2060094654643224,-0.8239709786309513,1.4164055573605454,-1.57,4.71159,0.0,0.25,273
1753412273.3322399,274,401.27135336007,329.8117406289288,401.8471955707693,324.84501074414777,0.6009235977853846,0.012422505372073886,0.06999999999999995,0.6009235977853846,0.012422505372073886,0.053000000000000005,-0.2060094654643224,-0.8239709786309513,1.4164055573605454,-1.57,4.71159,0.0,0.25,274
1753412273.3514664,275,401.27135336007,329.8117406289288,401.8471955707693,324.84501074414777,0.6009235977853846,0.012422505372073886,0.06999999999999995,0.6009235977853846,0.012422505372073886,0.053000000000000005,-0.2060094654643224,-0.8239709786309513,1.4164055573605454,-1.57,4.71159,0.0,0.25,275
1753412273.3713639,276,401.27135336007,329.8117406289288,401.82460379395377,325.04382642556334,0.6009123018969769,0.012521913212781663,0.0699999935628953,0.6009123018969769,0.012521913212781663,0.053000000000000005,-0.20585471816188222,-0.8240329834711007,1.4165225891102549,-1.57,4.71159,0.0,0.25,276
1753412273.3952987,277,401.27135336007,329.8117406289288,401.8019751657727,325.24262995592767,0.6009009875828863,0.012621314977963843,0.06999998766210377,0.6009009875828863,0.012621314977963843,0.053000000000000005,-0.20569997085944203,-0.82409498831125,1.416639620859964,-1.57,4.71159,0.0,0.25,277
1753412273.4119966,278,401.27135336007,329.8117406289288,401.77930968953046,325.44142132791677,0.6008896548447652,0.012720710663958398,0.06999998229764035,0.6008896548447652,0.012720710663958398,0.053000000000000005,-0.20554522355700186,-0.8241569931513995,1.4167566526096735,-1.57,4.71159,0.0,0.25,278
1753412273.4328988,279,401.27135336007,329.8117406289288,401.7566073685329,325.6402005342076,0.6008783036842664,0.012820100267103798,0.06999997746951939,0.6008783036842664,0.012820100267103798,0.053000000000000005,-0.2053904762545617,-0.8242189979915489,1.416873684359383,-1.57,4.71159,0.0,0.25,279
1753412273.4517248,280,401.27135336007,329.8117406289288,401.7338682060879,325.83896756747765,0.6008669341030439,0.012919483783738833,0.06999997317775564,0.6008669341030439,0.012919483783738833,0.053000000000000005,-0.2052357289521215,-0.8242810028316983,1.4169907161090922,-1.57,4.71159,0.0,0.25,280
1753412273.471289,281,401.27135336007,329.8117406289288,401.7110922055037,326.0377224204054,0.6008555461027518,0.013018861210202681,0.06999996942236375,0.6008555461027518,0.013018861210202681,0.053000000000000005,-0.20508098164968133,-0.8243430076718476,1.4171077478588017,-1.57,4.71159,0.0,0.25,281
1753412273.4912233,282,401.27135336007,329.8117406289288,401.68827937009183,326.2364650856699,0.6008441396850459,0.013118232542834951,0.06999996620335816,0.6008441396850459,0.013118232542834951,0.053000000000000005,-0.20492623434724117,-0.8244050125119972,1.417224779608511,-1.57,4.71159,0.0,0.25,282
1753412273.5129328,283,401.27135336007,329.8117406289288,401.66542970316374,326.43519555595117,0.6008327148515819,0.01321759777797557,0.06999996352075388,0.6008327148515819,0.01321759777797557,0.053000000000000005,-0.20477148704480097,-0.8244670173521466,1.4173418113582203,-1.57,4.71159,0.0,0.25,283
1753412273.532493,284,401.27135336007,329.8117406289288,401.6425432080329,326.63391382392996,0.6008212716040164,0.013316956911964967,0.06999996137456518,0.6008212716040164,0.013316956911964967,0.053000000000000005,-0.2046167397423608,-0.824529022192296,1.4174588431079298,-1.57,4.71159,0.0,0.25,284
1753412273.5521152,285,401.27135336007,329.8117406289288,401.61961988801454,326.8326198822876,0.6008098099440072,0.013416309941143803,0.06999995976480677,0.6008098099440072,0.013416309941143803,0.053000000000000005,-0.20446199243992064,-0.8245910270324454,1.417575874857639,-1.57,4.71159,0.0,0.25,285
1753412273.5717745,286,401.27135336007,329.8117406289288,401.59665974642496,327.0313137237066,0.6007983298732125,0.013515656861853298,0.06999995869149331,0.6007983298732125,0.013515656861853298,0.053000000000000005,-0.20430724513748044,-0.8246530318725948,1.4176929066073485,-1.57,4.71159,0.0,0.25,286
1753412273.591753,287,401.27135336007,329.8117406289288,401.57366278658253,327.22999534086983,0.6007868313932913,0.013614997670434906,0.06999995815463944,0.6007868313932913,0.013614997670434906,0.053000000000000005,-0.20415249783504028,-0.8247150367127442,1.417809938357058,-1.57,4.71159,0.0,0.25,287
1753412273.6113124,288,401.27135336007,329.8117406289288,401.55062901180656,327.42866472646114,0.6007753145059033,0.01371433236323058,0.0699999581542596,0.6007753145059033,0.01371433236323058,0.053000000000000005,-0.2039977505326001,-0.8247770415528936,1.4179269701067672,-1.57,4.71159,0.0,0.25,288
1753412273.6329522,289,401.27135336007,329.8117406289288,401.5275584254184,327.6273218731653,0.6007637792127092,0.013813660936582636,0.06999995869036865,0.6007637792127092,0.013813660936582636,0.053000000000000005,-0.20384300323015994,-0.824839046393043,1.4180440018564766,-1.57,4.71159,0.0,0.25,289
1753412273.6524386,290,401.27135336007,329.8117406289288,401.50445103074026,327.8259667736676,0.6007522255153701,0.013912983386833777,0.06999995976298101,0.6007522255153701,0.013912983386833777,0.053000000000000005,-0.20368825592771975,-0.8249010512331924,1.418161033606186,-1.57,4.71159,0.0,0.25,290
1753412273.6714272,291,401.27135336007,329.8117406289288,401.48130683109684,328.02459942065406,0.6007406534155484,0.014012299710327025,0.06999996137211126,0.6007406534155484,0.014012299710327025,0.053000000000000005,-0.20353350862527958,-0.8249630560733417,1.4182780653558953,-1.57,4.71159,0.0,0.25,291
1753412273.6922004,292,401.27135336007,329.8117406289288,401.45812582981296,328.22321980681176,0.6007290629149065,0.014111609903405889,0.0699999635177741,0.6007290629149065,0.014111609903405889,0.053000000000000005,-0.2033787613228394,-0.8250250609134911,1.4183950971056047,-1.57,4.71159,0.0,0.25,292
1753412273.7153063,293,401.27135336007,329.8117406289288,401.43490803021626,328.42182792482845,0.6007174540151081,0.014210913962414223,0.06999996619998416,0.6007174540151081,0.014210913962414223,0.053000000000000005,-0.20322401402039922,-0.8250870657536405,1.4185121288553142,-1.57,4.71159,0.0,0.25,293
1753412273.7327895,294,401.27135336007,329.8117406289288,401.41165343563523,328.62042376739254,0.6007058267178176,0.014310211883696272,0.0699999694187558,0.6007058267178176,0.014310211883696272,0.053000000000000005,-0.20306926671795905,-0.8251490705937901,1.4186291606050234,-1.57,4.71159,0.0,0.25,294
1753412273.7517924,295,401.27135336007,329.8117406289288,401.3883620494,328.81900732719345,0.6006941810247,0.014409503663596723,0.06999997317410392,0.6006941810247,0.014409503663596723,0.053000000000000005,-0.20291451941551888,-0.8252110754339395,1.4187461923547329,-1.57,4.71159,0.0,0.25,295
1753412273.771478,296,401.27135336007,329.8117406289288,401.3650338748421,329.01757859692117,0.600682516937421,0.014508789298460598,0.06999997746604289,0.600682516937421,0.014508789298460598,0.053000000000000005,-0.2027597721130787,-0.8252730802740889,1.418863224104442,-1.57,4.71159,0.0,0.25,296
1753412273.7916577,297,401.27135336007,329.8117406289288,401.34166891529475,329.21613756926655,0.6006708344576474,0.014608068784633263,0.06999998229458745,0.6006708344576474,0.014608068784633263,0.053000000000000005,-0.20260502481063852,-0.8253350851142383,1.4189802558541516,-1.57,4.71159,0.0,0.25,297
1753412273.8122513,298,401.27135336007,329.8117406289288,401.3182671740928,329.4146842369212,0.6006591335870464,0.014707342118460573,0.0699999876597521,0.6006591335870464,0.014707342118460573,0.053000000000000005,-0.20245027750819836,-0.8253970899543877,1.419097287603861,-1.57,4.71159,0.0,0.25,298
1753412273.8319836,299,401.27135336007,329.8117406289288,401.294828654572,329.61321859257754,0.600647414327286,0.01480660929628877,0.0699999935615514,0.600647414327286,0.01480660929628877,0.053000000000000005,-0.20229553020575816,-0.825459094794537,1.4192143193535702,-1.57,4.71159,0.0,0.25,299
1753412273.8518558,300,401.27135336007,329.8117406289288,401.27135336007035,329.8117406289288,0.6006356766800351,0.014905870314464414,0.06999999999999998,0.6006356766800351,0.014905870314464414,0.053000000000000005,-0.202140782903318,-0.8255210996346865,1.4193313511032797,-1.57,4.71159,0.0,0.25,300
1753412273.873461,301,401.27135336007,329.8117406289288,401.27135336007035,329.8117406289288,0.6006356766800351,0.014905870314464414,0.06999999999999998,0.6006356766800351,0.014905870314464414,0.053000000000000005,-0.202140782903318,-0.8255210996346865,1.4193313511032797,-1.57,4.71159,0.0,0.25,301
1753412273.891534,302,400.44822784384917,334.74352168495165,401.27135336007035,329.8117406289288,0.6006356766800351,0.014905870314464414,0.06999999999999998,0.6006356766800351,0.014905870314464414,0.053000000000000005,-0.202140782903318,-0.8255210996346865,1.4193313511032797,-1.57,4.71159,0.0,0.25,302
1753412273.9128458,303,400.44822784384917,334.74352168495165,401.27135336007035,329.8117406289288,0.6006356766800351,0.014905870314464414,0.06999999999999998,0.6006356766800351,0.014905870314464414,0.053000000000000005,-0.202140782903318,-0.8255210996346865,1.4193313511032797,-1.57,4.71159,0.0,0.25,303
1753412273.9313428,304,400.44822784384917,334.74352168495165,401.27135336007035,329.8117406289288,0.6006356766800351,0.014905870314464414,0.06999999999999998,0.6006356766800351,0.014905870314464414,0.053000000000000005,-0.202140782903318,-0.8255210996346865,1.4193313511032797,-1.57,4.71159,0.0,0.25,304
1753412273.9516459,305,400.44822784384917,334.74352168495165,401.27135336007035,329.8117406289288,0.6006356766800351,0.014905870314464414,0.06999999999999998,0.6006356766800351,0.014905870314464414,0.053000000000000005,-0.202140782903318,-0.8255210996346865,1.4193313511032797,-1.57,4.71159,0.0,0.25,305
1753412273.9724152,306,400.44822784384917,334.74352168495165,401.27135336007035,329.8117406289288,0.6006356766800351,0.014905870314464414,0.06999999999999998,0.6006356766800351,0.014905870314464414,0.053000000000000005,-0.202140782903318,-0.8255210996346865,1.4193313511032797,-1.57,4.71159,0.0,0.25,306
1753412273.9918833,307,400.44822784384917,334.74352168495165,401.27135336007035,329.8117406289288,0.6006356766800351,0.014905870314464414,0.06999999999999998,0.6006356766800351,0.014905870314464414,0.053000000000000005,-0.202140782903318,-0.8255210996346865,1.4193313511032797,-1.57,4.71159,0.0,0.25,307
1753412274.0117617,308,400.44822784384917,334.74352168495165,401.27135336007035,329.8117406289288,0.6006356766800351,0.014905870314464414,0.06999999999999998,0.6006356766800351,0.014905870314464414,0.053000000000000005,-0.202140782903318,-0.8255210996346865,1.4193313511032797,-1.57,4.71159,0.0,0.25,308
1753412274.0318403,309,400.44822784384917,334.74352168495165,401.27135336007035,329.8117406289288,0.6006356766800351,0.014905870314464414,0.06999999999999998,0.6006356766800351,0.014905870314464414,0.053000000000000005,-0.202140782903318,-0.8255210996346865,1.4193313511032797,-1.57,4.71159,0.0,0.25,309
1753412274.0517578,310,400.44822784384917,334.74352168495165,401.27135336007035,329.8117406289288,0.6006356766800351,0.014905870314464414,0.06999999999999998,0.6006356766800351,0.014905870314464414,0.053000000000000005,-0.202140782903318,-0.8255210996346865,1.4193313511032797,-1.57,4.71159,0.0,0.25,310
1753412274.071479,311,400.44822784384917,334.74352168495165,401.27135336007035,329.8117406289288,0.6006356766800351,0.014905870314464414,0.06999999999999998,0.6006356766800351,0.014905870314464414,0.053000000000000005,-0.202140782903318,-0.8255210996346865,1.4193313511032797,-1.57,4.71159,0.0,0.25,311
1753412274.0915709,312,400.44822784384917,334.74352168495165,401.27135336007035,329.8117406289288,0.6006356766800351,0.014905870314464414,0.06999999999999998,0.6006356766800351,0.014905870314464414,0.053000000000000005,-0.202140782903318,-0.8255210996346865,1.4193313511032797,-1.57,4.71159,0.0,0.25,312
1753412274.1113725,313,400.44822784384917,334.74352168495165,401.27135336007035,329.8117406289288,0.6006356766800351,0.014905870314464414,0.06999999999999998,0.6006356766800351,0.014905870314464414,0.053000000000000005,-0.202140782903318,-0.8255210996346865,1.4193313511032797,-1.57,4.71159,0.0,0.25,313
1753412274.1326103,314,400.44822784384917,334.74352168495165,401.27135336007035,329.8117406289288,0.6006356766800351,0.014905870314464414,0.06999999999999998,0.6006356766800351,0.014905870314464414,0.053000000000000005,-0.202140782903318,-0.8255210996346865,1.4193313511032797,-1.57,4.71159,0.0,0.25,314
1753412274.1515527,315,400.44822784384917,334.74352168495165,401.27135336007035,329.8117406289288,0.6006356766800351,0.014905870314464414,0.06999999999999998,0.6006356766800351,0.014905870314464414,0.053000000000000005,-0.202140782903318,-0.8255210996346865,1.4193313511032797,-1.57,4.71159,0.0,0.25,315
1753412274.171477,316,400.44822784384917,334.74352168495165,401.27135336007035,329.8117406289288,0.6006356766800351,0.014905870314464414,0.06999999999999998,0.6006356766800351,0.014905870314464414,0.053000000000000005,-0.202140782903318,-0.8255210996346865,1.4193313511032797,-1.57,4.71159,0.0,0.25,316
1753412274.1949995,317,400.44822784384917,334.74352168495165,401.27135336007035,329.8117406289288,0.6006356766800351,0.014905870314464414,0.06999999999999998,0.6006356766800351,0.014905870314464414,0.053000000000000005,-0.202140782903318,-0.8255210996346865,1.4193313511032797,-1.57,4.71159,0.0,0.25,317
1753412274.2124324,318,400.44822784384917,334.74352168495165,401.27135336007035,329.8117406289288,0.6006356766800351,0.014905870314464414,0.06999999999999998,0.6006356766800351,0.014905870314464414,0.053000000000000005,-0.202140782903318,-0.8255210996346865,1.4193313511032797,-1.57,4.71159,0.0,0.25,318
1753412274.2319462,319,400.44822784384917,334.74352168495165,401.27135336007035,329.8117406289288,0.6006356766800351,0.014905870314464414,0.06999999999999998,0.6006356766800351,0.014905870314464414,0.053000000000000005,-0.202140782903318,-0.8255210996346865,1.4193313511032797,-1.57,4.71159,0.0,0.25,319
1753412274.2519674,320,400.44822784384917,334.74352168495165,401.27135336007035,329.8117406289288,0.6006356766800351,0.014905870314464414,0.06999999999999998,0.6006356766800351,0.014905870314464414,0.053000000000000005,-0.202140782903318,-0.8255210996346865,1.4193313511032797,-1.57,4.71159,0.0,0.25,320
1753412274.2717047,321,400.44822784384917,334.74352168495165,401.27135336007035,329.8117406289288,0.6006356766800351,0.014905870314464414,0.06999999999999998,0.6006356766800351,0.014905870314464414,0.053000000000000005,-0.202140782903318,-0.8255210996346865,1.4193313511032797,-1.57,4.71159,0.0,0.25,321
1753412274.2923157,322,400.44822784384917,334.74352168495165,401.27135336007035,329.8117406289288,0.6006356766800351,0.014905870314464414,0.06999999999999998,0.6006356766800351,0.014905870314464414,0.053000000000000005,-0.202140782903318,-0.8255210996346865,1.4193313511032797,-1.57,4.71159,0.0,0.25,322
1753412274.311808,323,400.44822784384917,334.74352168495165,401.27135336007035,329.8117406289288,0.6006356766800351,0.014905870314464414,0.06999999999999998,0.6006356766800351,0.014905870314464414,0.053000000000000005,-0.202140782903318,-0.8255210996346865,1.4193313511032797,-1.57,4.71159,0.0,0.25,323
1753412274.3315523,324,400.44822784384917,334.74352168495165,401.27135336007035,329.8117406289288,0.6006356766800351,0.014905870314464414,0.06999999999999998,0.6006356766800351,0.014905870314464414,0.053000000000000005,-0.202140782903318,-0.8255210996346865,1.4193313511032797,-1.57,4.71159,0.0,0.25,324
1753412274.351432,325,400.44822784384917,334.74352168495165,401.27135336007035,329.8117406289288,0.6006356766800351,0.014905870314464414,0.06999999999999998,0.6006356766800351,0.014905870314464414,0.053000000000000005,-0.202140782903318,-0.8255210996346865,1.4193313511032797,-1.57,4.71159,0.0,0.25,325
1753412274.3713918,326,400.44822784384917,334.74352168495165,401.2388788418847,330.009187041633,0.6006194394209423,0.015004593520816512,0.06999999166166088,0.6006194394209423,0.015004593520816512,0.053000000000000005,-0.20198835150506664,-0.8255915745276318,1.4194643195551562,-1.57,4.71159,0.0,0.25,326
1753412274.3914442,327,400.44822784384917,334.74352168495165,401.20636675237915,330.2066189160846,0.6006031833761896,0.015103309458042294,0.06999998401801819,0.6006031833761896,0.015103309458042294,0.053000000000000005,-0.2018359201068153,-0.8256620494205771,1.4195972880070329,-1.57,4.71159,0.0,0.25,327
1753412274.4119468,328,400.44822784384917,334.74352168495165,401.1738170953857,330.4040362445455,0.6005869085476928,0.015202018122272773,0.06999997706909333,0.6005869085476928,0.015202018122272773,0.053000000000000005,-0.20168348870856395,-0.8257325243135223,1.4197302564589094,-1.57,4.71159,0.0,0.25,328
1753412274.4321876,329,400.44822784384917,334.74352168495165,401.1412298747375,330.601439019279,0.6005706149373687,0.015300719509639502,0.06999997081490791,0.6005706149373687,0.015300719509639502,0.053000000000000005,-0.2015310573103126,-0.8258029992064676,1.419863224910786,-1.57,4.71159,0.0,0.25,329
1753412274.4546535,330,400.44822784384917,334.74352168495165,401.10860509427033,330.7988272325488,0.6005543025471352,0.01539941361627438,0.06999996525548352,0.6005543025471352,0.01539941361627438,0.053000000000000005,-0.20137862591206127,-0.8258734740994129,1.4199961933626626,-1.57,4.71159,0.0,0.25,330
