small-spring/wanderline/robot/demos/phase1/coordinate_analysis/pen_trail_analysis_20250725_063638.csv
timestamp,step_count,target_pixel_x,target_pixel_y,actual_pixel_x,actual_pixel_y,pen_tip_x,pen_tip_y,pen_tip_z,trail_display_x,trail_display_y,trail_display_z,joint_0,joint_1,joint_2,joint_3,joint_4,joint_5,progress_percent,contact_count
1753425398.2844365,0,400,300,401.34680857714045,304.9031231151581,0.6006734042885702,0.0024515615575790572,-0.09250000000000003,0.6006734042885702,0.0024515615575790572,0.053000000000000005,-0.22194330824978664,-0.8202650535081152,1.4094065991580644,-1.57,4.71159,0.0,0.0,0
1753425398.9060218,1,401.34680857714034,304.9031231151581,401.9866427825386,309.86201534927676,0.6009933213912693,0.004931007674638388,-0.09250000000000011,0.6009933213912693,0.004931007674638388,0.053000000000000005,-0.21789966814990358,-0.8207182270310917,1.4102627705475983,-1.57,4.71159,0.0,0.041666666666666664,1
1753425398.9227014,2,401.9866427825384,309.8620153492768,402.23221533018926,314.8559811204691,0.6011161076650946,0.007427990560234535,-0.09250000000000003,0.6011161076650946,0.007427990560234535,0.053000000000000005,-0.2138932410748013,-0.8215400850673339,1.4118152670024242,-1.57,4.71159,0.0,0.08333333333333333,2
1753425398.9425662,3,402.2322153301887,314.8559811204691,402.1728797414264,319.85562903686343,0.6010864398707132,0.009927814518431707,-0.09250000000000008,0.6010864398707132,0.009927814518431707,0.053000000000000005,-0.2099286302746676,-0.8226378944815642,1.4138885886065218,-1.57,4.71159,0.0,0.125,3
1753425398.9625003,4,402.17287974142636,319.85562903686343,401.8471955707693,324.84501074414777,0.6009235977853846,0.012422505372073886,-0.09250000000000005,0.6009235977853846,0.012422505372073886,0.053000000000000005,-0.2060094654643224,-0.8239709786309513,1.4164055573605454,-1.57,4.71159,0.0,0.16666666666666666,4
1753425398.982865,5,401.84719557076926,324.84501074414777,401.27135336007035,329.8117406289288,0.6006356766800351,0.014905870314464414,-0.09250000000000003,0.6006356766800351,0.014905870314464414,0.053000000000000005,-0.202140782903318,-0.8255210996346865,1.4193313511032797,-1.57,4.71159,0.0,0.20833333333333334,5
1753425399.003756,6,401.27135336007,329.8117406289288,400.44822784384934,334.74352168495165,0.6002241139219247,0.01737176084247581,-0.09249999999999994,0.6002241139219247,0.01737176084247581,0.053000000000000005,-0.19832999794703432,-0.8272829719583187,1.4226555624001946,-1.57,4.71159,0.0,0.25,6
1753425399.0227365,7,400.44822784384917,334.74352168495165,399.37055945257237,339.62600372162547,0.5996852797262862,0.019813001860812737,-0.09250000000000005,0.5996852797262862,0.019813001860812737,0.053000000000000005,-0.19458793987130096,-0.8292607555843923,1.4263855472964293,-1.57,4.71159,0.0,0.2916666666666667,7
1753425399.042663,8,399.37055945257225,339.62600372162547,398.021593576899,344.44059519611915,0.5990107967884495,0.022220297598059567,-0.09249999999999992,0.5990107967884495,0.022220297598059567,0.053000000000000005,-0.19093041044397005,-0.8314670206669911,1.4305444329914898,-1.57,4.71159,0.0,0.3333333333333333,8
1753425399.0626295,9,398.02159357689857,344.4405951961192,396.37417919688363,349.16140295120914,0.5981870895984418,0.02458070147560458,-0.09250000000000008,0.5981870895984418,0.02458070147560458,0.053000000000000005,-0.1873807387097054,-0.8339230566598776,1.4351716497410874,-1.57,4.71159,0.0,0.375,9
1753425399.0827408,10,396.3741791968836,349.1614029512092,394.3886523114316,353.75026806005087,0.5971943261557158,0.02687513403002545,-0.09249999999999994,0.5971943261557158,0.02687513403002545,0.053000000000000005,-0.18397411810671468,-0.8366600289660118,1.4403250405741685,-1.57,4.71159,0.0,0.4166666666666667,10
1753425399.1027246,11,394.38865231143126,353.7502680600509,392.00985797573327,358.1481468110452,0.5960049289878666,0.0290740734055226,-0.09249999999999992,0.5960049289878666,0.0290740734055226,0.053000000000000005,-0.18076513523399446,-0.8397203469421506,1.4460833398515585,-1.57,4.71159,0.0,0.4583333333333333,11
1753425399.1224566,12,392.009857975733,358.14814681104525,389.1648391406258,362.25982138813447,0.5945824195703129,0.031129910694067245,-0.09250000000000005,0.5945824195703129,0.031129910694067245,0.053000000000000005,-0.17784083426494882,-0.8431572858921305,1.4525453303996203,-1.57,4.71159,0.0,0.5,12
1753425399.1424448,13,389.1648391406256,362.2598213881345,385.7672167098952,365.928085530504,0.5928836083549476,0.03296404276525201,-0.0925,0.5928836083549476,0.03296404276525201,0.053000000000000005,-0.1753418507647563,-0.8470265101069042,1.4598137578765316,-1.57,4.71159,0.0,0.5,13
1753425399.1633637,14,385.76721670989497,365.92808553050406,381.74670569684986,368.9005409454738,0.5908733528484249,0.03445027047273688,-0.09250000000000017,0.5908733528484249,0.03445027047273688,0.053000000000000005,-0.17348687185331577,-0.8513525686818812,1.4679323523264904,-1.57,4.71159,0.0,0.5,14
1753425399.1828802,15,381.74670569685003,368.9005409454737,377.1357193278243,370.8341398451057,0.5885678596639121,0.03541706992255285,-0.09250000000000025,0.5885678596639121,0.03541706992255285,0.053000000000000005,-0.17255905201939048,-0.8560477261714217,1.4767339633674021,-1.57,4.71159,0.0,0.5,15
1753425399.2027357,16,377.135719327824,370.8341398451057,372.17483417808273,371.4583341506493,0.5860874170890413,0.03572916707532465,-0.09250000000000014,0.5860874170890413,0.03572916707532465,0.053000000000000005,-0.17275812928866333,-0.8608395670895267,1.4857063382152873,-1.57,4.71159,0.0,0.5,16
1753425399.222542,17,372.1748341780827,371.4583341506493,367.2135393689061,370.837404350723,0.583606769684453,0.035418702175361486,-0.09250000000000022,0.583606769684453,0.035418702175361486,0.053000000000000005,-0.17399391130012146,-0.865408657813126,1.4942516608963972,-1.57,4.71159,0.0,0.5,17
1753425399.2424588,18,367.213539368906,370.837404350723,362.4572795692707,369.2953301896095,0.5812286397846353,0.03464766509480474,-0.0925000000000003,0.5812286397846353,0.03464766509480474,0.053000000000000005,-0.17597764888925782,-0.8696148429491992,1.5021095667073057,-1.57,4.71159,0.0,0.5,18
1753425399.2628062,19,362.45727956927084,369.2953301896095,357.9513532004753,367.12815978583535,0.5789756766002376,0.03356407989291768,-0.09250000000000011,0.5789756766002376,0.03356407989291768,0.053000000000000005,-0.17846146924233885,-0.8734644210551361,1.509293889476519,-1.57,4.71159,0.0,0.5,19
1753425399.2826455,20,357.95135320047535,367.12815978583535,353.6874823575436,364.5167606522677,0.5768437411787718,0.032258380326133845,-0.09249999999999992,0.5768437411787718,0.032258380326133845,0.053000000000000005,-0.181297859678353,-0.8769950913440843,1.5158767909373576,-1.57,4.71159,0.0,0.5,20
1753425399.304134,21,353.68748235754373,364.5167606522677,349.65451537002554,361.56122732009396,0.5748272576850127,0.03078061366004698,-0.09250000000000005,0.5748272576850127,0.03078061366004698,0.053000000000000005,-0.18440544672866638,-0.8802338895756558,1.5219101917116524,-1.57,4.71159,0.0,0.5,21
1753425399.3229768,22,349.6545153700256,361.56122732009396,345.8487139589089,358.3184082349239,0.5729243569794544,0.02915920411746193,-0.09250000000000017,0.5729243569794544,0.02915920411746193,0.053000000000000005,-0.18773696025869666,-0.8831937342308014,1.527419467129375,-1.57,4.71159,0.0,0.5,22
1753425399.3433812,23,345.848713958909,358.3184082349239,342.27288167032054,354.8236373634807,0.5711364408351602,0.027411818681740356,-0.09250000000000011,0.5711364408351602,0.027411818681740356,0.053000000000000005,-0.19126149125011926,-0.8858778589831109,1.5324118119902814,-1.57,4.71159,0.0,0.5,23
1753425399.3628714,24,342.27288167032026,354.82363736348077,338.93391688666236,351.1019019922471,0.5694669584433312,0.02555095099612357,-0.0925000000000002,0.5694669584433312,0.02555095099612357,0.053000000000000005,-0.19495561846216009,-0.8882839769399294,1.536884048621394,-1.57,4.71159,0.0,0.5,24
1753425399.3830068,25,338.9339168866624,351.1019019922472,335.8408479192957,347.17342590563123,0.5679204239596478,0.02358671295281562,-0.09250000000000003,0.5679204239596478,0.02358671295281562,0.053000000000000005,-0.1987990760753937,-0.8904070667923325,1.5408278309438874,-1.57,4.71159,0.0,0.5,25
1753425399.4026217,26,335.84084791929547,347.17342590563135,333.0035324256143,343.05643176071004,0.5665017662128071,0.021528215880355014,-0.09250000000000003,0.5665017662128071,0.021528215880355014,0.053000000000000005,-0.2027726726988767,-0.8922410672395094,1.5442327959226085,-1.57,4.71159,0.0,0.5,26
1753425399.4225678,27,333.0035324256143,343.05643176071004,330.43185117361406,338.76848871793203,0.565215925586807,0.019384244358966005,-0.09250000000000014,0.565215925586807,0.019384244358966005,0.053000000000000005,-0.2068573266915562,-0.8937798718908245,1.5470884036052048,-1.57,4.71159,0.0,0.5,27
1753425399.442558,28,330.43185117361367,338.76848871793203,328.1352200715445,334.32715045328627,0.5640676100357722,0.017163575226643135,-0.09250000000000005,0.5640676100357722,0.017163575226643135,0.053000000000000005,-0.21103365819199563,-0.8950179063636238,1.5493849962376165,-1.57,4.71159,0.0,0.5,28
1753425399.4633198,29,328.1352200715445,334.32715045328627,326.1222958626696,329.75023706877425,0.5630611479313348,0.014875118534387125,-0.09250000000000003,0.5630611479313348,0.014875118534387125,0.053000000000000005,-0.21528186063835972,-0.8959504626595516,1.5511144055983386,-1.57,4.71159,0.0,0.5,29
1753425399.4850187,30,326.12229586266955,329.75023706877425,324.40079681904155,325.05593828804155,0.5622003984095207,0.012527969144020781,-0.09250000000000003,0.5622003984095207,0.012527969144020781,0.053000000000000005,-0.2195817136912809,-0.8965738935949349,1.5522703015993826,-1.57,4.71159,0.0,0.5,30
1753425399.5029933,31,324.4007968190418,325.05593828804155,322.9773912595485,320.26282691720905,0.5614886956297742,0.010131413458604521,-0.09250000000000022,0.5614886956297742,0.010131413458604521,0.053000000000000005,-0.22391266828266349,-0.8968857258881174,1.5528483921998715,-1.57,4.71159,0.0,0.5,31
1753425399.5226424,32,322.9773912595484,320.262826917209,321.8576264117779,315.3898271546708,0.5609288132058889,0.007694913577335413,-0.09250000000000003,0.5609288132058889,0.007694913577335413,0.053000000000000005,-0.22825396855156158,-0.8968847247373062,1.552846536294489,-1.57,4.71159,0.0,0.5,32
1753425399.547258,33,321.85762641177786,315.38982715467085,321.0458819153804,310.4561600730197,0.5605229409576902,0.005228080036509847,-0.09250000000000005,0.5605229409576902,0.005228080036509847,0.053000000000000005,-0.23258479221758627,-0.8965709280811653,1.5522648037417888,-1.57,4.71159,0.0,0.5,33
1753425399.5632756,34,321.04588191538045,310.45616007301965,320.54533912318306,305.4812774700652,0.5602726695615915,0.002740638735032608,-0.09250000000000008,0.5602726695615915,0.002740638735032608,0.053000000000000005,-0.2368843991921292,-0.8959456605760223,1.551105501346531,-1.57,4.71159,0.0,0.5,34
1753425399.5830815,35,320.545339123183,305.4812774700652,320.3579612764734,300.4847897494195,0.5601789806382367,0.00024239487470976984,-0.09250000000000008,0.5601789806382367,0.00024239487470976984,0.053000000000000005,-0.2411322822804928,-0.8950115328606616,1.5493731751734052,-1.57,4.71159,0.0,0.5,35
1753425399.6025581,36,320.3579612764733,300.4847897494196,320.4844818383326,295.48639075099743,0.5602422409191663,-0.0022568046245012713,-0.09250000000000005,0.5602422409191663,-0.0022568046245012713,0.053000000000000005,-0.24530831584642301,-0.893772429290308,1.5470745950094913,-1.57,4.71159,0.0,0.75,36
1753425399.6225207,37,320.4844818383326,295.48639075099743,320.92439949497987,290.50578110403944,0.5604621997474899,-0.004747109447980291,-0.09250000000000011,0.5604621997474899,-0.004747109447980291,0.053000000000000005,-0.24939289936600623,-0.8922334860790896,1.5442187243791332,-1.57,4.71159,0.0,0.75,37
1753425399.6455493,38,320.9243994949797,290.5057811040395,321.67597900614663,285.562591016819,0.5608379895030733,-0.007218704491590497,-0.09250000000000005,0.5608379895030733,-0.007218704491590497,0.053000000000000005,-0.25336709341561886,-0.8904010611717862,1.5408166782733144,-1.57,4.71159,0.0,0.75,38
1753425399.6629086,39,321.67597900614663,285.562591016819,322.7362574459834,280.67630309754765,0.5613681287229917,-0.009661848451226168,-0.09250000000000008,0.5613681287229917,-0.009661848451226168,0.053000000000000005,-0.25721274607100586,-0.8882826968780821,1.5368816701426748,-1.57,4.71159,0.0,0.75,39
1753425399.6831317,40,322.7362574459834,280.67630309754765,324.10105556425924,275.86617564639295,0.5620505277821296,-0.01206691217680353,-0.09250000000000005,0.5620505277821296,-0.01206691217680353,0.053000000000000005,-0.2609126080581426,-0.8858870761829378,1.5324289494179668,-1.57,4.71159,0.0,0.75,40
1753425399.7062342,41,324.101055564259,275.866175646393,325.7649940911934,271.1511667833487,0.5628824970455967,-0.01442441660832565,-0.09250000000000014,0.5628824970455967,-0.01442441660832565,0.053000000000000005,-0.2644504353406221,-0.8832239736050431,1.5274757306981435,-1.57,4.71159,0.0,0.75,41
1753425399.7228088,42,325.7649940911931,271.1511667833488,327.72151485118945,266.54985973907253,0.5638607574255947,-0.01672507013046373,-0.09250000000000005,0.5638607574255947,-0.01672507013046373,0.053000000000000005,-0.26781107816935246,-0.8803042014624138,1.522041115693905,-1.57,4.71159,0.0,0.75,42
1753425399.7424634,43,327.7215148511893,266.5498597390726,329.96290656477345,262.08038961541376,0.5649814532823867,-0.018959805192293122,-0.09250000000000003,0.5649814532823867,-0.018959805192293122,0.053000000000000005,-0.2709805559591849,-0.8771395523938714,1.5161460089846015,-1.57,4.71159,0.0,0.75,43
1753425399.7624147,44,329.9629065647731,262.08038961541376,332.48033521719356,257.76037190943435,0.5662401676085967,-0.02111981404528282,-0.09250000000000008,0.5662401676085967,-0.02111981404528282,0.053000000000000005,-0.2739461176877345,-0.8737427389641046,1.5098130286134117,-1.57,4.71159,0.0,0.75,44
1753425399.7832134,45,332.48033521719327,257.76037190943435,335.2638788635264,253.60683308465366,0.5676319394317632,-0.02319658345767317,-0.09249999999999997,0.5676319394317632,-0.02319658345767317,0.053000000000000005,-0.27669628782575234,-0.8701273311425265,1.5030664124973252,-1.57,4.71159,0.0,0.75,45
1753425399.8043063,46,335.2638788635263,253.6068330846537,338.3025667276124,249.63614346386302,0.5691512833638062,-0.02518192826806849,-0.09249999999999997,0.5691512833638062,-0.02518192826806849,0.053000000000000005,-0.27922089809761735,-0.8663076923907551,1.495931921559715,-1.57,4.71159,0.0,0.75,46
1753425399.8224373,47,338.30256672761266,249.636143463863,341.58442243784623,245.86395270818738,0.5707922112189231,-0.02706802364590631,-0.09250000000000028,0.5707922112189231,-0.02706802364590631,0.053000000000000005,-0.28151110562769477,-0.8622989150213454,1.4884367404036107,-1.57,4.71159,0.0,0.75,47
1753425399.8424556,48,341.58442243784634,245.8639527081874,345.09651122791684,242.3051281366947,0.5725482556139584,-0.028847435931652662,-0.09249999999999989,0.5725482556139584,-0.028847435931652662,0.053000000000000005,-0.2835593982480969,-0.8581167554039861,1.4806093762350634,-1.57,4.71159,0.0,0.75,48
1753425399.863092,49,345.09651122791684,242.30512813669466,348.82499091569093,238.97369612960551,0.5744124954578455,-0.03051315193519724,-0.09250000000000014,0.5744124954578455,-0.03051315193519724,0.053000000000000005,-0.2853595879224473,-0.8537775694980934,1.4724795566216329,-1.57,4.71159,0.0,0.75,49
1753425399.8831346,50,348.82499091569065,238.97369612960554,352.755166458912,235.88278684600175,0.576377583229456,-0.03205860657699912,-0.09249999999999992,0.576377583229456,-0.03205860657699912,0.053000000000000005,-0.28690679337722336,-0.8492982490862355,1.4640781265351626,-1.57,4.71159,0.0,0.75,50
1753425399.9028807,51,352.75516645891196,235.88278684600186,356.8715478724914,233.04458247387836,0.5784357739362457,-0.03347770876306082,-0.09250000000000017,0.5784357739362457,-0.03347770876306082,0.053000000000000005,-0.28819741312761565,-0.8446961589750381,1.4554369449852846,-1.57,4.71159,0.0,0.75,51
1753425399.9224193,52,356.8715478724912,233.0445824738784,361.1579112790103,230.4702692164729,0.5805789556395051,-0.03476486539176356,-0.09250000000000008,0.5805789556395051,-0.03476486539176356,0.053000000000000005,-0.28922909014061354,-0.8399890753225399,1.4465887814051472,-1.57,4.71159,0.0,0.75,52
1753425399.9432504,53,361.15791127901053,230.47026921647284,365.59736285176865,228.1699932040926,0.5827986814258843,-0.0359150033979537,-0.09250000000000008,0.5827986814258843,-0.0359150033979537,0.053000000000000005,-0.29000066939747615,-0.8351951251470086,1.4375672118084002,-1.57,4.71159,0.0,0.75,53
1753425399.963273,54,365.59736285176876,228.16999320409252,370.1724053983261,226.1528205051917,0.585086202699163,-0.036923589747404145,-0.09250000000000011,0.585086202699163,-0.036923589747404145,0.053000000000000005,-0.290512149605041,-0.8303327269747784,1.428406514600957,-1.57,4.71159,0.0,0.75,54
1753425399.9831061,55,370.1724053983259,226.15282050519178,374.86500732210146,224.4267013943019,0.5874325036610507,-0.03778664930284906,-0.09250000000000028,0.5874325036610507,-0.03778664930284906,0.053000000000000005,-0.29076463026520183,-0.8254205324965547,1.4191415658067694,-1.57,4.71159,0.0,0.75,55
1753425400.0027122,56,374.8650073221015,224.4267013943019,379.6566736902257,222.9984390176404,0.5898283368451128,-0.03850078049117979,-0.09250000000000028,0.5898283368451128,-0.03850078049117979,0.053000000000000005,-0.29076025524934807,-0.8204773690249674,1.4098077333577443,-1.57,4.71159,0.0,0.75,56
1753425400.0225515,57,379.6566736902258,222.99843901764046,384.52851912754124,221.87366257989456,0.5922642595637706,-0.03906316871005272,-0.09250000000000008,0.5922642595637706,-0.03906316871005272,0.053000000000000005,-0.2905021539446119,-0.8155221824829846,1.4004407700077908,-1.57,4.71159,0.0,0.75,57
1753425400.0425248,58,384.52851912754124,221.8736625798946,389.4613422494529,221.05680515785812,0.5947306711247264,-0.03947159742107094,-0.09249999999999992,0.5947306711247264,-0.03947159742107094,0.053000000000000005,-0.2899943809462031,-0.8105739806045736,1.3910767043631251,-1.57,4.71159,0.0,0.75,58
1753425400.062869,59,389.4613422494527,221.05680515785812,394.4357013402654,220.55108622836244,0.5972178506701327,-0.039724456885818785,-0.09249999999999994,0.5972178506701327,-0.039724456885818785,0.053000000000000005,-0.2892418551693461,-0.8056517759970787,1.3817517294785242,-1.57,4.71159,0.0,0.75,59
1753425400.0826569,60,394.4357013402655,220.55108622836246,399.4319909787397,220.35849897936544,0.5997159954893698,-0.03982075051031729,-0.09250000000000014,0.5997159954893698,-0.03982075051031729,0.053000000000000005,-0.2882502991492929,-0.8007745287001522,1.3725020884549781,-1.57,4.71159,0.0,0.75,60
1753425400.1040494,61,399.4319909787395,220.35849897936546,404.43051930885787,220.4798024542074,0.6022152596544289,-0.03976009877289631,-0.09250000000000014,0.6022152596544289,-0.03976009877289631,0.053000000000000005,-0.28702617919195067,-0.7959610878794168,1.3633639564904034,-1.57,4.71159,0.0,0.75,61
1753425400.1242008,62,400,300,480.0000000000003,300.0,0.6400000000000001,-1.3877787807814457e-17,-0.09250000000000014,0.6400000000000001,-1.3877787807814457e-17,0.053000000000000005,-0.21237346907137128,-0.7400259705286506,1.2565122925180772,-1.57,4.71159,0.0,0.0,0
1753425400.143266,63,480,300,479.6729843538493,304.98929461619304,0.6398364921769246,0.0024946473080965093,-0.09250000000000011,0.6398364921769246,0.0024946473080965093,0.053000000000000005,-0.2086975672887406,-0.7414903610940358,1.2593245836618026,-1.57,4.71159,0.0,0.041666666666666664,1
1753425400.1629777,64,479.6729843538494,304.98929461619304,479.1157776207008,309.95814968114854,0.6395578888103504,0.004979074840574277,-0.09250000000000022,0.6395578888103504,0.004979074840574277,0.053000000000000005,-0.20506523576452995,-0.7431704493106003,1.2625501596954807,-1.57,4.71159,0.0,0.08333333333333333,2
1753425400.1854274,65,479.1157776207007,309.95814968114854,478.29040513258855,314.8895551862623,0.6391452025662943,0.007444777593131169,-0.09250000000000011,0.6391452025662943,0.007444777593131169,0.053000000000000005,-0.20149347947932206,-0.7451018799112283,1.2662570230196355,-1.57,4.71159,0.0,0.125,3
1753425400.2024264,66,478.2904051325885,314.8895551862624,477.179094637553,319.764489953377,0.6385895473187765,0.009882244976688506,-0.09249999999999997,0.6385895473187765,0.009882244976688506,0.053000000000000005,-0.19799754362928254,-0.7472985852910398,1.2704713643360441,-1.57,4.71159,0.0,0.16666666666666666,4
1753425400.223425,67,477.1790946375531,319.76448995337705,475.7752780866558,324.56337514594276,0.6378876390433279,0.012281687572971378,-0.09249999999999997,0.6378876390433279,0.012281687572971378,0.053000000000000005,-0.1945914531593893,-0.7497626230703626,1.2751964848281474,-1.57,4.71159,0.0,0.20833333333333334,5
1753425400.2424626,68,475.77527808665565,324.56337514594276,474.078812141249,329.26677851967906,0.6370394060706245,0.014633389259839522,-0.09250000000000028,0.6370394060706245,0.014633389259839522,0.053000000000000005,-0.19128834737281356,-0.7524893926561749,1.2804228357719942,-1.57,4.71159,0.0,0.25,6
1753425400.2642686,69,474.07881214124876,329.26677851967906,472.0934524054417,333.85571594782476,0.6360467262027208,0.016927857973912372,-0.09250000000000005,0.6360467262027208,0.016927857973912372,0.053000000000000005,-0.18810071275633758,-0.755470385278455,1.2861333177091543,-1.57,4.71159,0.0,0.25,7
1753425400.2839015,70,472.09345240544184,333.8557159478247,469.8255169400399,338.31177572354267,0.6349127584700199,0.019155887861771324,-0.0925000000000002,0.6349127584700199,0.019155887861771324,0.053000000000000005,-0.18504053780896731,-0.7586946409765805,1.2923060948852052,-1.57,4.71159,0.0,0.25,8
1753425400.303816,71,469.8255169400396,338.31177572354267,467.2831728702854,342.61717775250406,0.6336415864351427,0.021308588876252033,-0.09250000000000008,0.6336415864351427,0.021308588876252033,0.053000000000000005,-0.18211940621183856,-0.762149533780572,1.2989161190097263,-1.57,4.71159,0.0,0.25,9
1753425400.322791,72,467.2831728702855,342.617177752504,464.4760470439314,346.7548153145698,0.6322380235219657,0.023377407657284882,-0.09250000000000017,0.6322380235219657,0.023377407657284882,0.053000000000000005,-0.1793485443469418,-0.7658212099263277,1.305935986585247,-1.57,4.71159,0.0,0.25,10
1753425400.3454332,73,464.47604704393143,346.7548153145697,461.41500358376726,350.70829643062257,0.6307075017918836,0.02535414821531129,-0.09250000000000008,0.6307075017918836,0.02535414821531129,0.053000000000000005,-0.17673883685438527,-0.7696948475802371,1.3133364534552612,-1.57,4.71159,0.0,0.25,11
1753425400.3620017,74,461.41500358376715,350.70829643062257,458.11200614864174,354.4619890050826,0.6290560030743209,0.0272309945025413,-0.09250000000000033,0.6290560030743209,0.0272309945025413,0.053000000000000005,-0.17430082050603232,-0.7737548248332845,1.3210867731302687,-1.57,4.71159,0.0,0.25,12
1753425400.3830512,75,458.112006148642,354.46198900508256,454.58002215334454,358.0010692608786,0.6272900110766723,0.02900053463043928,-0.0925,0.6272900110766723,0.02900053463043928,0.053000000000000005,-0.1720446634669321,-0.7779848403263782,1.3291549439485264,-1.57,4.71159,0.0,0.25,13
1753425400.4023924,76,454.58002215334454,358.0010692608786,450.8329468548283,361.3115717464915,0.6254164734274141,0.030655785873245744,-0.09250000000000008,0.6254164734274141,0.030655785873245744,0.053000000000000005,-0.1699801345392776,-0.7823680090208415,1.3375079081368815,-1.57,4.71159,0.0,0.25,14
1753425400.422549,77,450.83294685482826,361.3115717464915,446.8855359895397,364.380439202183,0.6234427679947698,0.03219021960109151,-0.09249999999999994,0.6234427679947698,0.03219021960109151,0.053000000000000005,-0.16811656527000943,-0.7868869444565435,1.346111724372002,-1.57,4.71159,0.0,0.25,15
1753425400.4442928,78,446.88553598953985,364.38043920218297,442.75334124874354,367.19557092630043,0.6213766706243717,0.03359778546315023,-0.0925,0.6213766706243717,0.03359778546315023,0.053000000000000005,-0.16646280670238753,-0.7915238331843664,1.3549317245802952,-1.57,4.71159,0.0,0.25,16
1753425400.4633806,79,442.753341248743,367.1955709263005,438.4526457814205,369.7458686534975,0.6192263228907102,0.03487293432674874,-0.09250000000000008,0.6192263228907102,0.03487293432674874,0.053000000000000005,-0.16502718188732915,-0.7962605042365722,1.363932660297011,-1.57,4.71159,0.0,0.25,17
1753425400.4831996,80,438.4526457814204,369.7458686534975,434.0003984146022,372.0212792504356,0.6170001992073011,0.0360106396252178,-0.09250000000000011,0.6170001992073011,0.0360106396252178,0.053000000000000005,-0.16381743489626122,-0.8010784951198964,1.3730788412619965,-1.57,4.71159,0.0,0.25,18
1753425400.5025506,81,434.00039841460205,372.0212792504356,429.4141460553925,374.01283374319837,0.6147070730276962,0.03700641687159919,-0.09250000000000005,0.6147070730276962,0.03700641687159919,0.053000000000000005,-0.16284067688911125,-0.8059591151661883,1.382334267685805,-1.57,4.71159,0.0,0.25,19
1753425400.5224214,82,429.4141460553925,374.01283374319837,424.7119641389466,375.7126823319392,0.6123559820694733,0.037856341165969615,-0.09250000000000008,0.6123559820694733,0.037856341165969615,0.053000000000000005,-0.1621033297193195,-0.8108835067869001,1.3916627570696416,-1.57,4.71159,0.0,0.25,20
1753425400.542602,83,424.7119641389461,375.7126823319393,419.91238519406636,377.11412514271007,0.6099561925970332,0.03855706257135504,-0.0925000000000002,0.6099561925970332,0.03855706257135504,0.053000000000000005,-0.16161106755814453,-0.8158327050627094,1.4010280662453356,-1.57,4.71159,0.0,0.25,21
1753425400.562512,84,419.9123851940663,377.1141251427101,415.03432570656906,378.21163853052656,0.6075171628532845,0.03910581926526329,-0.09250000000000003,0.6075171628532845,0.03910581926526329,0.053000000000000005,-0.16136875706548015,-0.8207876960624656,1.4103940092341252,-1.57,4.71159,0.0,0.25,22
1753425400.5828238,85,415.03432570656895,378.2116385305266,410.0970115181707,379.0008967930979,0.6050485057590853,0.03950044839654895,-0.09249999999999997,0.6050485057590853,0.03950044839654895,0.053000000000000005,-0.16138039670673057,-0.8257294742780197,1.4197245715133673,-1.57,4.71159,0.0,0.25,23
1753425400.603503,86,410.0970115181704,379.0008967930979,405.11990202991507,379.4787891888479,0.6025599510149575,0.03973939459442394,-0.09250000000000011,0.6025599510149575,0.03973939459442394,0.053000000000000005,-0.16164905590393966,-0.8306390995591053,1.4289840212827374,-1.57,4.71159,0.0,0.25,24
1753425400.622382,87,405.11990202991507,379.4787891888479,400.1226134965917,379.6434321805469,0.6000613067482958,0.039821716090273435,-0.09250000000000008,0.6000613067482958,0.039821716090273435,0.053000000000000005,-0.16217681480671045,-0.8354977539234073,1.4381370183142286,-1.57,4.71159,0.0,0.25,25
1753425400.643553,88,400.1226134965918,379.64343218054694,395.12484170845795,379.4941768498767,0.597562420854229,0.03974708842493835,-0.09250000000000014,0.597562420854229,0.03974708842493835,0.053000000000000005,-0.1629647055685749,-0.8402867985957638,1.447148720943775,-1.57,4.71159,0.0,0.5,26
1753425400.6657186,89,395.1248417084579,379.49417684987674,390.1462843620976,379.03161145017543,0.5950731421810488,0.03951580572508773,-0.09250000000000011,0.5950731421810488,0.03951580572508773,0.053000000000000005,-0.16401265611224863,-0.8449878315948502,1.455984891713223,-1.57,4.71159,0.0,0.5,27
1753425400.6831095,90,390.14628436209756,379.03161145017543,385.2065634249849,378.2575590853774,0.5926032817124924,0.039128779542688716,-0.0925000000000002,0.5926032817124924,0.039128779542688716,0.053000000000000005,-0.1653194374576953,-0.8495827461352858,1.4646120020996682,-1.57,4.71159,0.0,0.5,28
1753425400.7040386,91,385.20656342498484,378.2575590853774,380.3251477990769,377.17507052325,0.5901625738995384,0.03858753526162499,-0.09250000000000008,0.5901625738995384,0.03858753526162499,0.053000000000000005,-0.16688261576515923,-0.8540537900484197,1.4729973366766245,-1.57,4.71159,0.0,0.5,29
1753425400.7228272,92,380.32514779907643,377.17507052325004,375.5212765879311,375.78841217069015,0.5877606382939655,0.03789420608534508,-0.0925,0.5877606382939655,0.03789420608534508,0.053000000000000005,-0.168698510306187,-0.8583836263473854,1.4811090969408316,-1.57,4.71159,0.0,0.5,30
1753425400.7428226,93,375.521276587931,375.78841217069015,370.8138832696391,374.10304925816945,0.5854069416348195,0.03705152462908473,-0.09250000000000003,0.5854069416348195,0.03705152462908473,0.053000000000000005,-0.1707621586139817,-0.8625553949730946,1.4889165049131903,-1.57,4.71159,0.0,0.5,31
1753425400.7641456,94,370.8138832696391,374.1030492581695,366.2215210743621,372.12562429944387,0.583110760537181,0.036062812149721936,-0.09249999999999994,0.583110760537181,0.036062812149721936,0.053000000000000005,-0.17306729007512608,-0.8665527756599193,1.496389906486178,-1.57,4.71159,0.0,0.5,32
1753425400.783746,95,366.22152107436216,372.12562429944387,361.76228986055537,369.86393091133607,0.5808811449302776,0.03493196545566802,-0.09250000000000014,0.5808811449302776,0.03493196545566802,0.053000000000000005,-0.1756063092030206,-0.870360051755493,1.5035008743473877,-1.57,4.71159,0.0,0.5,33
1753425400.803243,96,361.76228986055526,369.863930911336,357.4537647780701,367.32688309673046,0.578726882389035,0.033663441548365224,-0.09250000000000014,0.578726882389035,0.033663441548365224,0.053000000000000005,-0.17837028977514652,-0.8739621747214169,1.5102223101640466,-1.57,4.71159,0.0,0.5,34
1753425400.826309,97,357.4537647780701,367.32688309673046,353.3129269992899,364.5244801118221,0.576656463499645,0.03226224005591104,-0.09249999999999994,0.576656463499645,0.03226224005591104,0.053000000000000005,-0.18134898091827126,-0.8773448289340953,1.5165285455712627,-1.57,4.71159,0.0,0.5,35
1753425400.8424594,98,353.31292699928946,364.52448011182213,349.35609679130505,361.46776705607425,0.5746780483956525,0.030733883528037118,-0.09249999999999997,0.5746780483956525,0.030733883528037118,0.053000000000000005,-0.18453082608601143,-0.8804944963011492,1.5223954413721217,-1.57,4.71159,0.0,0.5,36
1753425400.862738,99,349.3560967913051,361.46776705607425,345.5988691929151,358.1687913402048,0.5727994345964575,0.029084395670102396,-0.09249999999999997,0.5727994345964575,0.029084395670102396,0.053000000000000005,-0.18790299569138963,-0.8833985201128339,1.5278004842355477,-1.57,4.71159,0.0,0.5,37
1753425400.883273,100,345.598869192915,358.1687913402048,342.0560525499642,354.6405552037722,0.5710280262749821,0.027320277601886093,-0.09250000000000008,0.5710280262749821,0.027320277601886093,0.053000000000000005,-0.19145143393465083,-0.886045167463605,1.5327228800727004,-1.57,4.71159,0.0,0.5,38
1753425400.9027607,101,342.05605254996397,354.64055520377224,338.7416101512696,350.8969644694994,0.5693708050756348,0.02544848223474968,-0.09249999999999997,0.5693708050756348,0.02544848223474968,0.053000000000000005,-0.19516092010719666,-0.8884236895103452,1.5371436431890568,-1.57,4.71159,0.0,0.5,39
1753425400.9226928,102,338.74161015126924,350.8969644694994,335.66860519516814,346.95277373631023,0.567834302597584,0.023476386868155126,-0.0925,0.567834302597584,0.023476386868155126,0.053000000000000005,-0.1990151443617171,-0.8905243787844676,1.5410456802511197,-1.57,4.71159,0.0,0.5,40
1753425400.9425044,103,335.6686051951679,346.9527737363103,332.84914930358684,342.82352822708856,0.5664245746517934,0.02141176411354427,-0.09249999999999992,0.5664245746517934,0.02141176411354427,0.053000000000000005,-0.20299679762423953,-0.892338622748205,1.5444138680770652,-1.57,4.71159,0.0,0.5,41
1753425400.9627569,104,332.8491493035869,342.8235282270885,330.29435478655677,338.52550252035365,0.5651471773932784,0.01926275126017682,-0.09250000000000017,0.5651471773932784,0.01926275126017682,0.053000000000000005,-0.20708767499554195,-0.8938589527833958,1.5472351242618905,-1.57,4.71159,0.0,0.5,42
1753425400.9863975,105,330.29435478655694,338.52550252035365,328.01429084531037,334.07563640733093,0.5640071454226552,0.017037818203665456,-0.09250000000000008,0.5640071454226552,0.017037818203665456,0.053000000000000005,-0.2112687916584253,-0.895079087825404,1.549498469680928,-1.57,4.71159,0.0,0.5,43
1753425401.0024579,106,328.0142908453105,334.0756364073309,326.01794388657987,329.4914681272209,0.5630089719432899,0.014745734063610447,-0.09250000000000005,0.5630089719432899,0.014745734063610447,0.053000000000000005,-0.21552050998598915,-0.8959939719059601,1.551195081980877,-1.57,4.71159,0.0,0.5,44
1753425401.0224917,107,326.01794388657976,329.4914681272209,324.3131821045083,324.7910652438089,0.5621565910522541,0.012395532621904445,-0.09249999999999992,0.5621565910522541,0.012395532621904445,0.053000000000000005,-0.21982267624703503,-0.8965998049458981,1.552318339263522,-1.57,4.71159,0.0,0.5,45
1753425401.042455,108,324.3131821045082,324.79106524380893,322.9067244697691,319.99295343584896,0.5614533622348845,0.009996476717924488,-0.09250000000000005,0.5614533622348845,0.009996476717924488,0.053000000000000005,-0.22415476504048656,-0.8968940662400148,1.5528638532912442,-1.57,4.71159,0.0,0.5,46
1753425401.0630605,109,322.9067244697692,319.992953435849,321.80411424811416,315.116043481882,0.560902057124057,0.007558021740940987,-0.09250000000000011,0.560902057124057,0.007558021740940987,0.053000000000000005,-0.228496029372733,-0.896875530198399,1.5528294916915182,-1.57,4.71159,0.0,0.5,47
1753425401.0845802,110,321.8041142481142,315.116043481882,321.00969715272265,310.17955672726094,0.5605048485763613,0.005089778363630476,-0.09250000000000008,0.5605048485763613,0.005089778363630476,0.053000000000000005,-0.2328256541298171,-0.8965442740473508,1.5522153888046752,-1.57,4.71159,0.0,0.5,48
1753425401.1028695,111,321.0096971527226,310.1795567272609,320.5266042164595,305.2029493271406,0.5602633021082297,0.0026014746635702884,-0.0925000000000002,0.5602633021082297,0.0026014746635702884,0.053000000000000005,-0.23712291059780355,-0.8959016773432155,1.5510239449993624,-1.57,4.71159,0.0,0.5,49
1753425401.1230614,112,320.5266042164592,305.20294932714063,320.3567394515473,300.20583556401283,0.5601783697257736,0.000102917782006412,-0.09250000000000028,0.5601783697257736,0.000102917782006412,0.053000000000000005,-0.2413673096540585,-0.8949504133084288,1.549259814466829,-1.57,4.71159,0.0,0.5,50
1753425401.1474571,113,320.3567394515476,300.2058355640128,320.5007723452938,295.20791054201425,0.5602503861726469,-0.002396044728992866,-0.09250000000000014,0.5602503861726469,-0.002396044728992866,0.053000000000000005,-0.2455387512909661,-0.8936944321546346,1.5469298816913857,-1.57,4.71159,0.0,0.75,51
1753425401.162496,114,320.5007723452939,295.2079105420143,320.9581352214409,290.2288725626931,0.5604790676107204,-0.004885563718653466,-0.0925,0.5604790676107204,-0.004885563718653466,0.053000000000000005,-0.24961766823999992,-0.8921389367069239,1.5440432269733846,-1.57,4.71159,0.0,0.75,52
1753425401.1835265,115,320.9581352214408,290.2288725626931,321.7270254775458,285.28834548817287,0.5608635127387729,-0.007355827255913577,-0.09250000000000014,0.5608635127387729,-0.007355827255913577,0.053000000000000005,-0.2535851616331212,-0.8902903507802488,1.5406110815461507,-1.57,4.71159,0.0,0.75,53
1753425401.2023764,116,321.72702547754585,285.2883454881729,322.8044126895718,280.4058013977049,0.5614022063447859,-0.009797099301147527,-0.09249999999999997,0.5614022063447859,-0.009797099301147527,0.053000000000000005,-0.2574231268624891,-0.8881562808789558,1.5366467729737867,-1.57,4.71159,0.0,0.75,54
1753425401.2228403,117,322.8044126895718,280.405801397705,324.1860505556849,275.6004838424416,0.5620930252778424,-0.012199758078779224,-0.0925000000000002,0.5620930252778424,-0.012199758078779224,0.053000000000000005,-0.26111436806844435,-0.8857454718889103,1.5321656616375863,-1.57,4.71159,0.0,0.75,55
1753425401.242909,118,324.1860505556849,275.6004838424415,325.86649363218675,270.89133200090595,0.5629332468160934,-0.014554333999547017,-0.09249999999999997,0.5629332468160934,-0.014554333999547017,0.053000000000000005,-0.26464269998805784,-0.8830677575058594,1.5271850692112714,-1.57,4.71159,0.0,0.75,56
1753425401.2633955,119,325.8664936321865,270.891332000906,327.8391187956188,266.2969060340854,0.5639195593978094,-0.016851546982957294,-0.09249999999999997,0.5639195593978094,-0.016851546982957294,0.053000000000000005,-0.26799303621968357,-0.8801340061916946,1.5217242000868172,-1.57,4.71159,0.0,0.75,57
1753425401.2831857,120,327.8391187956187,266.2969060340854,330.09615134645276,261.83531393434396,0.5650480756732263,-0.019082343032828006,-0.09250000000000008,0.5650480756732263,-0.019082343032828006,0.053000000000000005,-0.2711514632902174,-0.8769560634714091,1.5158040567421156,-1.57,4.71159,0.0,0.75,58
1753425401.3053775,121,330.09615134645287,261.83531393434396,332.62869565148264,257.52414015646605,0.5663143478257413,-0.021237929921766985,-0.09250000000000003,0.5663143478257413,-0.021237929921766985,0.053000000000000005,-0.2741053002389465,-0.8735466913785197,1.509447350039228,-1.57,4.71159,0.0,0.75,59
1753425401.3225546,122,332.6286956514824,257.5241401564661,335.42677020414567,253.3803763121163,0.5677133851020728,-0.023309811843941847,-0.09249999999999997,0.5677133851020728,-0.023309811843941847,0.053000000000000005,-0.276843143743914,-0.8699195058270117,1.5026784054088296,-1.57,4.71159,0.0,0.75,60
1753425401.3432157,123,335.4267702041456,253.3803763121163,338.47934696459555,249.42035420086972,0.5692396734822978,-0.025289822899565134,-0.09250000000000005,0.5692396734822978,-0.025289822899565134,0.053000000000000005,-0.27935489910414757,-0.8660889126361061,1.4955230658150525,-1.57,4.71159,0.0,0.75,61
1753425401.3628056,124,338.47934696459544,249.42035420086972,341.7743948244699,245.65968144175642,0.5708871974122349,-0.027170159279121794,-0.09250000000000014,0.5708871974122349,-0.027170159279121794,0.053000000000000005,-0.2816317976463787,-0.8620700428634582,1.488008592308526,-1.57,4.71159,0.0,0.75,62
1753425401.383562,125,341.77439482446994,245.6596814417564,345.2989270250496,242.11317995901618,0.5726494635125248,-0.028943410020491916,-0.09249999999999997,0.5726494635125248,-0.028943410020491916,0.053000000000000005,-0.28366640134258075,-0.8578786880165363,1.4801635628680496,-1.57,4.71159,0.0,0.75,63
1753425401.4030433,126,345.29892702504935,242.11317995901624,349.0390523419163,238.79482756450903,0.5745195261709581,-0.030602586217745475,-0.09250000000000003,0.5745195261709581,-0.030602586217745475,0.053000000000000005,-0.2854525956014826,-0.853531235614752,1.47201777010736,-1.57,4.71159,0.0,0.75,64
1753425401.4225218,127,349.0390523419165,238.79482756450906,352.98002983438136,235.71770286702218,0.5764900149171907,-0.03214114856648892,-0.09250000000000014,0.5764900149171907,-0.03214114856648892,0.053000000000000005,-0.28698557133191543,-0.8490446054705048,1.4636021182877228,-1.57,4.71159,0.0,0.75,65
1753425401.443078,128,352.98002983438136,235.71770286702213,357.10632694389267,232.89393372560195,0.5785531634719463,-0.033553033137199026,-0.09250000000000005,0.5785531634719463,-0.033553033137199026,0.053000000000000005,-0.2882617974689836,-0.8444361869495489,1.4549485199343903,-1.57,4.71159,0.0,0.75,66
1753425401.4660192,129,357.10632694389284,232.89393372560195,361.4016807124466,230.33464945007307,0.5807008403562233,-0.03483267527496346,-0.09250000000000011,0.5807008403562233,-0.03483267527496346,0.053000000000000005,-0.28927898520773293,-0.8397237773636668,1.4460897922102123,-1.57,4.71159,0.0,0.75,67
1753425401.482864,130,361.4016807124466,230.33464945007304,365.8491618797169,228.04993693713445,0.5829245809398584,-0.03597503153143278,-0.09250000000000022,0.5829245809398584,-0.03597503153143278,0.053000000000000005,-0.29003604520654375,-0.834925521544958,1.437059553057567,-1.57,4.71159,0.0,0.75,68
1753425401.5027087,131,365.84916187971663,228.0499369371345,370.4312416062797,226.04880091491486,0.5852156208031398,-0.03697559954254258,-0.09249999999999992,0.5852156208031398,-0.03697559954254258,0.053000000000000005,-0.29053303900812716,-0.83005985255412,1.4278921169848304,-1.57,4.71159,0.0,0.75,69
1753425401.5227866,132,370.43124160627946,226.0488009149149,375.12986055995697,224.3391284526743,0.5875649302799785,-0.037830435773662865,-0.09250000000000008,0.5875649302799785,-0.037830435773662865,0.053000000000000005,-0.29077112588450127,-0.8251454333875419,1.418622390250065,-1.57,4.71159,0.0,0.75,70
1753425401.5424469,133,375.129860559957,224.33912845267423,379.9265000929898,222.92765787552983,0.5899632500464949,-0.038536171062235086,-0.09250000000000005,0.5899632500464949,-0.038536171062235086,0.053000000000000005,-0.29075250624868887,-0.8202010994721063,1.409285765086508,-1.57,4.71159,0.0,0.75,71
1753425401.5627353,134,379.92650009299,222.9276578755298,384.80225522950906,221.81995220672258,0.5924011276147545,-0.03909002389663871,-0.09249999999999994,0.5924011276147545,-0.03909002389663871,0.053000000000000005,-0.2904803626951054,-0.815245801674202,1.3999180125254234,-1.57,4.71159,0.0,0.75,72
1753425401.5828512,135,384.8022552295089,221.81995220672266,389.73790917563844,221.02037724209697,0.5948689545878192,-0.03948981137895151,-0.09250000000000003,0.5948689545878192,-0.03948981137895151,0.053000000000000005,-0.28995879963747345,-0.8102985495021153,1.3905551733053811,-1.57,4.71159,0.0,0.75,73
1753425401.6026614,136,389.7379091756386,221.02037724209694,394.7140090585682,220.53208434320666,0.5973570045292841,-0.03973395782839667,-0.09250000000000014,0.5973570045292841,-0.03973395782839667,0.053000000000000005,-0.28919278241199536,-0.8053783541499936,1.3812334463161071,-1.57,4.71159,0.0,0.75,74
1753425401.626469,137,394.7140090585682,220.53208434320666,399.7109425960822,220.35699801686678,0.5998554712980411,-0.0398215009915666,-0.09250000000000003,0.5998554712980411,-0.0398215009915666,0.053000000000000005,-0.2881880766083441,-0.8005041710179184,1.3719890740124112,-1.57,4.71159,0.0,0.75,75
1753425401.6429546,138,399.71094259608185,220.3569980168668,404.7090153943656,220.4958083301027,0.6023545076971828,-0.03975209583494864,-0.09250000000000028,0.6023545076971828,-0.03975209583494864,0.053000000000000005,-0.28695118828513416,-0.7956948413470029,1.3628582242517295,-1.57,4.71159,0.0,0.75,76
1753425401.6640053,139,400,300,480.0000000000003,300.0,0.6400000000000001,-1.3877787807814457e-17,-0.09250000000000014,0.6400000000000001,-1.3877787807814457e-17,0.053000000000000005,-0.21237346907137128,-0.7400259705286506,1.2565122925180772,-1.57,4.71159,0.0,0.0,0
1753425401.6827416,140,480,300,479.6729843538493,304.98929461619304,0.6398364921769246,0.0024946473080965093,-0.09250000000000011,0.6398364921769246,0.0024946473080965093,0.053000000000000005,-0.2086975672887406,-0.7414903610940358,1.2593245836618026,-1.57,4.71159,0.0,0.041666666666666664,1
1753425401.7024283,141,479.6729843538494,304.98929461619304,479.1157776207008,309.95814968114854,0.6395578888103504,0.004979074840574277,-0.09250000000000022,0.6395578888103504,0.004979074840574277,0.053000000000000005,-0.20506523576452995,-0.7431704493106003,1.2625501596954807,-1.57,4.71159,0.0,0.08333333333333333,2
1753425401.7234054,142,479.1157776207007,309.95814968114854,478.29040513258855,314.8895551862623,0.6391452025662943,0.007444777593131169,-0.09250000000000011,0.6391452025662943,0.007444777593131169,0.053000000000000005,-0.20149347947932206,-0.7451018799112283,1.2662570230196355,-1.57,4.71159,0.0,0.125,3
1753425401.743413,143,478.2904051325885,314.8895551862624,477.179094637553,319.764489953377,0.6385895473187765,0.009882244976688506,-0.09249999999999997,0.6385895473187765,0.009882244976688506,0.053000000000000005,-0.19799754362928254,-0.7472985852910398,1.2704713643360441,-1.57,4.71159,0.0,0.16666666666666666,4
1753425401.7626653,144,477.1790946375531,319.76448995337705,475.7752780866558,324.56337514594276,0.6378876390433279,0.012281687572971378,-0.09249999999999997,0.6378876390433279,0.012281687572971378,0.053000000000000005,-0.1945914531593893,-0.7497626230703626,1.2751964848281474,-1.57,4.71159,0.0,0.20833333333333334,5
1753425401.7826247,145,475.77527808665565,324.56337514594276,474.078812141249,329.26677851967906,0.6370394060706245,0.014633389259839522,-0.09250000000000028,0.6370394060706245,0.014633389259839522,0.053000000000000005,-0.19128834737281356,-0.7524893926561749,1.2804228357719942,-1.57,4.71159,0.0,0.25,6
1753425401.8037004,146,474.07881214124876,329.26677851967906,472.0934524054417,333.85571594782476,0.6360467262027208,0.016927857973912372,-0.09250000000000005,0.6360467262027208,0.016927857973912372,0.053000000000000005,-0.18810071275633758,-0.755470385278455,1.2861333177091543,-1.57,4.71159,0.0,0.25,7
1753425401.823553,147,472.09345240544184,333.8557159478247,469.8255169400399,338.31177572354267,0.6349127584700199,0.019155887861771324,-0.0925000000000002,0.6349127584700199,0.019155887861771324,0.053000000000000005,-0.18504053780896731,-0.7586946409765805,1.2923060948852052,-1.57,4.71159,0.0,0.25,8
1753425401.8426054,148,469.8255169400396,338.31177572354267,467.2831728702854,342.61717775250406,0.6336415864351427,0.021308588876252033,-0.09250000000000008,0.6336415864351427,0.021308588876252033,0.053000000000000005,-0.18211940621183856,-0.762149533780572,1.2989161190097263,-1.57,4.71159,0.0,0.25,9
1753425401.8628128,149,467.2831728702855,342.617177752504,464.4760470439314,346.7548153145698,0.6322380235219657,0.023377407657284882,-0.09250000000000017,0.6322380235219657,0.023377407657284882,0.053000000000000005,-0.1793485443469418,-0.7658212099263277,1.305935986585247,-1.57,4.71159,0.0,0.25,10
1753425401.88512,150,464.47604704393143,346.7548153145697,461.41500358376726,350.70829643062257,0.6307075017918836,0.02535414821531129,-0.09250000000000008,0.6307075017918836,0.02535414821531129,0.053000000000000005,-0.17673883685438527,-0.7696948475802371,1.3133364534552612,-1.57,4.71159,0.0,0.25,11
1753425401.9044456,151,461.41500358376715,350.70829643062257,458.11200614864174,354.4619890050826,0.6290560030743209,0.0272309945025413,-0.09250000000000033,0.6290560030743209,0.0272309945025413,0.053000000000000005,-0.17430082050603232,-0.7737548248332845,1.3210867731302687,-1.57,4.71159,0.0,0.25,12
1753425401.9229126,152,458.112006148642,354.46198900508256,454.58002215334454,358.0010692608786,0.6272900110766723,0.02900053463043928,-0.0925,0.6272900110766723,0.02900053463043928,0.053000000000000005,-0.1720446634669321,-0.7779848403263782,1.3291549439485264,-1.57,4.71159,0.0,0.25,13
1753425401.942696,153,454.58002215334454,358.0010692608786,450.8329468548283,361.3115717464915,0.6254164734274141,0.030655785873245744,-0.09250000000000008,0.6254164734274141,0.030655785873245744,0.053000000000000005,-0.1699801345392776,-0.7823680090208415,1.3375079081368815,-1.57,4.71159,0.0,0.25,14
1753425401.9640932,154,450.83294685482826,361.3115717464915,446.8855359895397,364.380439202183,0.6234427679947698,0.03219021960109151,-0.09249999999999994,0.6234427679947698,0.03219021960109151,0.053000000000000005,-0.16811656527000943,-0.7868869444565435,1.346111724372002,-1.57,4.71159,0.0,0.25,15
1753425401.9827216,155,446.88553598953985,364.38043920218297,442.75334124874354,367.19557092630043,0.6213766706243717,0.03359778546315023,-0.0925,0.6213766706243717,0.03359778546315023,0.053000000000000005,-0.16646280670238753,-0.7915238331843664,1.3549317245802952,-1.57,4.71159,0.0,0.25,16
1753425402.0024195,156,442.753341248743,367.1955709263005,438.4526457814205,369.7458686534975,0.6192263228907102,0.03487293432674874,-0.09250000000000008,0.6192263228907102,0.03487293432674874,0.053000000000000005,-0.16502718188732915,-0.7962605042365722,1.363932660297011,-1.57,4.71159,0.0,0.25,17
1753425402.0230787,157,438.4526457814204,369.7458686534975,434.0003984146022,372.0212792504356,0.6170001992073011,0.0360106396252178,-0.09250000000000011,0.6170001992073011,0.0360106396252178,0.053000000000000005,-0.16381743489626122,-0.8010784951198964,1.3730788412619965,-1.57,4.71159,0.0,0.25,18
1753425402.0434744,158,434.00039841460205,372.0212792504356,429.4141460553925,374.01283374319837,0.6147070730276962,0.03700641687159919,-0.09250000000000005,0.6147070730276962,0.03700641687159919,0.053000000000000005,-0.16284067688911125,-0.8059591151661883,1.382334267685805,-1.57,4.71159,0.0,0.25,19
1753425402.0630589,159,429.4141460553925,374.01283374319837,424.7119641389466,375.7126823319392,0.6123559820694733,0.037856341165969615,-0.09250000000000008,0.6123559820694733,0.037856341165969615,0.053000000000000005,-0.1621033297193195,-0.8108835067869001,1.3916627570696416,-1.57,4.71159,0.0,0.25,20
1753425402.082937,160,424.7119641389461,375.7126823319393,419.91238519406636,377.11412514271007,0.6099561925970332,0.03855706257135504,-0.0925000000000002,0.6099561925970332,0.03855706257135504,0.053000000000000005,-0.16161106755814453,-0.8158327050627094,1.4010280662453356,-1.57,4.71159,0.0,0.25,21
1753425402.1034296,161,419.9123851940663,377.1141251427101,415.03432570656906,378.21163853052656,0.6075171628532845,0.03910581926526329,-0.09250000000000003,0.6075171628532845,0.03910581926526329,0.053000000000000005,-0.16136875706548015,-0.8207876960624656,1.4103940092341252,-1.57,4.71159,0.0,0.25,22
1753425402.122689,162,415.03432570656895,378.2116385305266,410.0970115181707,379.0008967930979,0.6050485057590853,0.03950044839654895,-0.09249999999999997,0.6050485057590853,0.03950044839654895,0.053000000000000005,-0.16138039670673057,-0.8257294742780197,1.4197245715133673,-1.57,4.71159,0.0,0.25,23
1753425402.1425667,163,410.0970115181704,379.0008967930979,405.11990202991507,379.4787891888479,0.6025599510149575,0.03973939459442394,-0.09250000000000011,0.6025599510149575,0.03973939459442394,0.053000000000000005,-0.16164905590393966,-0.8306390995591053,1.4289840212827374,-1.57,4.71159,0.0,0.25,24
1753425402.1626353,164,405.11990202991507,379.4787891888479,400.1226134965917,379.6434321805469,0.6000613067482958,0.039821716090273435,-0.09250000000000008,0.6000613067482958,0.039821716090273435,0.053000000000000005,-0.16217681480671045,-0.8354977539234073,1.4381370183142286,-1.57,4.71159,0.0,0.25,25
1753425402.1824634,165,400.1226134965918,379.64343218054694,395.12484170845795,379.4941768498767,0.597562420854229,0.03974708842493835,-0.09250000000000014,0.597562420854229,0.03974708842493835,0.053000000000000005,-0.1629647055685749,-0.8402867985957638,1.447148720943775,-1.57,4.71159,0.0,0.5,26
1753425402.2027328,166,395.1248417084579,379.49417684987674,390.1462843620976,379.03161145017543,0.5950731421810488,0.03951580572508773,-0.09250000000000011,0.5950731421810488,0.03951580572508773,0.053000000000000005,-0.16401265611224863,-0.8449878315948502,1.455984891713223,-1.57,4.71159,0.0,0.5,27
1753425402.2228787,167,390.14628436209756,379.03161145017543,385.2065634249849,378.2575590853774,0.5926032817124924,0.039128779542688716,-0.0925000000000002,0.5926032817124924,0.039128779542688716,0.053000000000000005,-0.1653194374576953,-0.8495827461352858,1.4646120020996682,-1.57,4.71159,0.0,0.5,28
1753425402.2424934,168,385.20656342498484,378.2575590853774,380.3251477990769,377.17507052325,0.5901625738995384,0.03858753526162499,-0.09250000000000008,0.5901625738995384,0.03858753526162499,0.053000000000000005,-0.16688261576515923,-0.8540537900484197,1.4729973366766245,-1.57,4.71159,0.0,0.5,29
1753425402.2658348,169,380.32514779907643,377.17507052325004,375.5212765879311,375.78841217069015,0.5877606382939655,0.03789420608534508,-0.0925,0.5877606382939655,0.03789420608534508,0.053000000000000005,-0.168698510306187,-0.8583836263473854,1.4811090969408316,-1.57,4.71159,0.0,0.5,30
1753425402.2835238,170,375.521276587931,375.78841217069015,370.8138832696391,374.10304925816945,0.5854069416348195,0.03705152462908473,-0.09250000000000003,0.5854069416348195,0.03705152462908473,0.053000000000000005,-0.1707621586139817,-0.8625553949730946,1.4889165049131903,-1.57,4.71159,0.0,0.5,31
1753425402.3036325,171,370.8138832696391,374.1030492581695,366.2215210743621,372.12562429944387,0.583110760537181,0.036062812149721936,-0.09249999999999994,0.583110760537181,0.036062812149721936,0.053000000000000005,-0.17306729007512608,-0.8665527756599193,1.496389906486178,-1.57,4.71159,0.0,0.5,32
1753425402.322759,172,366.22152107436216,372.12562429944387,361.76228986055537,369.86393091133607,0.5808811449302776,0.03493196545566802,-0.09250000000000014,0.5808811449302776,0.03493196545566802,0.053000000000000005,-0.1756063092030206,-0.870360051755493,1.5035008743473877,-1.57,4.71159,0.0,0.5,33
1753425402.3427763,173,361.76228986055526,369.863930911336,357.4537647780701,367.32688309673046,0.578726882389035,0.033663441548365224,-0.09250000000000014,0.578726882389035,0.033663441548365224,0.053000000000000005,-0.17837028977514652,-0.8739621747214169,1.5102223101640466,-1.57,4.71159,0.0,0.5,34
1753425402.3631878,174,357.4537647780701,367.32688309673046,353.3129269992899,364.5244801118221,0.576656463499645,0.03226224005591104,-0.09249999999999994,0.576656463499645,0.03226224005591104,0.053000000000000005,-0.18134898091827126,-0.8773448289340953,1.5165285455712627,-1.57,4.71159,0.0,0.5,35
1753425402.383232,175,353.31292699928946,364.52448011182213,349.35609679130505,361.46776705607425,0.5746780483956525,0.030733883528037118,-0.09249999999999997,0.5746780483956525,0.030733883528037118,0.053000000000000005,-0.18453082608601143,-0.8804944963011492,1.5223954413721217,-1.57,4.71159,0.0,0.5,36
1753425402.4027746,176,349.3560967913051,361.46776705607425,345.5988691929151,358.1687913402048,0.5727994345964575,0.029084395670102396,-0.09249999999999997,0.5727994345964575,0.029084395670102396,0.053000000000000005,-0.18790299569138963,-0.8833985201128339,1.5278004842355477,-1.57,4.71159,0.0,0.5,37
1753425402.4241266,177,345.598869192915,358.1687913402048,342.0560525499642,354.6405552037722,0.5710280262749821,0.027320277601886093,-0.09250000000000008,0.5710280262749821,0.027320277601886093,0.053000000000000005,-0.19145143393465083,-0.886045167463605,1.5327228800727004,-1.57,4.71159,0.0,0.5,38
1753425402.4438713,178,342.05605254996397,354.64055520377224,338.7416101512696,350.8969644694994,0.5693708050756348,0.02544848223474968,-0.09249999999999997,0.5693708050756348,0.02544848223474968,0.053000000000000005,-0.19516092010719666,-0.8884236895103452,1.5371436431890568,-1.57,4.71159,0.0,0.5,39
1753425402.4635406,179,338.74161015126924,350.8969644694994,335.66860519516814,346.95277373631023,0.567834302597584,0.023476386868155126,-0.0925,0.567834302597584,0.023476386868155126,0.053000000000000005,-0.1990151443617171,-0.8905243787844676,1.5410456802511197,-1.57,4.71159,0.0,0.5,40
1753425402.4829683,180,335.6686051951679,346.9527737363103,332.84914930358684,342.82352822708856,0.5664245746517934,0.02141176411354427,-0.09249999999999992,0.5664245746517934,0.02141176411354427,0.053000000000000005,-0.20299679762423953,-0.892338622748205,1.5444138680770652,-1.57,4.71159,0.0,0.5,41
1753425402.5042312,181,332.8491493035869,342.8235282270885,330.29435478655677,338.52550252035365,0.5651471773932784,0.01926275126017682,-0.09250000000000017,0.5651471773932784,0.01926275126017682,0.053000000000000005,-0.20708767499554195,-0.8938589527833958,1.5472351242618905,-1.57,4.71159,0.0,0.5,42
1753425402.522547,182,330.29435478655694,338.52550252035365,328.01429084531037,334.07563640733093,0.5640071454226552,0.017037818203665456,-0.09250000000000008,0.5640071454226552,0.017037818203665456,0.053000000000000005,-0.2112687916584253,-0.895079087825404,1.549498469680928,-1.57,4.71159,0.0,0.5,43
1753425402.5429978,183,328.0142908453105,334.0756364073309,326.01794388657987,329.4914681272209,0.5630089719432899,0.014745734063610447,-0.09250000000000005,0.5630089719432899,0.014745734063610447,0.053000000000000005,-0.21552050998598915,-0.8959939719059601,1.551195081980877,-1.57,4.71159,0.0,0.5,44
1753425402.563021,184,326.01794388657976,329.4914681272209,324.3131821045083,324.7910652438089,0.5621565910522541,0.012395532621904445,-0.09249999999999992,0.5621565910522541,0.012395532621904445,0.053000000000000005,-0.21982267624703503,-0.8965998049458981,1.552318339263522,-1.57,4.71159,0.0,0.5,45
1753425402.5834851,185,324.3131821045082,324.79106524380893,322.9067244697691,319.99295343584896,0.5614533622348845,0.009996476717924488,-0.09250000000000005,0.5614533622348845,0.009996476717924488,0.053000000000000005,-0.22415476504048656,-0.8968940662400148,1.5528638532912442,-1.57,4.71159,0.0,0.5,46
1753425402.6032438,186,322.9067244697692,319.992953435849,321.80411424811416,315.116043481882,0.560902057124057,0.007558021740940987,-0.09250000000000011,0.560902057124057,0.007558021740940987,0.053000000000000005,-0.228496029372733,-0.896875530198399,1.5528294916915182,-1.57,4.71159,0.0,0.5,47
1753425402.6232686,187,321.8041142481142,315.116043481882,321.00969715272265,310.17955672726094,0.5605048485763613,0.005089778363630476,-0.09250000000000008,0.5605048485763613,0.005089778363630476,0.053000000000000005,-0.2328256541298171,-0.8965442740473508,1.5522153888046752,-1.57,4.71159,0.0,0.5,48
1753425402.6430147,188,321.0096971527226,310.1795567272609,320.5266042164595,305.2029493271406,0.5602633021082297,0.0026014746635702884,-0.0925000000000002,0.5602633021082297,0.0026014746635702884,0.053000000000000005,-0.23712291059780355,-0.8959016773432155,1.5510239449993624,-1.57,4.71159,0.0,0.5,49
1753425402.6629946,189,320.5266042164592,305.20294932714063,320.3567394515473,300.20583556401283,0.5601783697257736,0.000102917782006412,-0.09250000000000028,0.5601783697257736,0.000102917782006412,0.053000000000000005,-0.2413673096540585,-0.8949504133084288,1.549259814466829,-1.57,4.71159,0.0,0.5,50
1753425402.683107,190,320.3567394515476,300.2058355640128,320.5007723452938,295.20791054201425,0.5602503861726469,-0.002396044728992866,-0.09250000000000014,0.5602503861726469,-0.002396044728992866,0.053000000000000005,-0.2455387512909661,-0.8936944321546346,1.5469298816913857,-1.57,4.71159,0.0,0.75,51
1753425402.7037365,191,320.5007723452939,295.2079105420143,320.9581352214409,290.2288725626931,0.5604790676107204,-0.004885563718653466,-0.0925,0.5604790676107204,-0.004885563718653466,0.053000000000000005,-0.24961766823999992,-0.8921389367069239,1.5440432269733846,-1.57,4.71159,0.0,0.75,52
1753425402.7226746,192,320.9581352214408,290.2288725626931,321.7270254775458,285.28834548817287,0.5608635127387729,-0.007355827255913577,-0.09250000000000014,0.5608635127387729,-0.007355827255913577,0.053000000000000005,-0.2535851616331212,-0.8902903507802488,1.5406110815461507,-1.57,4.71159,0.0,0.75,53
1753425402.745241,193,321.72702547754585,285.2883454881729,322.8044126895718,280.4058013977049,0.5614022063447859,-0.009797099301147527,-0.09249999999999997,0.5614022063447859,-0.009797099301147527,0.053000000000000005,-0.2574231268624891,-0.8881562808789558,1.5366467729737867,-1.57,4.71159,0.0,0.75,54
1753425402.763256,194,322.8044126895718,280.405801397705,324.1860505556849,275.6004838424416,0.5620930252778424,-0.012199758078779224,-0.0925000000000002,0.5620930252778424,-0.012199758078779224,0.053000000000000005,-0.26111436806844435,-0.8857454718889103,1.5321656616375863,-1.57,4.71159,0.0,0.75,55
1753425402.7825968,195,324.1860505556849,275.6004838424415,325.86649363218675,270.89133200090595,0.5629332468160934,-0.014554333999547017,-0.09249999999999997,0.5629332468160934,-0.014554333999547017,0.053000000000000005,-0.26464269998805784,-0.8830677575058594,1.5271850692112714,-1.57,4.71159,0.0,0.75,56
1753425402.8031838,196,325.8664936321865,270.891332000906,327.8391187956188,266.2969060340854,0.5639195593978094,-0.016851546982957294,-0.09249999999999997,0.5639195593978094,-0.016851546982957294,0.053000000000000005,-0.26799303621968357,-0.8801340061916946,1.5217242000868172,-1.57,4.71159,0.0,0.75,57
1753425402.8227913,197,327.8391187956187,266.2969060340854,330.09615134645276,261.83531393434396,0.5650480756732263,-0.019082343032828006,-0.09250000000000008,0.5650480756732263,-0.019082343032828006,0.053000000000000005,-0.2711514632902174,-0.8769560634714091,1.5158040567421156,-1.57,4.71159,0.0,0.75,58
1753425402.842577,198,330.09615134645287,261.83531393434396,332.62869565148264,257.52414015646605,0.5663143478257413,-0.021237929921766985,-0.09250000000000003,0.5663143478257413,-0.021237929921766985,0.053000000000000005,-0.2741053002389465,-0.8735466913785197,1.509447350039228,-1.57,4.71159,0.0,0.75,59
1753425402.8627472,199,332.6286956514824,257.5241401564661,335.42677020414567,253.3803763121163,0.5677133851020728,-0.023309811843941847,-0.09249999999999997,0.5677133851020728,-0.023309811843941847,0.053000000000000005,-0.276843143743914,-0.8699195058270117,1.5026784054088296,-1.57,4.71159,0.0,0.75,60
1753425402.8840134,200,335.4267702041456,253.3803763121163,338.47934696459555,249.42035420086972,0.5692396734822978,-0.025289822899565134,-0.09250000000000005,0.5692396734822978,-0.025289822899565134,0.053000000000000005,-0.27935489910414757,-0.8660889126361061,1.4955230658150525,-1.57,4.71159,0.0,0.75,61
1753425402.903483,201,338.47934696459544,249.42035420086972,341.7743948244699,245.65968144175642,0.5708871974122349,-0.027170159279121794,-0.09250000000000014,0.5708871974122349,-0.027170159279121794,0.053000000000000005,-0.2816317976463787,-0.8620700428634582,1.488008592308526,-1.57,4.71159,0.0,0.75,62
1753425402.9228518,202,341.77439482446994,245.6596814417564,345.2989270250496,242.11317995901618,0.5726494635125248,-0.028943410020491916,-0.09249999999999997,0.5726494635125248,-0.028943410020491916,0.053000000000000005,-0.28366640134258075,-0.8578786880165363,1.4801635628680496,-1.57,4.71159,0.0,0.75,63
1753425402.9431994,203,345.29892702504935,242.11317995901624,349.0390523419163,238.79482756450903,0.5745195261709581,-0.030602586217745475,-0.09250000000000003,0.5745195261709581,-0.030602586217745475,0.053000000000000005,-0.2854525956014826,-0.853531235614752,1.47201777010736,-1.57,4.71159,0.0,0.75,64
1753425402.9629054,204,349.0390523419165,238.79482756450906,352.98002983438136,235.71770286702218,0.5764900149171907,-0.03214114856648892,-0.09250000000000014,0.5764900149171907,-0.03214114856648892,0.053000000000000005,-0.28698557133191543,-0.8490446054705048,1.4636021182877228,-1.57,4.71159,0.0,0.75,65
1753425402.9825673,205,352.98002983438136,235.71770286702213,357.10632694389267,232.89393372560195,0.5785531634719463,-0.033553033137199026,-0.09250000000000005,0.5785531634719463,-0.033553033137199026,0.053000000000000005,-0.2882617974689836,-0.8444361869495489,1.4549485199343903,-1.57,4.71159,0.0,0.75,66
1753425403.0032394,206,357.10632694389284,232.89393372560195,361.4016807124466,230.33464945007307,0.5807008403562233,-0.03483267527496346,-0.09250000000000011,0.5807008403562233,-0.03483267527496346,0.053000000000000005,-0.28927898520773293,-0.8397237773636668,1.4460897922102123,-1.57,4.71159,0.0,0.75,67
1753425403.0227275,207,361.4016807124466,230.33464945007304,365.8491618797169,228.04993693713445,0.5829245809398584,-0.03597503153143278,-0.09250000000000022,0.5829245809398584,-0.03597503153143278,0.053000000000000005,-0.29003604520654375,-0.834925521544958,1.437059553057567,-1.57,4.71159,0.0,0.75,68
1753425403.0426886,208,365.84916187971663,228.0499369371345,370.4312416062797,226.04880091491486,0.5852156208031398,-0.03697559954254258,-0.09249999999999992,0.5852156208031398,-0.03697559954254258,0.053000000000000005,-0.29053303900812716,-0.83005985255412,1.4278921169848304,-1.57,4.71159,0.0,0.75,69
1753425403.066033,209,370.43124160627946,226.0488009149149,375.12986055995697,224.3391284526743,0.5875649302799785,-0.037830435773662865,-0.09250000000000008,0.5875649302799785,-0.037830435773662865,0.053000000000000005,-0.29077112588450127,-0.8251454333875419,1.418622390250065,-1.57,4.71159,0.0,0.75,70
1753425403.0833693,210,375.129860559957,224.33912845267423,379.9265000929898,222.92765787552983,0.5899632500464949,-0.038536171062235086,-0.09250000000000005,0.5899632500464949,-0.038536171062235086,0.053000000000000005,-0.29075250624868887,-0.8202010994721063,1.409285765086508,-1.57,4.71159,0.0,0.75,71
1753425403.102555,211,379.92650009299,222.9276578755298,384.80225522950906,221.81995220672258,0.5924011276147545,-0.03909002389663871,-0.09249999999999994,0.5924011276147545,-0.03909002389663871,0.053000000000000005,-0.2904803626951054,-0.815245801674202,1.3999180125254234,-1.57,4.71159,0.0,0.75,72
1753425403.122457,212,384.8022552295089,221.81995220672266,389.73790917563844,221.02037724209697,0.5948689545878192,-0.03948981137895151,-0.09250000000000003,0.5948689545878192,-0.03948981137895151,0.053000000000000005,-0.28995879963747345,-0.8102985495021153,1.3905551733053811,-1.57,4.71159,0.0,0.75,73
1753425403.1426091,213,389.7379091756386,221.02037724209694,394.7140090585682,220.53208434320666,0.5973570045292841,-0.03973395782839667,-0.09250000000000014,0.5973570045292841,-0.03973395782839667,0.053000000000000005,-0.28919278241199536,-0.8053783541499936,1.3812334463161071,-1.57,4.71159,0.0,0.75,74
1753425403.1643925,214,394.7140090585682,220.53208434320666,399.7109425960822,220.35699801686678,0.5998554712980411,-0.0398215009915666,-0.09250000000000003,0.5998554712980411,-0.0398215009915666,0.053000000000000005,-0.2881880766083441,-0.8005041710179184,1.3719890740124112,-1.57,4.71159,0.0,0.75,75
1753425403.1826117,215,399.71094259608185,220.3569980168668,404.7090153943656,220.4958083301027,0.6023545076971828,-0.03975209583494864,-0.09250000000000028,0.6023545076971828,-0.03975209583494864,0.053000000000000005,-0.28695118828513416,-0.7956948413470029,1.3628582242517295,-1.57,4.71159,0.0,0.75,76
1753425403.2035837,216,400,300,480.0000000000003,300.0,0.6400000000000001,-1.3877787807814457e-17,-0.09250000000000014,0.6400000000000001,-1.3877787807814457e-17,0.053000000000000005,-0.21237346907137128,-0.7400259705286506,1.2565122925180772,-1.57,4.71159,0.0,0.0,0
1753425403.2267106,217,480,300,479.6729843538493,304.98929461619304,0.6398364921769246,0.0024946473080965093,-0.09250000000000011,0.6398364921769246,0.0024946473080965093,0.053000000000000005,-0.2086975672887406,-0.7414903610940358,1.2593245836618026,-1.57,4.71159,0.0,0.041666666666666664,1
1753425403.2432225,218,479.6729843538494,304.98929461619304,479.1157776207008,309.95814968114854,0.6395578888103504,0.004979074840574277,-0.09250000000000022,0.6395578888103504,0.004979074840574277,0.053000000000000005,-0.20506523576452995,-0.7431704493106003,1.2625501596954807,-1.57,4.71159,0.0,0.08333333333333333,2
1753425403.2629542,219,479.1157776207007,309.95814968114854,478.29040513258855,314.8895551862623,0.6391452025662943,0.007444777593131169,-0.09250000000000011,0.6391452025662943,0.007444777593131169,0.053000000000000005,-0.20149347947932206,-0.7451018799112283,1.2662570230196355,-1.57,4.71159,0.0,0.125,3
1753425403.2829568,220,478.2904051325885,314.8895551862624,477.179094637553,319.764489953377,0.6385895473187765,0.009882244976688506,-0.09249999999999997,0.6385895473187765,0.009882244976688506,0.053000000000000005,-0.19799754362928254,-0.7472985852910398,1.2704713643360441,-1.57,4.71159,0.0,0.16666666666666666,4
1753425403.303066,221,477.1790946375531,319.76448995337705,475.7752780866558,324.56337514594276,0.6378876390433279,0.012281687572971378,-0.09249999999999997,0.6378876390433279,0.012281687572971378,0.053000000000000005,-0.1945914531593893,-0.7497626230703626,1.2751964848281474,-1.57,4.71159,0.0,0.20833333333333334,5
1753425403.3235388,222,475.77527808665565,324.56337514594276,474.078812141249,329.26677851967906,0.6370394060706245,0.014633389259839522,-0.09250000000000028,0.6370394060706245,0.014633389259839522,0.053000000000000005,-0.19128834737281356,-0.7524893926561749,1.2804228357719942,-1.57,4.71159,0.0,0.25,6
1753425403.3433712,223,474.07881214124876,329.26677851967906,472.0934524054417,333.85571594782476,0.6360467262027208,0.016927857973912372,-0.09250000000000005,0.6360467262027208,0.016927857973912372,0.053000000000000005,-0.18810071275633758,-0.755470385278455,1.2861333177091543,-1.57,4.71159,0.0,0.25,7
1753425403.3626356,224,472.09345240544184,333.8557159478247,469.8255169400399,338.31177572354267,0.6349127584700199,0.019155887861771324,-0.0925000000000002,0.6349127584700199,0.019155887861771324,0.053000000000000005,-0.18504053780896731,-0.7586946409765805,1.2923060948852052,-1.57,4.71159,0.0,0.25,8
1753425403.3828983,225,469.8255169400396,338.31177572354267,467.2831728702854,342.61717775250406,0.6336415864351427,0.021308588876252033,-0.09250000000000008,0.6336415864351427,0.021308588876252033,0.053000000000000005,-0.18211940621183856,-0.762149533780572,1.2989161190097263,-1.57,4.71159,0.0,0.25,9
1753425403.4032753,226,467.2831728702855,342.617177752504,464.4760470439314,346.7548153145698,0.6322380235219657,0.023377407657284882,-0.09250000000000017,0.6322380235219657,0.023377407657284882,0.053000000000000005,-0.1793485443469418,-0.7658212099263277,1.305935986585247,-1.57,4.71159,0.0,0.25,10
1753425403.4233515,227,464.47604704393143,346.7548153145697,461.41500358376726,350.70829643062257,0.6307075017918836,0.02535414821531129,-0.09250000000000008,0.6307075017918836,0.02535414821531129,0.053000000000000005,-0.17673883685438527,-0.7696948475802371,1.3133364534552612,-1.57,4.71159,0.0,0.25,11
1753425403.4427264,228,461.41500358376715,350.70829643062257,458.11200614864174,354.4619890050826,0.6290560030743209,0.0272309945025413,-0.09250000000000033,0.6290560030743209,0.0272309945025413,0.053000000000000005,-0.17430082050603232,-0.7737548248332845,1.3210867731302687,-1.57,4.71159,0.0,0.25,12
1753425403.4636374,229,458.112006148642,354.46198900508256,454.58002215334454,358.0010692608786,0.6272900110766723,0.02900053463043928,-0.0925,0.6272900110766723,0.02900053463043928,0.053000000000000005,-0.1720446634669321,-0.7779848403263782,1.3291549439485264,-1.57,4.71159,0.0,0.25,13
1753425403.4841225,230,454.58002215334454,358.0010692608786,450.8329468548283,361.3115717464915,0.6254164734274141,0.030655785873245744,-0.09250000000000008,0.6254164734274141,0.030655785873245744,0.053000000000000005,-0.1699801345392776,-0.7823680090208415,1.3375079081368815,-1.57,4.71159,0.0,0.25,14
1753425403.5052679,231,450.83294685482826,361.3115717464915,446.8855359895397,364.380439202183,0.6234427679947698,0.03219021960109151,-0.09249999999999994,0.6234427679947698,0.03219021960109151,0.053000000000000005,-0.16811656527000943,-0.7868869444565435,1.346111724372002,-1.57,4.71159,0.0,0.25,15
1753425403.5241637,232,446.88553598953985,364.38043920218297,442.75334124874354,367.19557092630043,0.6213766706243717,0.03359778546315023,-0.0925,0.6213766706243717,0.03359778546315023,0.053000000000000005,-0.16646280670238753,-0.7915238331843664,1.3549317245802952,-1.57,4.71159,0.0,0.25,16
1753425403.5427353,233,442.753341248743,367.1955709263005,438.4526457814205,369.7458686534975,0.6192263228907102,0.03487293432674874,-0.09250000000000008,0.6192263228907102,0.03487293432674874,0.053000000000000005,-0.16502718188732915,-0.7962605042365722,1.363932660297011,-1.57,4.71159,0.0,0.25,17
1753425403.5632164,234,438.4526457814204,369.7458686534975,434.0003984146022,372.0212792504356,0.6170001992073011,0.0360106396252178,-0.09250000000000011,0.6170001992073011,0.0360106396252178,0.053000000000000005,-0.16381743489626122,-0.8010784951198964,1.3730788412619965,-1.57,4.71159,0.0,0.25,18
1753425403.5834162,235,434.00039841460205,372.0212792504356,429.4141460553925,374.01283374319837,0.6147070730276962,0.03700641687159919,-0.09250000000000005,0.6147070730276962,0.03700641687159919,0.053000000000000005,-0.16284067688911125,-0.8059591151661883,1.382334267685805,-1.57,4.71159,0.0,0.25,19
1753425403.6025434,236,429.4141460553925,374.01283374319837,424.7119641389466,375.7126823319392,0.6123559820694733,0.037856341165969615,-0.09250000000000008,0.6123559820694733,0.037856341165969615,0.053000000000000005,-0.1621033297193195,-0.8108835067869001,1.3916627570696416,-1.57,4.71159,0.0,0.25,20
1753425403.62331,237,424.7119641389461,375.7126823319393,419.91238519406636,377.11412514271007,0.6099561925970332,0.03855706257135504,-0.0925000000000002,0.6099561925970332,0.03855706257135504,0.053000000000000005,-0.16161106755814453,-0.8158327050627094,1.4010280662453356,-1.57,4.71159,0.0,0.25,21
1753425403.6429539,238,419.9123851940663,377.1141251427101,415.03432570656906,378.21163853052656,0.6075171628532845,0.03910581926526329,-0.09250000000000003,0.6075171628532845,0.03910581926526329,0.053000000000000005,-0.16136875706548015,-0.8207876960624656,1.4103940092341252,-1.57,4.71159,0.0,0.25,22
1753425403.662883,239,415.03432570656895,378.2116385305266,410.0970115181707,379.0008967930979,0.6050485057590853,0.03950044839654895,-0.09249999999999997,0.6050485057590853,0.03950044839654895,0.053000000000000005,-0.16138039670673057,-0.8257294742780197,1.4197245715133673,-1.57,4.71159,0.0,0.25,23
1753425403.6832268,240,410.0970115181704,379.0008967930979,405.11990202991507,379.4787891888479,0.6025599510149575,0.03973939459442394,-0.09250000000000011,0.6025599510149575,0.03973939459442394,0.053000000000000005,-0.16164905590393966,-0.8306390995591053,1.4289840212827374,-1.57,4.71159,0.0,0.25,24
1753425403.7044463,241,405.11990202991507,379.4787891888479,400.1226134965917,379.6434321805469,0.6000613067482958,0.039821716090273435,-0.09250000000000008,0.6000613067482958,0.039821716090273435,0.053000000000000005,-0.16217681480671045,-0.8354977539234073,1.4381370183142286,-1.57,4.71159,0.0,0.25,25
1753425403.7226324,242,400.1226134965918,379.64343218054694,395.12484170845795,379.4941768498767,0.597562420854229,0.03974708842493835,-0.09250000000000014,0.597562420854229,0.03974708842493835,0.053000000000000005,-0.1629647055685749,-0.8402867985957638,1.447148720943775,-1.57,4.71159,0.0,0.5,26
1753425403.7429605,243,395.1248417084579,379.49417684987674,390.1462843620976,379.03161145017543,0.5950731421810488,0.03951580572508773,-0.09250000000000011,0.5950731421810488,0.03951580572508773,0.053000000000000005,-0.16401265611224863,-0.8449878315948502,1.455984891713223,-1.57,4.71159,0.0,0.5,27
1753425403.7625515,244,390.14628436209756,379.03161145017543,385.2065634249849,378.2575590853774,0.5926032817124924,0.039128779542688716,-0.0925000000000002,0.5926032817124924,0.039128779542688716,0.053000000000000005,-0.1653194374576953,-0.8495827461352858,1.4646120020996682,-1.57,4.71159,0.0,0.5,28
1753425403.7833245,245,385.20656342498484,378.2575590853774,380.3251477990769,377.17507052325,0.5901625738995384,0.03858753526162499,-0.09250000000000008,0.5901625738995384,0.03858753526162499,0.053000000000000005,-0.16688261576515923,-0.8540537900484197,1.4729973366766245,-1.57,4.71159,0.0,0.5,29
1753425403.8028214,246,380.32514779907643,377.17507052325004,375.5212765879311,375.78841217069015,0.5877606382939655,0.03789420608534508,-0.0925,0.5877606382939655,0.03789420608534508,0.053000000000000005,-0.168698510306187,-0.8583836263473854,1.4811090969408316,-1.57,4.71159,0.0,0.5,30
1753425403.8225741,247,375.521276587931,375.78841217069015,370.8138832696391,374.10304925816945,0.5854069416348195,0.03705152462908473,-0.09250000000000003,0.5854069416348195,0.03705152462908473,0.053000000000000005,-0.1707621586139817,-0.8625553949730946,1.4889165049131903,-1.57,4.71159,0.0,0.5,31
1753425403.8425503,248,370.8138832696391,374.1030492581695,366.2215210743621,372.12562429944387,0.583110760537181,0.036062812149721936,-0.09249999999999994,0.583110760537181,0.036062812149721936,0.053000000000000005,-0.17306729007512608,-0.8665527756599193,1.496389906486178,-1.57,4.71159,0.0,0.5,32
1753425403.8638577,249,366.22152107436216,372.12562429944387,361.76228986055537,369.86393091133607,0.5808811449302776,0.03493196545566802,-0.09250000000000014,0.5808811449302776,0.03493196545566802,0.053000000000000005,-0.1756063092030206,-0.870360051755493,1.5035008743473877,-1.57,4.71159,0.0,0.5,33
1753425403.882907,250,361.76228986055526,369.863930911336,357.4537647780701,367.32688309673046,0.578726882389035,0.033663441548365224,-0.09250000000000014,0.578726882389035,0.033663441548365224,0.053000000000000005,-0.17837028977514652,-0.8739621747214169,1.5102223101640466,-1.57,4.71159,0.0,0.5,34
1753425403.902853,251,357.4537647780701,367.32688309673046,353.3129269992899,364.5244801118221,0.576656463499645,0.03226224005591104,-0.09249999999999994,0.576656463499645,0.03226224005591104,0.053000000000000005,-0.18134898091827126,-0.8773448289340953,1.5165285455712627,-1.57,4.71159,0.0,0.5,35
1753425403.9227633,252,353.31292699928946,364.52448011182213,349.35609679130505,361.46776705607425,0.5746780483956525,0.030733883528037118,-0.09249999999999997,0.5746780483956525,0.030733883528037118,0.053000000000000005,-0.18453082608601143,-0.8804944963011492,1.5223954413721217,-1.57,4.71159,0.0,0.5,36
1753425403.9433496,253,349.3560967913051,361.46776705607425,345.5988691929151,358.1687913402048,0.5727994345964575,0.029084395670102396,-0.09249999999999997,0.5727994345964575,0.029084395670102396,0.053000000000000005,-0.18790299569138963,-0.8833985201128339,1.5278004842355477,-1.57,4.71159,0.0,0.5,37
1753425403.9628668,254,345.598869192915,358.1687913402048,342.0560525499642,354.6405552037722,0.5710280262749821,0.027320277601886093,-0.09250000000000008,0.5710280262749821,0.027320277601886093,0.053000000000000005,-0.19145143393465083,-0.886045167463605,1.5327228800727004,-1.57,4.71159,0.0,0.5,38
1753425403.9826767,255,342.05605254996397,354.64055520377224,338.7416101512696,350.8969644694994,0.5693708050756348,0.02544848223474968,-0.09249999999999997,0.5693708050756348,0.02544848223474968,0.053000000000000005,-0.19516092010719666,-0.8884236895103452,1.5371436431890568,-1.57,4.71159,0.0,0.5,39
1753425404.0027907,256,338.74161015126924,350.8969644694994,335.66860519516814,346.95277373631023,0.567834302597584,0.023476386868155126,-0.0925,0.567834302597584,0.023476386868155126,0.053000000000000005,-0.1990151443617171,-0.8905243787844676,1.5410456802511197,-1.57,4.71159,0.0,0.5,40
1753425404.0272093,257,335.6686051951679,346.9527737363103,332.84914930358684,342.82352822708856,0.5664245746517934,0.02141176411354427,-0.09249999999999992,0.5664245746517934,0.02141176411354427,0.053000000000000005,-0.20299679762423953,-0.892338622748205,1.5444138680770652,-1.57,4.71159,0.0,0.5,41
1753425404.0431566,258,332.8491493035869,342.8235282270885,330.29435478655677,338.52550252035365,0.5651471773932784,0.01926275126017682,-0.09250000000000017,0.5651471773932784,0.01926275126017682,0.053000000000000005,-0.20708767499554195,-0.8938589527833958,1.5472351242618905,-1.57,4.71159,0.0,0.5,42
1753425404.0635505,259,330.29435478655694,338.52550252035365,328.01429084531037,334.07563640733093,0.5640071454226552,0.017037818203665456,-0.09250000000000008,0.5640071454226552,0.017037818203665456,0.053000000000000005,-0.2112687916584253,-0.895079087825404,1.549498469680928,-1.57,4.71159,0.0,0.5,43
1753425404.082642,260,328.0142908453105,334.0756364073309,326.01794388657987,329.4914681272209,0.5630089719432899,0.014745734063610447,-0.09250000000000005,0.5630089719432899,0.014745734063610447,0.053000000000000005,-0.21552050998598915,-0.8959939719059601,1.551195081980877,-1.57,4.71159,0.0,0.5,44
1753425404.1032457,261,326.01794388657976,329.4914681272209,324.3131821045083,324.7910652438089,0.5621565910522541,0.012395532621904445,-0.09249999999999992,0.5621565910522541,0.012395532621904445,0.053000000000000005,-0.21982267624703503,-0.8965998049458981,1.552318339263522,-1.57,4.71159,0.0,0.5,45
1753425404.1227388,262,324.3131821045082,324.79106524380893,322.9067244697691,319.99295343584896,0.5614533622348845,0.009996476717924488,-0.09250000000000005,0.5614533622348845,0.009996476717924488,0.053000000000000005,-0.22415476504048656,-0.8968940662400148,1.5528638532912442,-1.57,4.71159,0.0,0.5,46
1753425404.1430047,263,322.9067244697692,319.992953435849,321.80411424811416,315.116043481882,0.560902057124057,0.007558021740940987,-0.09250000000000011,0.560902057124057,0.007558021740940987,0.053000000000000005,-0.228496029372733,-0.896875530198399,1.5528294916915182,-1.57,4.71159,0.0,0.5,47
1753425404.1629996,264,321.8041142481142,315.116043481882,321.00969715272265,310.17955672726094,0.5605048485763613,0.005089778363630476,-0.09250000000000008,0.5605048485763613,0.005089778363630476,0.053000000000000005,-0.2328256541298171,-0.8965442740473508,1.5522153888046752,-1.57,4.71159,0.0,0.5,48
1753425404.1848886,265,321.0096971527226,310.1795567272609,320.5266042164595,305.2029493271406,0.5602633021082297,0.0026014746635702884,-0.0925000000000002,0.5602633021082297,0.0026014746635702884,0.053000000000000005,-0.23712291059780355,-0.8959016773432155,1.5510239449993624,-1.57,4.71159,0.0,0.5,49
1753425404.2024384,266,320.5266042164592,305.20294932714063,320.3567394515473,300.20583556401283,0.5601783697257736,0.000102917782006412,-0.09250000000000028,0.5601783697257736,0.000102917782006412,0.053000000000000005,-0.2413673096540585,-0.8949504133084288,1.549259814466829,-1.57,4.71159,0.0,0.5,50
1753425404.2231903,267,320.3567394515476,300.2058355640128,320.5007723452938,295.20791054201425,0.5602503861726469,-0.002396044728992866,-0.09250000000000014,0.5602503861726469,-0.002396044728992866,0.053000000000000005,-0.2455387512909661,-0.8936944321546346,1.5469298816913857,-1.57,4.71159,0.0,0.75,51
1753425404.2429361,268,320.5007723452939,295.2079105420143,320.9581352214409,290.2288725626931,0.5604790676107204,-0.004885563718653466,-0.0925,0.5604790676107204,-0.004885563718653466,0.053000000000000005,-0.24961766823999992,-0.8921389367069239,1.5440432269733846,-1.57,4.71159,0.0,0.75,52
1753425404.26445,269,320.9581352214408,290.2288725626931,321.7270254775458,285.28834548817287,0.5608635127387729,-0.007355827255913577,-0.09250000000000014,0.5608635127387729,-0.007355827255913577,0.053000000000000005,-0.2535851616331212,-0.8902903507802488,1.5406110815461507,-1.57,4.71159,0.0,0.75,53
1753425404.283488,270,321.72702547754585,285.2883454881729,322.8044126895718,280.4058013977049,0.5614022063447859,-0.009797099301147527,-0.09249999999999997,0.5614022063447859,-0.009797099301147527,0.053000000000000005,-0.2574231268624891,-0.8881562808789558,1.5366467729737867,-1.57,4.71159,0.0,0.75,54
1753425404.3029392,271,322.8044126895718,280.405801397705,324.1860505556849,275.6004838424416,0.5620930252778424,-0.012199758078779224,-0.0925000000000002,0.5620930252778424,-0.012199758078779224,0.053000000000000005,-0.26111436806844435,-0.8857454718889103,1.5321656616375863,-1.57,4.71159,0.0,0.75,55
1753425404.3230739,272,324.1860505556849,275.6004838424415,325.86649363218675,270.89133200090595,0.5629332468160934,-0.014554333999547017,-0.09249999999999997,0.5629332468160934,-0.014554333999547017,0.053000000000000005,-0.26464269998805784,-0.8830677575058594,1.5271850692112714,-1.57,4.71159,0.0,0.75,56
1753425404.34551,273,325.8664936321865,270.891332000906,327.8391187956188,266.2969060340854,0.5639195593978094,-0.016851546982957294,-0.09249999999999997,0.5639195593978094,-0.016851546982957294,0.053000000000000005,-0.26799303621968357,-0.8801340061916946,1.5217242000868172,-1.57,4.71159,0.0,0.75,57
1753425404.3629863,274,327.8391187956187,266.2969060340854,330.09615134645276,261.83531393434396,0.5650480756732263,-0.019082343032828006,-0.09250000000000008,0.5650480756732263,-0.019082343032828006,0.053000000000000005,-0.2711514632902174,-0.8769560634714091,1.5158040567421156,-1.57,4.71159,0.0,0.75,58
1753425404.3829558,275,330.09615134645287,261.83531393434396,332.62869565148264,257.52414015646605,0.5663143478257413,-0.021237929921766985,-0.09250000000000003,0.5663143478257413,-0.021237929921766985,0.053000000000000005,-0.2741053002389465,-0.8735466913785197,1.509447350039228,-1.57,4.71159,0.0,0.75,59
1753425404.402691,276,332.6286956514824,257.5241401564661,335.42677020414567,253.3803763121163,0.5677133851020728,-0.023309811843941847,-0.09249999999999997,0.5677133851020728,-0.023309811843941847,0.053000000000000005,-0.276843143743914,-0.8699195058270117,1.5026784054088296,-1.57,4.71159,0.0,0.75,60
1753425404.4227364,277,335.4267702041456,253.3803763121163,338.47934696459555,249.42035420086972,0.5692396734822978,-0.025289822899565134,-0.09250000000000005,0.5692396734822978,-0.025289822899565134,0.053000000000000005,-0.27935489910414757,-0.8660889126361061,1.4955230658150525,-1.57,4.71159,0.0,0.75,61
1753425404.443881,278,338.47934696459544,249.42035420086972,341.7743948244699,245.65968144175642,0.5708871974122349,-0.027170159279121794,-0.09250000000000014,0.5708871974122349,-0.027170159279121794,0.053000000000000005,-0.2816317976463787,-0.8620700428634582,1.488008592308526,-1.57,4.71159,0.0,0.75,62
1753425404.4635687,279,341.77439482446994,245.6596814417564,345.2989270250496,242.11317995901618,0.5726494635125248,-0.028943410020491916,-0.09249999999999997,0.5726494635125248,-0.028943410020491916,0.053000000000000005,-0.28366640134258075,-0.8578786880165363,1.4801635628680496,-1.57,4.71159,0.0,0.75,63
1753425404.4828875,280,345.29892702504935,242.11317995901624,349.0390523419163,238.79482756450903,0.5745195261709581,-0.030602586217745475,-0.09250000000000003,0.5745195261709581,-0.030602586217745475,0.053000000000000005,-0.2854525956014826,-0.853531235614752,1.47201777010736,-1.57,4.71159,0.0,0.75,64
1753425404.5041585,281,349.0390523419165,238.79482756450906,352.98002983438136,235.71770286702218,0.5764900149171907,-0.03214114856648892,-0.09250000000000014,0.5764900149171907,-0.03214114856648892,0.053000000000000005,-0.28698557133191543,-0.8490446054705048,1.4636021182877228,-1.57,4.71159,0.0,0.75,65
1753425404.5230045,282,352.98002983438136,235.71770286702213,357.10632694389267,232.89393372560195,0.5785531634719463,-0.033553033137199026,-0.09250000000000005,0.5785531634719463,-0.033553033137199026,0.053000000000000005,-0.2882617974689836,-0.8444361869495489,1.4549485199343903,-1.57,4.71159,0.0,0.75,66
1753425404.5432742,283,357.10632694389284,232.89393372560195,361.4016807124466,230.33464945007307,0.5807008403562233,-0.03483267527496346,-0.09250000000000011,0.5807008403562233,-0.03483267527496346,0.053000000000000005,-0.28927898520773293,-0.8397237773636668,1.4460897922102123,-1.57,4.71159,0.0,0.75,67
1753425404.5627768,284,361.4016807124466,230.33464945007304,365.8491618797169,228.04993693713445,0.5829245809398584,-0.03597503153143278,-0.09250000000000022,0.5829245809398584,-0.03597503153143278,0.053000000000000005,-0.29003604520654375,-0.834925521544958,1.437059553057567,-1.57,4.71159,0.0,0.75,68
1753425404.582683,285,365.84916187971663,228.0499369371345,370.4312416062797,226.04880091491486,0.5852156208031398,-0.03697559954254258,-0.09249999999999992,0.5852156208031398,-0.03697559954254258,0.053000000000000005,-0.29053303900812716,-0.83005985255412,1.4278921169848304,-1.57,4.71159,0.0,0.75,69
1753425404.603254,286,370.43124160627946,226.0488009149149,375.12986055995697,224.3391284526743,0.5875649302799785,-0.037830435773662865,-0.09250000000000008,0.5875649302799785,-0.037830435773662865,0.053000000000000005,-0.29077112588450127,-0.8251454333875419,1.418622390250065,-1.57,4.71159,0.0,0.75,70
1753425404.6225376,287,375.129860559957,224.33912845267423,379.9265000929898,222.92765787552983,0.5899632500464949,-0.038536171062235086,-0.09250000000000005,0.5899632500464949,-0.038536171062235086,0.053000000000000005,-0.29075250624868887,-0.8202010994721063,1.409285765086508,-1.57,4.71159,0.0,0.75,71
1753425404.643198,288,379.92650009299,222.9276578755298,384.80225522950906,221.81995220672258,0.5924011276147545,-0.03909002389663871,-0.09249999999999994,0.5924011276147545,-0.03909002389663871,0.053000000000000005,-0.2904803626951054,-0.815245801674202,1.3999180125254234,-1.57,4.71159,0.0,0.75,72
1753425404.6675284,289,384.8022552295089,221.81995220672266,389.73790917563844,221.02037724209697,0.5948689545878192,-0.03948981137895151,-0.09250000000000003,0.5948689545878192,-0.03948981137895151,0.053000000000000005,-0.28995879963747345,-0.8102985495021153,1.3905551733053811,-1.57,4.71159,0.0,0.75,73
1753425404.6830928,290,389.7379091756386,221.02037724209694,394.7140090585682,220.53208434320666,0.5973570045292841,-0.03973395782839667,-0.09250000000000014,0.5973570045292841,-0.03973395782839667,0.053000000000000005,-0.28919278241199536,-0.8053783541499936,1.3812334463161071,-1.57,4.71159,0.0,0.75,74
1753425404.7027066,291,394.7140090585682,220.53208434320666,399.7109425960822,220.35699801686678,0.5998554712980411,-0.0398215009915666,-0.09250000000000003,0.5998554712980411,-0.0398215009915666,0.053000000000000005,-0.2881880766083441,-0.8005041710179184,1.3719890740124112,-1.57,4.71159,0.0,0.75,75
1753425404.7227473,292,399.71094259608185,220.3569980168668,404.7090153943656,220.4958083301027,0.6023545076971828,-0.03975209583494864,-0.09250000000000028,0.6023545076971828,-0.03975209583494864,0.053000000000000005,-0.28695118828513416,-0.7956948413470029,1.3628582242517295,-1.57,4.71159,0.0,0.75,76
1753425404.7429173,293,400,300,480.0000000000003,300.0,0.6400000000000001,-1.3877787807814457e-17,-0.09250000000000014,0.6400000000000001,-1.3877787807814457e-17,0.053000000000000005,-0.21237346907137128,-0.7400259705286506,1.2565122925180772,-1.57,4.71159,0.0,0.0,0
1753425404.7628827,294,480,300,479.6729843538493,304.98929461619304,0.6398364921769246,0.0024946473080965093,-0.09250000000000011,0.6398364921769246,0.0024946473080965093,0.053000000000000005,-0.2086975672887406,-0.7414903610940358,1.2593245836618026,-1.57,4.71159,0.0,0.041666666666666664,1
1753425404.782867,295,479.6729843538494,304.98929461619304,479.1157776207008,309.95814968114854,0.6395578888103504,0.004979074840574277,-0.09250000000000022,0.6395578888103504,0.004979074840574277,0.053000000000000005,-0.20506523576452995,-0.7431704493106003,1.2625501596954807,-1.57,4.71159,0.0,0.08333333333333333,2
1753425404.8026705,296,479.1157776207007,309.95814968114854,478.29040513258855,314.8895551862623,0.6391452025662943,0.007444777593131169,-0.09250000000000011,0.6391452025662943,0.007444777593131169,0.053000000000000005,-0.20149347947932206,-0.7451018799112283,1.2662570230196355,-1.57,4.71159,0.0,0.125,3
1753425404.8246853,297,478.2904051325885,314.8895551862624,477.179094637553,319.764489953377,0.6385895473187765,0.009882244976688506,-0.09249999999999997,0.6385895473187765,0.009882244976688506,0.053000000000000005,-0.19799754362928254,-0.7472985852910398,1.2704713643360441,-1.57,4.71159,0.0,0.16666666666666666,4
1753425404.8449905,298,477.1790946375531,319.76448995337705,475.7752780866558,324.56337514594276,0.6378876390433279,0.012281687572971378,-0.09249999999999997,0.6378876390433279,0.012281687572971378,0.053000000000000005,-0.1945914531593893,-0.7497626230703626,1.2751964848281474,-1.57,4.71159,0.0,0.20833333333333334,5
1753425404.8645372,299,475.77527808665565,324.56337514594276,474.078812141249,329.26677851967906,0.6370394060706245,0.014633389259839522,-0.09250000000000028,0.6370394060706245,0.014633389259839522,0.053000000000000005,-0.19128834737281356,-0.7524893926561749,1.2804228357719942,-1.57,4.71159,0.0,0.25,6
1753425404.88328,300,474.07881214124876,329.26677851967906,472.0934524054417,333.85571594782476,0.6360467262027208,0.016927857973912372,-0.09250000000000005,0.6360467262027208,0.016927857973912372,0.053000000000000005,-0.18810071275633758,-0.755470385278455,1.2861333177091543,-1.57,4.71159,0.0,0.25,7
1753425404.9025967,301,472.09345240544184,333.8557159478247,469.8255169400399,338.31177572354267,0.6349127584700199,0.019155887861771324,-0.0925000000000002,0.6349127584700199,0.019155887861771324,0.053000000000000005,-0.18504053780896731,-0.7586946409765805,1.2923060948852052,-1.57,4.71159,0.0,0.25,8
1753425404.9226367,302,469.8255169400396,338.31177572354267,467.2831728702854,342.61717775250406,0.6336415864351427,0.021308588876252033,-0.09250000000000008,0.6336415864351427,0.021308588876252033,0.053000000000000005,-0.18211940621183856,-0.762149533780572,1.2989161190097263,-1.57,4.71159,0.0,0.25,9
1753425404.9440475,303,467.2831728702855,342.617177752504,464.4760470439314,346.7548153145698,0.6322380235219657,0.023377407657284882,-0.09250000000000017,0.6322380235219657,0.023377407657284882,0.053000000000000005,-0.1793485443469418,-0.7658212099263277,1.305935986585247,-1.57,4.71159,0.0,0.25,10
1753425404.9625258,304,464.47604704393143,346.7548153145697,461.41500358376726,350.70829643062257,0.6307075017918836,0.02535414821531129,-0.09250000000000008,0.6307075017918836,0.02535414821531129,0.053000000000000005,-0.17673883685438527,-0.7696948475802371,1.3133364534552612,-1.57,4.71159,0.0,0.25,11
1753425404.9831061,305,461.41500358376715,350.70829643062257,458.11200614864174,354.4619890050826,0.6290560030743209,0.0272309945025413,-0.09250000000000033,0.6290560030743209,0.0272309945025413,0.053000000000000005,-0.17430082050603232,-0.7737548248332845,1.3210867731302687,-1.57,4.71159,0.0,0.25,12
1753425405.004339,306,458.112006148642,354.46198900508256,454.58002215334454,358.0010692608786,0.6272900110766723,0.02900053463043928,-0.0925,0.6272900110766723,0.02900053463043928,0.053000000000000005,-0.1720446634669321,-0.7779848403263782,1.3291549439485264,-1.57,4.71159,0.0,0.25,13
1753425405.0232894,307,454.58002215334454,358.0010692608786,450.8329468548283,361.3115717464915,0.6254164734274141,0.030655785873245744,-0.09250000000000008,0.6254164734274141,0.030655785873245744,0.053000000000000005,-0.1699801345392776,-0.7823680090208415,1.3375079081368815,-1.57,4.71159,0.0,0.25,14
1753425405.043163,308,450.83294685482826,361.3115717464915,446.8855359895397,364.380439202183,0.6234427679947698,0.03219021960109151,-0.09249999999999994,0.6234427679947698,0.03219021960109151,0.053000000000000005,-0.16811656527000943,-0.7868869444565435,1.346111724372002,-1.57,4.71159,0.0,0.25,15
1753425405.0634708,309,446.88553598953985,364.38043920218297,442.75334124874354,367.19557092630043,0.6213766706243717,0.03359778546315023,-0.0925,0.6213766706243717,0.03359778546315023,0.053000000000000005,-0.16646280670238753,-0.7915238331843664,1.3549317245802952,-1.57,4.71159,0.0,0.25,16
1753425405.082845,310,442.753341248743,367.1955709263005,438.4526457814205,369.7458686534975,0.6192263228907102,0.03487293432674874,-0.09250000000000008,0.6192263228907102,0.03487293432674874,0.053000000000000005,-0.16502718188732915,-0.7962605042365722,1.363932660297011,-1.57,4.71159,0.0,0.25,17
1753425405.1030889,311,438.4526457814204,369.7458686534975,434.0003984146022,372.0212792504356,0.6170001992073011,0.0360106396252178,-0.09250000000000011,0.6170001992073011,0.0360106396252178,0.053000000000000005,-0.16381743489626122,-0.8010784951198964,1.3730788412619965,-1.57,4.71159,0.0,0.25,18
1753425405.1225674,312,434.00039841460205,372.0212792504356,429.4141460553925,374.01283374319837,0.6147070730276962,0.03700641687159919,-0.09250000000000005,0.6147070730276962,0.03700641687159919,0.053000000000000005,-0.16284067688911125,-0.8059591151661883,1.382334267685805,-1.57,4.71159,0.0,0.25,19
1753425405.1426682,313,429.4141460553925,374.01283374319837,424.7119641389466,375.7126823319392,0.6123559820694733,0.037856341165969615,-0.09250000000000008,0.6123559820694733,0.037856341165969615,0.053000000000000005,-0.1621033297193195,-0.8108835067869001,1.3916627570696416,-1.57,4.71159,0.0,0.25,20
1753425405.1635456,314,424.7119641389461,375.7126823319393,419.91238519406636,377.11412514271007,0.6099561925970332,0.03855706257135504,-0.0925000000000002,0.6099561925970332,0.03855706257135504,0.053000000000000005,-0.16161106755814453,-0.8158327050627094,1.4010280662453356,-1.57,4.71159,0.0,0.25,21
1753425405.1827745,315,419.9123851940663,377.1141251427101,415.03432570656906,378.21163853052656,0.6075171628532845,0.03910581926526329,-0.09250000000000003,0.6075171628532845,0.03910581926526329,0.053000000000000005,-0.16136875706548015,-0.8207876960624656,1.4103940092341252,-1.57,4.71159,0.0,0.25,22
1753425405.2026417,316,415.03432570656895,378.2116385305266,410.0970115181707,379.0008967930979,0.6050485057590853,0.03950044839654895,-0.09249999999999997,0.6050485057590853,0.03950044839654895,0.053000000000000005,-0.16138039670673057,-0.8257294742780197,1.4197245715133673,-1.57,4.71159,0.0,0.25,23
1753425405.2228153,317,410.0970115181704,379.0008967930979,405.11990202991507,379.4787891888479,0.6025599510149575,0.03973939459442394,-0.09250000000000011,0.6025599510149575,0.03973939459442394,0.053000000000000005,-0.16164905590393966,-0.8306390995591053,1.4289840212827374,-1.57,4.71159,0.0,0.25,24
1753425405.242809,318,405.11990202991507,379.4787891888479,400.1226134965917,379.6434321805469,0.6000613067482958,0.039821716090273435,-0.09250000000000008,0.6000613067482958,0.039821716090273435,0.053000000000000005,-0.16217681480671045,-0.8354977539234073,1.4381370183142286,-1.57,4.71159,0.0,0.25,25
1753425405.2629669,319,400.1226134965918,379.64343218054694,395.12484170845795,379.4941768498767,0.597562420854229,0.03974708842493835,-0.09250000000000014,0.597562420854229,0.03974708842493835,0.053000000000000005,-0.1629647055685749,-0.8402867985957638,1.447148720943775,-1.57,4.71159,0.0,0.5,26
1753425405.28278,320,395.1248417084579,379.49417684987674,390.1462843620976,379.03161145017543,0.5950731421810488,0.03951580572508773,-0.09250000000000011,0.5950731421810488,0.03951580572508773,0.053000000000000005,-0.16401265611224863,-0.8449878315948502,1.455984891713223,-1.57,4.71159,0.0,0.5,27
1753425405.3052073,321,390.14628436209756,379.03161145017543,385.2065634249849,378.2575590853774,0.5926032817124924,0.039128779542688716,-0.0925000000000002,0.5926032817124924,0.039128779542688716,0.053000000000000005,-0.1653194374576953,-0.8495827461352858,1.4646120020996682,-1.57,4.71159,0.0,0.5,28
1753425405.322624,322,385.20656342498484,378.2575590853774,380.3251477990769,377.17507052325,0.5901625738995384,0.03858753526162499,-0.09250000000000008,0.5901625738995384,0.03858753526162499,0.053000000000000005,-0.16688261576515923,-0.8540537900484197,1.4729973366766245,-1.57,4.71159,0.0,0.5,29
1753425405.3427417,323,380.32514779907643,377.17507052325004,375.5212765879311,375.78841217069015,0.5877606382939655,0.03789420608534508,-0.0925,0.5877606382939655,0.03789420608534508,0.053000000000000005,-0.168698510306187,-0.8583836263473854,1.4811090969408316,-1.57,4.71159,0.0,0.5,30
1753425405.363044,324,375.521276587931,375.78841217069015,370.8138832696391,374.10304925816945,0.5854069416348195,0.03705152462908473,-0.09250000000000003,0.5854069416348195,0.03705152462908473,0.053000000000000005,-0.1707621586139817,-0.8625553949730946,1.4889165049131903,-1.57,4.71159,0.0,0.5,31
1753425405.3830798,325,370.8138832696391,374.1030492581695,366.2215210743621,372.12562429944387,0.583110760537181,0.036062812149721936,-0.09249999999999994,0.583110760537181,0.036062812149721936,0.053000000000000005,-0.17306729007512608,-0.8665527756599193,1.496389906486178,-1.57,4.71159,0.0,0.5,32
1753425405.402952,326,366.22152107436216,372.12562429944387,361.76228986055537,369.86393091133607,0.5808811449302776,0.03493196545566802,-0.09250000000000014,0.5808811449302776,0.03493196545566802,0.053000000000000005,-0.1756063092030206,-0.870360051755493,1.5035008743473877,-1.57,4.71159,0.0,0.5,33
1753425405.4225876,327,361.76228986055526,369.863930911336,357.4537647780701,367.32688309673046,0.578726882389035,0.033663441548365224,-0.09250000000000014,0.578726882389035,0.033663441548365224,0.053000000000000005,-0.17837028977514652,-0.8739621747214169,1.5102223101640466,-1.57,4.71159,0.0,0.5,34
1753425405.4428675,328,357.4537647780701,367.32688309673046,353.3129269992899,364.5244801118221,0.576656463499645,0.03226224005591104,-0.09249999999999994,0.576656463499645,0.03226224005591104,0.053000000000000005,-0.18134898091827126,-0.8773448289340953,1.5165285455712627,-1.57,4.71159,0.0,0.5,35
